;FLAVOR:Marlin
;TIME:3262
;Filament used: 1.84866m
;Layer height: 0.2
;MINX:72.899
;MINY:96.514
;MINZ:0.2
;MAXX:138.485
;MAXY:170.651
;MAXZ:23.2
;Generated with Cura_SteamEngine 4.6.1
M140 S60
M105
M190 S60
M104 S200
M105
M109 S200
M82 ;absolute extrusion mode
; Ender 3 Custom Start G-code
G92 E0 ; Reset Extruder
G28 ; Home all axes
G1 Z2.0 F3000 ; Move Z Axis up little to prevent scratching of Heat Bed
G1 X0.1 Y20 Z0.3 F5000.0 ; Move to start position
G1 X0.1 Y200.0 Z0.3 F1500.0 E15 ; Draw the first line
G1 X0.4 Y200.0 Z0.3 F5000.0 ; Move to side a little
G1 X0.4 Y20 Z0.3 F1500.0 E30 ; Draw the second line
G92 E0 ; Reset Extruder
G1 Z2.0 F3000 ; Move Z Axis up little to prevent scratching of Heat Bed
G1 X5 Y20 Z0.3 F5000.0 ; Move over to prevent blob squish
G92 E0
G92 E0
G1 F1500 E-6.5
;LAYER_COUNT:116
;LAYER:0
M107
G0 F6000 X118.829 Y97.358 Z0.2
;TYPE:SKIRT
G1 F1500 E0
G1 F1200 X119.453 Y97.409 E0.02082
G1 X120.054 Y97.476 E0.04094
G1 X120.604 Y97.554 E0.05941
G1 X121.195 Y97.656 E0.07936
G1 X121.803 Y97.779 E0.09999
G1 X122.389 Y97.915 E0.12
G1 X122.956 Y98.065 E0.13951
G1 X123.568 Y98.248 E0.16075
G1 X124.187 Y98.454 E0.18245
G1 X124.764 Y98.666 E0.2029
G1 X125.25 Y98.861 E0.22031
G1 X125.792 Y99.096 E0.23996
G1 X126.379 Y99.372 E0.26154
G1 X126.921 Y99.647 E0.28175
G1 X127.409 Y99.913 E0.30024
G1 X127.959 Y100.236 E0.32145
G1 X128.52 Y100.589 E0.3435
G1 X129.006 Y100.914 E0.36294
G1 X129.444 Y101.226 E0.38083
G1 X129.949 Y101.61 E0.40193
G1 X130.456 Y102.021 E0.42364
G1 X130.891 Y102.395 E0.44272
G1 X131.273 Y102.742 E0.45988
G1 X131.748 Y103.202 E0.48187
G1 X132.243 Y103.714 E0.50556
G1 X132.629 Y104.136 E0.52458
G1 X132.927 Y104.481 E0.53975
G1 X133.306 Y104.943 E0.55962
G1 X133.51 Y105.206 E0.57069
G1 X133.78 Y105.566 E0.58566
G1 X134.08 Y105.988 E0.60288
G1 X134.408 Y106.475 E0.62241
G1 X134.731 Y106.986 E0.64251
G1 X135.031 Y107.494 E0.66214
G1 X135.333 Y108.045 E0.68304
G1 X135.606 Y108.58 E0.70301
G1 X135.871 Y109.135 E0.72347
G1 X135.99 Y109.4 E0.73313
G1 X136.13 Y109.727 E0.74496
G1 X136.327 Y110.223 E0.76271
G1 X136.556 Y110.846 E0.78479
G1 X136.745 Y111.41 E0.80457
G1 X136.893 Y111.899 E0.82157
G1 X137.054 Y112.495 E0.8421
G1 X137.213 Y113.164 E0.86497
G1 X137.339 Y113.781 E0.88591
G1 X137.434 Y114.329 E0.90441
G1 X137.517 Y114.9 E0.9236
G1 X137.581 Y115.454 E0.94215
G1 X137.633 Y116.067 E0.96261
G1 X137.67 Y116.742 E0.9851
G1 X137.685 Y117.388 E1.00659
G1 X137.68 Y117.969 E1.02592
G1 X137.656 Y118.584 E1.04639
G1 X137.598 Y119.383 E1.07303
G1 X137.353 Y122.084 E1.16324
G1 X137.193 Y124.63 E1.24808
G1 X137.107 Y127.152 E1.33201
G1 X137.092 Y129.723 E1.41753
G1 X137.149 Y132.231 E1.50096
G1 X137.243 Y134.241 E1.56789
G1 X137.287 Y135.073 E1.5956
G1 X137.301 Y135.679 E1.61576
G1 X137.3 Y159.055 E2.39325
G1 X137.29 Y159.782 E2.41743
G1 X137.238 Y160.684 E2.44748
G1 X137.106 Y161.577 E2.47751
G1 X136.895 Y162.456 E2.50757
G1 X136.608 Y163.312 E2.5376
G1 X136.246 Y164.139 E2.56763
G1 X135.812 Y164.931 E2.59767
G1 X135.31 Y165.682 E2.62771
G1 X134.744 Y166.385 E2.65773
G1 X134.117 Y167.036 E2.68779
G1 X133.436 Y167.628 E2.7178
G1 X132.705 Y168.158 E2.74783
G1 X131.929 Y168.621 E2.77789
G1 X131.116 Y169.014 E2.80792
G1 X130.271 Y169.334 E2.83798
G1 X129.402 Y169.577 E2.86799
G1 X128.514 Y169.742 E2.89803
G1 X127.378 Y169.838 E2.93595
G1 X126.771 Y169.851 E2.95614
G1 X84.474 Y169.85 E4.36294
G1 X83.776 Y169.841 E4.38616
G1 X82.875 Y169.79 E4.41618
G1 X81.981 Y169.658 E4.44623
G1 X81.103 Y169.449 E4.47625
G1 X80.246 Y169.162 E4.50631
G1 X79.419 Y168.801 E4.53632
G1 X78.626 Y168.368 E4.56638
G1 X77.875 Y167.867 E4.5964
G1 X77.171 Y167.301 E4.62645
G1 X76.52 Y166.675 E4.65649
G1 X75.927 Y165.994 E4.68652
G1 X75.397 Y165.263 E4.71655
G1 X74.933 Y164.488 E4.74659
G1 X74.539 Y163.675 E4.77664
G1 X74.219 Y162.831 E4.80666
G1 X73.975 Y161.961 E4.83672
G1 X73.809 Y161.073 E4.86676
G1 X73.712 Y159.918 E4.90531
G1 X73.699 Y159.309 E4.92557
G1 X73.7 Y135.91 E5.70383
G1 X73.71 Y135.212 E5.72705
G1 X73.763 Y134.31 E5.7571
G1 X73.895 Y133.417 E5.78712
G1 X74.106 Y132.539 E5.81716
G1 X74.394 Y131.683 E5.8472
G1 X74.756 Y130.856 E5.87722
G1 X75.191 Y130.064 E5.90727
G1 X75.693 Y129.313 E5.93732
G1 X76.26 Y128.61 E5.96736
G1 X76.887 Y127.96 E5.9974
G1 X77.569 Y127.368 E6.02743
G1 X78.162 Y126.931 E6.05193
G1 X78.921 Y126.416 E6.08244
G1 X79.951 Y125.74 E6.12342
G1 X82.034 Y124.285 E6.20793
G1 X84.068 Y122.778 E6.29212
G1 X86.063 Y121.211 E6.3765
G1 X88.031 Y119.572 E6.46168
G1 X89.933 Y117.896 E6.546
G1 X91.798 Y116.157 E6.63081
G1 X93.609 Y114.367 E6.7155
G1 X95.34 Y112.558 E6.79878
G1 X97.048 Y110.67 E6.88346
G1 X98.74 Y108.69 E6.97008
G1 X100.302 Y106.751 E7.0529
G1 X101.666 Y104.976 E7.12735
G1 X101.97 Y104.599 E7.14346
G1 X102.225 Y104.298 E7.15658
G1 X102.585 Y103.895 E7.17455
G1 X103.028 Y103.425 E7.19603
G1 X103.46 Y102.994 E7.21633
G1 X103.886 Y102.593 E7.23579
G1 X104.345 Y102.186 E7.25619
G1 X104.79 Y101.815 E7.27546
G1 X105.248 Y101.455 E7.29484
G1 X105.704 Y101.117 E7.31372
G1 X106.218 Y100.76 E7.33453
G1 X106.764 Y100.405 E7.35619
G1 X107.274 Y100.094 E7.37606
G1 X107.732 Y99.833 E7.39359
G1 X108.263 Y99.55 E7.41361
G1 X108.86 Y99.255 E7.43575
G1 X109.434 Y98.991 E7.45677
G1 X109.962 Y98.769 E7.47582
G1 X110.513 Y98.558 E7.49544
G1 X111.124 Y98.345 E7.51696
G1 X111.71 Y98.161 E7.53739
G1 X112.319 Y97.989 E7.55844
G1 X112.859 Y97.852 E7.57697
G1 X113.363 Y97.739 E7.59415
G1 X114.017 Y97.615 E7.61629
G1 X114.662 Y97.514 E7.638
G1 X115.241 Y97.44 E7.65742
G1 X115.8 Y97.385 E7.6761
G1 X116.389 Y97.344 E7.69574
G1 X117.01 Y97.319 E7.71641
G1 X117.649 Y97.314 E7.73766
G1 X118.227 Y97.327 E7.75689
G1 X118.829 Y97.358 E7.77694
G0 F6000 X118.861 Y96.959
G1 F1200 X119.485 Y97.01 E7.79776
G1 X120.11 Y97.08 E7.81868
G1 X120.66 Y97.158 E7.83716
G1 X121.274 Y97.263 E7.85788
G1 X121.882 Y97.386 E7.87851
G1 X122.491 Y97.529 E7.89931
G1 X123.058 Y97.679 E7.91882
G1 X123.694 Y97.868 E7.94089
G1 X124.313 Y98.074 E7.96259
G1 X124.913 Y98.294 E7.98384
G1 X125.399 Y98.489 E8.00126
G1 X125.962 Y98.734 E8.02168
G1 X126.549 Y99.01 E8.04326
G1 X127.112 Y99.296 E8.06426
G1 X127.6 Y99.562 E8.08274
G1 X128.172 Y99.897 E8.10479
G1 X128.733 Y100.25 E8.12684
G1 X129.238 Y100.588 E8.14705
G1 X129.676 Y100.9 E8.16493
G1 X130.201 Y101.3 E8.18689
G1 X130.708 Y101.711 E8.20859
G1 X131.16 Y102.099 E8.22841
G1 X131.542 Y102.446 E8.24557
G1 X132.036 Y102.924 E8.26844
G1 X132.531 Y103.436 E8.29212
G1 X132.932 Y103.875 E8.3119
G1 X133.23 Y104.22 E8.32706
G1 X133.618 Y104.693 E8.34741
G1 X133.83 Y104.966 E8.3589
G1 X134.1 Y105.326 E8.37387
G1 X134.412 Y105.765 E8.39178
G1 X134.74 Y106.252 E8.41131
G1 X135.075 Y106.783 E8.4322
G1 X135.375 Y107.291 E8.45182
G1 X135.69 Y107.863 E8.47354
G1 X135.963 Y108.398 E8.49351
G1 X136.235 Y108.967 E8.51449
G1 X136.497 Y109.57 E8.53636
G1 X136.702 Y110.085 E8.55479
G1 X136.931 Y110.708 E8.57687
G1 X137.128 Y111.294 E8.59743
G1 X137.276 Y111.783 E8.61443
G1 X137.443 Y112.403 E8.63578
G1 X137.602 Y113.072 E8.65865
G1 X137.733 Y113.712 E8.68038
G1 X137.828 Y114.26 E8.69888
G1 X137.914 Y114.855 E8.71887
G1 X137.978 Y115.409 E8.73742
G1 X138.032 Y116.045 E8.75865
G1 X138.069 Y116.72 E8.78114
G1 X138.085 Y117.391 E8.80346
G1 X138.08 Y117.972 E8.82279
G1 X138.055 Y118.612 E8.84409
G1 X137.996 Y119.419 E8.871
G1 X137.752 Y122.109 E8.96084
G1 X137.593 Y124.633 E9.04495
G1 X137.507 Y127.167 E9.12928
G1 X137.492 Y129.716 E9.21406
G1 X137.549 Y132.244 E9.29817
G1 X137.64 Y134.183 E9.36273
G1 X137.687 Y135.061 E9.39197
G1 X137.701 Y135.679 E9.41253
G1 X137.7 Y159.061 E10.19022
G1 X137.69 Y159.788 E10.2144
G1 X137.637 Y160.707 E10.24502
G1 X137.505 Y161.618 E10.27564
G1 X137.294 Y162.514 E10.30625
G1 X137.007 Y163.389 E10.33688
G1 X136.644 Y164.235 E10.3675
G1 X136.21 Y165.047 E10.39812
G1 X135.706 Y165.818 E10.42876
G1 X135.138 Y166.542 E10.45937
G1 X134.509 Y167.214 E10.48998
G1 X133.824 Y167.829 E10.5206
G1 X133.088 Y168.382 E10.55122
G1 X132.307 Y168.87 E10.58185
G1 X131.487 Y169.288 E10.61246
G1 X130.633 Y169.633 E10.6431
G1 X129.753 Y169.902 E10.6737
G1 X128.852 Y170.095 E10.70435
G1 X127.939 Y170.208 E10.73495
G1 X127.389 Y170.238 E10.75327
G1 X126.771 Y170.251 E10.77383
G1 X84.469 Y170.25 E12.1808
G1 X83.771 Y170.241 E12.20401
G1 X82.852 Y170.189 E12.23463
G1 X81.941 Y170.058 E12.26524
G1 X81.045 Y169.848 E12.29585
G1 X80.17 Y169.561 E12.32648
G1 X79.323 Y169.199 E12.35711
G1 X78.511 Y168.765 E12.38774
G1 X77.74 Y168.263 E12.41834
G1 X77.015 Y167.695 E12.44897
G1 X76.342 Y167.066 E12.47961
G1 X75.727 Y166.382 E12.5102
G1 X75.173 Y165.647 E12.54081
G1 X74.685 Y164.866 E12.57144
G1 X74.266 Y164.046 E12.60207
G1 X73.92 Y163.193 E12.63269
G1 X73.65 Y162.313 E12.6633
G1 X73.457 Y161.412 E12.69395
G1 X73.343 Y160.499 E12.72455
G1 X73.312 Y159.928 E12.74357
G1 X73.299 Y159.309 E12.76417
G1 X73.3 Y135.904 E13.54262
G1 X73.31 Y135.206 E13.56584
G1 X73.363 Y134.287 E13.59645
G1 X73.496 Y133.376 E13.62707
G1 X73.707 Y132.48 E13.65769
G1 X73.995 Y131.606 E13.6883
G1 X74.358 Y130.759 E13.71895
G1 X74.793 Y129.948 E13.74956
G1 X75.297 Y129.178 E13.78017
G1 X75.866 Y128.454 E13.81079
G1 X76.496 Y127.782 E13.84143
G1 X77.181 Y127.167 E13.87205
G1 X77.937 Y126.601 E13.90346
G1 X78.701 Y126.081 E13.9342
G1 X79.748 Y125.394 E13.97585
G1 X81.796 Y123.964 E14.05893
G1 X83.845 Y122.444 E14.14378
G1 X85.805 Y120.905 E14.22666
G1 X87.773 Y119.266 E14.31185
G1 X89.679 Y117.587 E14.39633
G1 X91.51 Y115.88 E14.47959
G1 X93.304 Y114.106 E14.56351
G1 X95.072 Y112.259 E14.64854
G1 X96.73 Y110.425 E14.73078
G1 X98.423 Y108.445 E14.81742
G1 X99.998 Y106.489 E14.90095
G1 X101.349 Y104.732 E14.97466
G1 X101.665 Y104.34 E14.99141
G1 X101.92 Y104.039 E15.00453
G1 X102.294 Y103.621 E15.02319
G1 X102.737 Y103.151 E15.04467
G1 X103.186 Y102.703 E15.06577
G1 X103.612 Y102.302 E15.08522
G1 X104.089 Y101.878 E15.10645
G1 X104.534 Y101.507 E15.12572
G1 X105.01 Y101.133 E15.14585
G1 X105.466 Y100.795 E15.16473
G1 X106 Y100.424 E15.18636
G1 X106.546 Y100.069 E15.20802
G1 X107.076 Y99.746 E15.22866
G1 X107.534 Y99.485 E15.2462
G1 X108.086 Y99.192 E15.26698
G1 X108.683 Y98.897 E15.28913
G1 X109.272 Y98.626 E15.3107
G1 X109.514 Y98.521 E15.31947
G1 X109.808 Y98.399 E15.33006
G1 X110.382 Y98.181 E15.35048
G1 X110.993 Y97.968 E15.372
G1 X111.601 Y97.776 E15.39321
G1 X112.21 Y97.604 E15.41425
G1 X112.772 Y97.462 E15.43353
G1 X113.276 Y97.349 E15.45071
G1 X113.955 Y97.22 E15.4737
G1 X114.6 Y97.119 E15.49541
G1 X115.202 Y97.042 E15.5156
G1 X115.761 Y96.987 E15.53428
G1 X116.373 Y96.945 E15.55469
G1 X116.994 Y96.92 E15.57536
G1 X117.658 Y96.914 E15.59744
G1 X118.236 Y96.927 E15.61667
G1 X118.861 Y96.959 E15.63749
G0 F6000 X118.894 Y96.561
G1 F1200 X119.518 Y96.612 E15.65831
G1 X120.167 Y96.684 E15.68003
G1 X120.717 Y96.762 E15.6985
G1 X121.353 Y96.871 E15.71997
G1 X121.961 Y96.994 E15.7406
G1 X122.593 Y97.142 E15.76219
G1 X123.16 Y97.292 E15.78169
G1 X123.82 Y97.489 E15.8046
G1 X124.439 Y97.695 E15.8263
G1 X125.062 Y97.923 E15.84837
G1 X125.548 Y98.118 E15.86578
G1 X126.133 Y98.372 E15.887
G1 X126.72 Y98.648 E15.90857
G1 X127.304 Y98.945 E15.93036
G1 X127.792 Y99.211 E15.94885
G1 X128.385 Y99.559 E15.97172
G1 X128.946 Y99.912 E15.99376
G1 X129.47 Y100.263 E16.01474
G1 X129.908 Y100.575 E16.03262
G1 X130.453 Y100.989 E16.05539
G1 X130.96 Y101.4 E16.0771
G1 X131.429 Y101.803 E16.09766
G1 X131.811 Y102.15 E16.11483
G1 X132.323 Y102.646 E16.13854
G1 X132.818 Y103.158 E16.16222
G1 X133.235 Y103.614 E16.18278
G1 X133.533 Y103.959 E16.19794
G1 X133.93 Y104.443 E16.21876
G1 X134.15 Y104.726 E16.23068
G1 X134.42 Y105.086 E16.24565
G1 X134.744 Y105.541 E16.26423
G1 X135.072 Y106.028 E16.28375
G1 X135.42 Y106.579 E16.30543
G1 X135.72 Y107.087 E16.32505
G1 X136.046 Y107.681 E16.34759
G1 X136.319 Y108.216 E16.36757
G1 X136.598 Y108.799 E16.38906
G1 X136.865 Y109.413 E16.41133
G1 X137.078 Y109.947 E16.43045
G1 X137.307 Y110.57 E16.45253
G1 X137.51 Y111.179 E16.47388
G1 X137.658 Y111.668 E16.49087
G1 X137.832 Y112.31 E16.513
G1 X137.991 Y112.979 E16.53587
G1 X138.127 Y113.644 E16.55844
G1 X138.222 Y114.192 E16.57694
G1 X138.311 Y114.809 E16.59768
G1 X138.375 Y115.363 E16.61622
G1 X138.432 Y116.023 E16.63826
G1 X138.469 Y116.698 E16.66074
G1 X138.485 Y117.395 E16.68393
G1 X138.48 Y117.976 E16.70326
G1 X138.454 Y118.639 E16.72532
G1 X138.395 Y119.456 E16.75257
G1 X138.148 Y122.173 E16.84331
G1 X137.993 Y124.638 E16.92546
G1 X137.907 Y127.183 E17.01015
G1 X137.892 Y129.71 E17.0942
G1 X137.949 Y132.216 E17.17757
G1 X138.04 Y134.159 E17.24227
G1 X138.087 Y135.049 E17.27191
G1 X138.101 Y135.679 E17.29287
G1 X138.1 Y159.066 E18.07073
G1 X138.09 Y159.793 E18.09491
G1 X138.037 Y160.73 E18.12612
G1 X137.905 Y161.658 E18.1573
G1 X137.694 Y162.572 E18.1885
G1 X137.405 Y163.464 E18.21968
G1 X137.042 Y164.329 E18.25088
G1 X136.607 Y165.16 E18.28208
G1 X136.102 Y165.95 E18.31327
G1 X135.532 Y166.695 E18.34447
G1 X134.901 Y167.389 E18.37566
G1 X134.212 Y168.026 E18.40687
G1 X133.472 Y168.602 E18.43806
G1 X132.686 Y169.113 E18.46924
G1 X131.859 Y169.555 E18.50043
G1 X130.997 Y169.925 E18.53163
G1 X130.107 Y170.22 E18.56282
G1 X129.195 Y170.439 E18.59401
G1 X128.268 Y170.579 E18.6252
G1 X127.4 Y170.638 E18.65413
G1 X126.771 Y170.651 E18.67506
G1 X84.464 Y170.65 E20.08219
G1 X83.766 Y170.641 E20.10541
G1 X82.83 Y170.589 E20.13659
G1 X81.901 Y170.457 E20.1678
G1 X80.987 Y170.247 E20.19899
G1 X80.094 Y169.96 E20.23019
G1 X79.229 Y169.597 E20.26139
G1 X78.398 Y169.163 E20.29257
G1 X77.607 Y168.659 E20.32377
G1 X76.862 Y168.089 E20.35497
G1 X76.168 Y167.458 E20.38616
G1 X75.531 Y166.771 E20.41732
G1 X74.954 Y166.031 E20.44853
G1 X74.442 Y165.245 E20.47973
G1 X73.999 Y164.418 E20.51094
G1 X73.628 Y163.557 E20.54212
G1 X73.332 Y162.667 E20.57332
G1 X73.113 Y161.755 E20.60451
G1 X72.972 Y160.828 E20.6357
G1 X72.912 Y159.939 E20.66533
G1 X72.899 Y159.309 E20.68629
G1 X72.9 Y135.898 E21.46494
G1 X72.91 Y135.2 E21.48816
G1 X72.964 Y134.264 E21.51935
G1 X73.096 Y133.336 E21.55052
G1 X73.308 Y132.422 E21.58173
G1 X73.597 Y131.53 E21.61291
G1 X73.96 Y130.665 E21.64412
G1 X74.396 Y129.835 E21.6753
G1 X74.901 Y129.044 E21.70651
G1 X75.472 Y128.3 E21.73771
G1 X76.104 Y127.607 E21.7689
G1 X76.792 Y126.97 E21.80009
G1 X77.711 Y126.27 E21.83851
G1 X78.482 Y125.747 E21.8695
G1 X79.505 Y125.075 E21.9102
G1 X81.551 Y123.647 E21.99319
G1 X83.606 Y122.124 E22.07826
G1 X85.569 Y120.582 E22.16129
G1 X87.516 Y118.96 E22.24557
G1 X89.388 Y117.311 E22.32855
G1 X91.238 Y115.585 E22.4127
G1 X93.035 Y113.81 E22.49671
G1 X94.753 Y112.015 E22.57935
G1 X96.462 Y110.125 E22.6641
G1 X98.11 Y108.197 E22.74846
G1 X99.674 Y106.255 E22.83139
G1 X101.032 Y104.488 E22.90552
G1 X101.36 Y104.082 E22.92288
G1 X101.615 Y103.781 E22.936
G1 X102.003 Y103.346 E22.95538
G1 X102.446 Y102.876 E22.97687
G1 X102.911 Y102.411 E22.99874
G1 X103.337 Y102.01 E23.0182
G1 X103.833 Y101.571 E23.04023
G1 X104.278 Y101.2 E23.0595
G1 X104.772 Y100.812 E23.08039
G1 X105.228 Y100.474 E23.09927
G1 X105.782 Y100.089 E23.12171
G1 X106.328 Y99.734 E23.14337
G1 X106.878 Y99.399 E23.16479
G1 X107.336 Y99.138 E23.18232
G1 X107.909 Y98.833 E23.20391
G1 X108.506 Y98.538 E23.22606
G1 X109.109 Y98.26 E23.24814
G1 X109.655 Y98.03 E23.26785
G1 X110.25 Y97.803 E23.28903
G1 X110.861 Y97.59 E23.31055
G1 X111.492 Y97.391 E23.33256
G1 X112.101 Y97.219 E23.3536
G1 X112.684 Y97.071 E23.37361
G1 X113.188 Y96.958 E23.39079
G1 X113.893 Y96.824 E23.41466
G1 X114.538 Y96.723 E23.43637
G1 X115.163 Y96.644 E23.45732
G1 X115.722 Y96.589 E23.47601
G1 X116.357 Y96.545 E23.49718
G1 X116.978 Y96.52 E23.51785
G1 X117.667 Y96.514 E23.54077
G1 X118.245 Y96.527 E23.56
G1 X118.894 Y96.561 E23.58161
G1 F1500 E17.08161
;MESH:Screw Test 1.2.stl
G0 F6000 X117.672 Y115.799
G0 X117.99 Y113.837
G0 X118.263 Y114.77
G0 X118.762 Y114.577
G0 X119.491 Y115.028
G0 X120.097 Y115.688
G0 X120.508 Y116.435
G0 X120.682 Y117.287
G0 X120.622 Y118.153
G0 X120.318 Y118.933
G0 X119.828 Y119.66
G0 X119.148 Y120.259
G0 X118.346 Y120.591
G0 X117.911 Y120.519
;TYPE:WALL-INNER
G1 F1500 E23.58161
G1 F1200 X118.231 Y120.723 E23.59423
G1 X118.408 Y120.835 E23.6012
G1 X118.51 Y120.652 E23.60563
