;FLAVOR:Marlin
;TIME:476
;Filament used: 0.290703m
;Layer height: 0.2
;MINX:96.512
;MINY:96.514
;MINZ:0.2
;MAXX:138.485
;MAXY:138.486
;MAXZ:3.4
;Generated with Cura_SteamEngine 4.6.1
M140 S60
M105
M190 S60
M104 S200
M105
M109 S200
M82 ;absolute extrusion mode
; Ender 3 Custom Start G-code
G92 E0 ; Reset Extruder
G28 ; Home all axes
G1 Z2.0 F3000 ; Move Z Axis up little to prevent scratching of Heat Bed
G1 X0.1 Y20 Z0.3 F5000.0 ; Move to start position
G1 X0.1 Y200.0 Z0.3 F1500.0 E15 ; Draw the first line
G1 X0.4 Y200.0 Z0.3 F5000.0 ; Move to side a little
G1 X0.4 Y20 Z0.3 F1500.0 E30 ; Draw the second line
G92 E0 ; Reset Extruder
G1 Z2.0 F3000 ; Move Z Axis up little to prevent scratching of Heat Bed
G1 X5 Y20 Z0.3 F5000.0 ; Move over to prevent blob squish
G92 E0
G92 E0
G1 F1500 E-6.5
;LAYER_COUNT:17
;LAYER:0
M107
G0 F6000 X118.829 Y97.358 Z0.2
;TYPE:SKIRT
G1 F1500 E0
G1 F1200 X119.453 Y97.409 E0.02082
G1 X120.054 Y97.476 E0.04094
G1 X120.604 Y97.554 E0.05941
G1 X121.195 Y97.656 E0.07936
G1 X121.803 Y97.779 E0.09999
G1 X122.389 Y97.915 E0.12
G1 X122.956 Y98.065 E0.13951
G1 X123.568 Y98.248 E0.16075
G1 X124.187 Y98.454 E0.18245
G1 X124.764 Y98.666 E0.2029
G1 X125.25 Y98.861 E0.22031
G1 X125.792 Y99.096 E0.23996
G1 X126.379 Y99.372 E0.26154
G1 X126.921 Y99.647 E0.28175
G1 X127.409 Y99.913 E0.30024
G1 X127.959 Y100.236 E0.32145
G1 X128.52 Y100.589 E0.3435
G1 X129.006 Y100.914 E0.36294
G1 X129.444 Y101.226 E0.38083
G1 X129.949 Y101.61 E0.40193
G1 X130.456 Y102.021 E0.42364
G1 X130.891 Y102.395 E0.44272
G1 X131.273 Y102.742 E0.45988
G1 X131.748 Y103.202 E0.48187
G1 X132.243 Y103.714 E0.50556
G1 X132.629 Y104.136 E0.52458
G1 X132.927 Y104.481 E0.53975
G1 X133.307 Y104.944 E0.55967
G1 X133.521 Y105.219 E0.57126
G1 X133.786 Y105.573 E0.58596
G1 X134.08 Y105.988 E0.60288
G1 X134.408 Y106.475 E0.62241
G1 X134.731 Y106.986 E0.64252
G1 X135.031 Y107.494 E0.66214
G1 X135.333 Y108.045 E0.68304
G1 X135.606 Y108.58 E0.70301
G1 X135.871 Y109.135 E0.72347
G1 X135.99 Y109.4 E0.73313
G1 X136.13 Y109.727 E0.74496
G1 X136.327 Y110.223 E0.76271
G1 X136.556 Y110.846 E0.78479
G1 X136.745 Y111.41 E0.80457
G1 X136.893 Y111.899 E0.82157
G1 X137.054 Y112.495 E0.8421
G1 X137.213 Y113.164 E0.86497
G1 X137.339 Y113.781 E0.88592
G1 X137.434 Y114.329 E0.90441
G1 X137.517 Y114.9 E0.92361
G1 X137.581 Y115.454 E0.94215
G1 X137.632 Y116.056 E0.96225
G1 X137.669 Y116.718 E0.9843
G1 X137.685 Y117.373 E1.00609
G1 X137.68 Y117.967 E1.02585
G1 X137.656 Y118.584 E1.04639
G1 X137.616 Y119.163 E1.06569
G1 X137.562 Y119.719 E1.08427
G1 X137.491 Y120.29 E1.10341
G1 X137.393 Y120.916 E1.12448
G1 X137.277 Y121.533 E1.14536
G1 X137.141 Y122.152 E1.16644
G1 X136.986 Y122.764 E1.18744
G1 X136.827 Y123.323 E1.20677
G1 X136.668 Y123.828 E1.22438
G1 X136.458 Y124.429 E1.24555
G1 X136.224 Y125.037 E1.26722
G1 X136.004 Y125.565 E1.28625
G1 X135.784 Y126.053 E1.30405
G1 X135.504 Y126.626 E1.32526
G1 X135.196 Y127.209 E1.34719
G1 X134.905 Y127.722 E1.36681
G1 X134.619 Y128.195 E1.38519
G1 X134.277 Y128.724 E1.40615
G1 X133.928 Y129.228 E1.42654
G1 X133.584 Y129.696 E1.44585
G1 X133.236 Y130.142 E1.46467
G1 X132.831 Y130.633 E1.48584
G1 X132.392 Y131.128 E1.50784
G1 X131.996 Y131.546 E1.52699
G1 X131.509 Y132.031 E1.54985
G1 X131.103 Y132.414 E1.56842
G1 X130.74 Y132.738 E1.5846
G1 X130.252 Y133.146 E1.60576
G1 X129.714 Y133.569 E1.62852
G1 X129.213 Y133.939 E1.64924
G1 X128.749 Y134.26 E1.668
G1 X128.237 Y134.593 E1.68832
G1 X127.698 Y134.92 E1.70928
G1 X127.177 Y135.215 E1.7292
G1 X126.695 Y135.47 E1.74733
G1 X126.163 Y135.732 E1.76706
G1 X125.585 Y135.996 E1.78819
G1 X125.02 Y136.234 E1.80858
G1 X124.507 Y136.432 E1.82687
G1 X123.909 Y136.642 E1.84795
G1 X123.289 Y136.838 E1.86958
G1 X122.7 Y137.004 E1.88993
G1 X122.143 Y137.144 E1.90904
G1 X121.57 Y137.271 E1.92856
G1 X120.973 Y137.385 E1.94877
G1 X120.369 Y137.482 E1.96912
G1 X119.805 Y137.555 E1.98803
G1 X119.199 Y137.615 E2.00829
G1 X118.591 Y137.657 E2.02856
G1 X117.989 Y137.681 E2.0486
G1 X117.382 Y137.687 E2.06879
G1 X116.743 Y137.673 E2.09004
G1 X116.137 Y137.641 E2.11023
G1 X115.541 Y137.592 E2.13012
G1 X114.978 Y137.529 E2.14896
G1 X114.37 Y137.442 E2.16939
G1 X113.724 Y137.33 E2.1912
G1 X113.146 Y137.213 E2.21081
G1 X112.628 Y137.092 E2.2285
G1 X112.01 Y136.927 E2.24978
G1 X111.395 Y136.742 E2.27114
G1 X110.813 Y136.547 E2.29155
G1 X110.231 Y136.333 E2.31218
G1 X109.681 Y136.113 E2.33188
G1 X109.203 Y135.905 E2.34922
G1 X108.655 Y135.647 E2.36936
G1 X108.08 Y135.355 E2.39081
G1 X107.546 Y135.063 E2.41106
G1 X107.047 Y134.771 E2.43028
G1 X106.508 Y134.433 E2.45145
G1 X105.977 Y134.076 E2.47273
G1 X105.498 Y133.733 E2.49232
G1 X105.057 Y133.398 E2.51074
G1 X104.585 Y133.017 E2.53092
G1 X104.141 Y132.636 E2.55038
G1 X103.702 Y132.237 E2.57011
G1 X103.252 Y131.803 E2.5909
G1 X102.774 Y131.31 E2.61374
G1 X102.34 Y130.831 E2.63524
G1 X101.984 Y130.416 E2.65342
G1 X101.667 Y130.026 E2.67014
G1 X101.304 Y129.551 E2.69002
G1 X100.916 Y129.012 E2.71211
G1 X100.544 Y128.459 E2.73428
G1 X100.234 Y127.963 E2.75373
G1 X99.941 Y127.462 E2.77304
G1 X99.658 Y126.946 E2.79261
G1 X99.378 Y126.397 E2.81311
G1 X99.122 Y125.855 E2.83305
G1 X98.867 Y125.276 E2.85409
G1 X98.671 Y124.79 E2.87152
G1 X98.475 Y124.257 E2.89041
G1 X98.251 Y123.589 E2.91384
G1 X98.071 Y122.99 E2.93464
G1 X97.936 Y122.487 E2.95196
G1 X97.808 Y121.963 E2.96991
G1 X97.728 Y121.591 E2.98256
G1 X97.649 Y121.186 E2.99629
G1 X97.564 Y120.687 E3.01312
G1 X97.478 Y120.09 E3.03318
G1 X97.403 Y119.447 E3.05471
G1 X97.353 Y118.839 E3.075
G1 X97.326 Y118.287 E3.09339
G1 X97.312 Y117.665 E3.11408
G1 X97.316 Y117.045 E3.1347
G1 X97.34 Y116.417 E3.1556
G1 X97.38 Y115.824 E3.17537
G1 X97.431 Y115.297 E3.19298
G1 X97.507 Y114.704 E3.21287
G1 X97.614 Y114.02 E3.23589
G1 X97.734 Y113.383 E3.25745
G1 X97.848 Y112.87 E3.27493
G1 X97.988 Y112.314 E3.294
G1 X98.155 Y111.722 E3.31446
G1 X98.354 Y111.095 E3.33634
G1 X98.568 Y110.489 E3.35771
G1 X98.778 Y109.945 E3.37711
G1 X98.979 Y109.465 E3.39442
G1 X99.228 Y108.916 E3.41447
G1 X99.524 Y108.312 E3.43684
G1 X99.813 Y107.765 E3.45741
G1 X100.081 Y107.293 E3.47547
G1 X100.391 Y106.782 E3.49535
G1 X100.726 Y106.265 E3.51584
G1 X101.082 Y105.752 E3.5366
G1 X101.424 Y105.289 E3.55575
G1 X101.778 Y104.836 E3.57487
G1 X102.158 Y104.378 E3.59467
G1 X102.585 Y103.895 E3.61611
G1 X103.028 Y103.425 E3.63759
G1 X103.468 Y102.986 E3.65826
G1 X103.895 Y102.585 E3.67774
G1 X104.336 Y102.194 E3.69735
G1 X104.781 Y101.822 E3.71664
G1 X105.252 Y101.451 E3.73658
G1 X105.707 Y101.114 E3.75541
G1 X106.225 Y100.755 E3.77637
G1 X106.772 Y100.4 E3.79806
G1 X107.26 Y100.102 E3.81708
G1 X107.718 Y99.84 E3.83463
G1 X108.271 Y99.546 E3.85546
G1 X108.867 Y99.252 E3.87757
G1 X109.453 Y98.983 E3.89901
G1 X109.963 Y98.769 E3.91741
G1 X110.505 Y98.562 E3.9367
G1 X111.114 Y98.349 E3.95816
G1 X111.709 Y98.161 E3.97892
G1 X112.318 Y97.989 E3.99996
G1 X112.881 Y97.847 E4.01928
G1 X113.386 Y97.735 E4.03648
G1 X113.999 Y97.619 E4.05723
G1 X114.643 Y97.517 E4.07892
G1 X115.242 Y97.44 E4.099
G1 X115.802 Y97.385 E4.11772
G1 X116.389 Y97.344 E4.13729
G1 X117.01 Y97.319 E4.15796
G1 X117.649 Y97.314 E4.17922
G1 X118.227 Y97.327 E4.19844
G1 X118.829 Y97.358 E4.21849
G0 F6000 X118.861 Y96.959
G1 F1200 X119.485 Y97.01 E4.23932
G1 X120.11 Y97.08 E4.26023
G1 X120.66 Y97.158 E4.27871
G1 X121.274 Y97.263 E4.29943
G1 X121.882 Y97.386 E4.32006
G1 X122.491 Y97.529 E4.34087
G1 X123.058 Y97.679 E4.36037
G1 X123.694 Y97.868 E4.38244
G1 X124.313 Y98.074 E4.40414
G1 X124.913 Y98.294 E4.4254
G1 X125.399 Y98.489 E4.44281
G1 X125.962 Y98.734 E4.46323
G1 X126.549 Y99.01 E4.48481
G1 X127.112 Y99.296 E4.50581
G1 X127.6 Y99.562 E4.5243
G1 X128.172 Y99.897 E4.54634
G1 X128.733 Y100.25 E4.56839
G1 X129.238 Y100.588 E4.5886
G1 X129.676 Y100.9 E4.60649
G1 X130.201 Y101.3 E4.62844
G1 X130.708 Y101.711 E4.65015
G1 X131.16 Y102.099 E4.66996
G1 X131.542 Y102.446 E4.68713
G1 X132.036 Y102.924 E4.70999
G1 X132.531 Y103.436 E4.73367
G1 X132.932 Y103.875 E4.75345
G1 X133.23 Y104.22 E4.76861
G1 X133.619 Y104.694 E4.78901
G1 X133.841 Y104.98 E4.80105
G1 X134.106 Y105.334 E4.81576
G1 X134.412 Y105.765 E4.83334
G1 X134.74 Y106.252 E4.85287
G1 X135.075 Y106.783 E4.87375
G1 X135.375 Y107.291 E4.89337
G1 X135.69 Y107.863 E4.91509
G1 X135.963 Y108.398 E4.93507
G1 X136.235 Y108.967 E4.95604
G1 X136.497 Y109.57 E4.97791
G1 X136.702 Y110.085 E4.99635
G1 X136.931 Y110.708 E5.01842
G1 X137.128 Y111.294 E5.03899
G1 X137.276 Y111.783 E5.05598
G1 X137.443 Y112.403 E5.07733
G1 X137.602 Y113.072 E5.10021
G1 X137.733 Y113.712 E5.12193
G1 X137.828 Y114.26 E5.14043
G1 X137.914 Y114.855 E5.16043
G1 X137.978 Y115.409 E5.17898
G1 X138.031 Y116.033 E5.1998
G1 X138.068 Y116.695 E5.22186
G1 X138.085 Y117.376 E5.24451
G1 X138.08 Y117.97 E5.26427
G1 X138.055 Y118.612 E5.28564
G1 X138.015 Y119.191 E5.30494
G1 X137.959 Y119.768 E5.32423
G1 X137.888 Y120.339 E5.34336
G1 X137.786 Y120.99 E5.36528
G1 X137.67 Y121.607 E5.38616
G1 X137.529 Y122.25 E5.40806
G1 X137.374 Y122.862 E5.42905
G1 X137.209 Y123.443 E5.44914
G1 X137.05 Y123.948 E5.46675
G1 X136.832 Y124.572 E5.48874
G1 X136.598 Y125.18 E5.5104
G1 X136.368 Y125.729 E5.5302
G1 X136.148 Y126.217 E5.54801
G1 X135.857 Y126.812 E5.57003
G1 X135.549 Y127.395 E5.59197
G1 X135.248 Y127.929 E5.61235
G1 X134.962 Y128.402 E5.63074
G1 X134.606 Y128.952 E5.65253
G1 X134.257 Y129.456 E5.67292
G1 X133.899 Y129.942 E5.69299
G1 X133.551 Y130.388 E5.71181
G1 X133.136 Y130.891 E5.7335
G1 X132.933 Y131.125 E5.7438
G1 X132.69 Y131.396 E5.75591
G1 X132.278 Y131.83 E5.77581
G1 X131.791 Y132.315 E5.79867
G1 X131.369 Y132.712 E5.81794
G1 X131.006 Y133.036 E5.83413
G1 X130.5 Y133.461 E5.8561
G1 X129.962 Y133.884 E5.87887
G1 X129.441 Y134.268 E5.90039
G1 X128.977 Y134.589 E5.91916
G1 X128.444 Y134.935 E5.94029
G1 X127.905 Y135.262 E5.96126
G1 X127.364 Y135.569 E5.98195
G1 X126.882 Y135.824 E6.00009
G1 X126.329 Y136.096 E6.02059
G1 X125.751 Y136.36 E6.04172
G1 X125.164 Y136.607 E6.0629
G1 X124.651 Y136.805 E6.08119
G1 X124.029 Y137.023 E6.10311
G1 X123.409 Y137.219 E6.12474
G1 X122.798 Y137.392 E6.14586
G1 X122.241 Y137.532 E6.16496
G1 X121.645 Y137.664 E6.18527
G1 X121.048 Y137.778 E6.20548
G1 X120.421 Y137.878 E6.2266
G1 X119.857 Y137.951 E6.24552
G1 X119.226 Y138.014 E6.26661
G1 X118.618 Y138.056 E6.28688
G1 X117.993 Y138.08 E6.30768
G1 X117.386 Y138.086 E6.32787
G1 X116.722 Y138.072 E6.34996
G1 X116.116 Y138.04 E6.37014
G1 X115.496 Y137.989 E6.39083
G1 X114.933 Y137.926 E6.40968
G1 X114.301 Y137.836 E6.43091
G1 X113.655 Y137.724 E6.45272
G1 X113.055 Y137.602 E6.47308
G1 X112.537 Y137.481 E6.49077
G1 X111.895 Y137.31 E6.51287
G1 X111.28 Y137.125 E6.53423
G1 X110.675 Y136.923 E6.55544
G1 X110.093 Y136.709 E6.57607
G1 X109.522 Y136.48 E6.59653
G1 X109.044 Y136.272 E6.61387
G1 X108.473 Y136.003 E6.63486
G1 X107.898 Y135.711 E6.65631
G1 X107.344 Y135.409 E6.6773
G1 X106.845 Y135.117 E6.69653
G1 X106.285 Y134.765 E6.71853
G1 X105.754 Y134.408 E6.73981
G1 X105.256 Y134.052 E6.76017
G1 X104.815 Y133.717 E6.77859
G1 X104.324 Y133.32 E6.79959
G1 X103.88 Y132.939 E6.81905
G1 X103.425 Y132.525 E6.83951
G1 X102.975 Y132.091 E6.8603
G1 X102.478 Y131.578 E6.88406
G1 X102.044 Y131.099 E6.90556
G1 X101.673 Y130.668 E6.92447
G1 X101.356 Y130.278 E6.94119
G1 X100.979 Y129.785 E6.96183
G1 X100.591 Y129.246 E6.98392
G1 X100.205 Y128.671 E7.00695
G1 X99.895 Y128.175 E7.02641
G1 X99.59 Y127.654 E7.04649
G1 X99.307 Y127.138 E7.06606
G1 X99.016 Y126.568 E7.08735
G1 X98.76 Y126.026 E7.10728
G1 X98.499 Y125.433 E7.12883
G1 X98.299 Y124.938 E7.14659
G1 X98.096 Y124.384 E7.16621
G1 X97.872 Y123.716 E7.18965
G1 X97.684 Y123.094 E7.21126
G1 X97.549 Y122.591 E7.22858
G1 X97.418 Y122.055 E7.24693
G1 X97.335 Y121.667 E7.26013
G1 X97.256 Y121.262 E7.27386
G1 X97.168 Y120.744 E7.29133
G1 X97.082 Y120.147 E7.31139
G1 X97.006 Y119.489 E7.33342
G1 X96.98 Y119.208 E7.34281
G1 X96.954 Y118.87 E7.35408
G1 X96.926 Y118.296 E7.3732
G1 X96.912 Y117.674 E7.39389
G1 X96.917 Y117.03 E7.41531
G1 X96.941 Y116.402 E7.43621
G1 X96.982 Y115.786 E7.45675
G1 X97.033 Y115.259 E7.47436
G1 X97.111 Y114.642 E7.49504
G1 X97.218 Y113.958 E7.51807
G1 X97.343 Y113.297 E7.54044
G1 X97.457 Y112.784 E7.55792
G1 X97.603 Y112.205 E7.57778
G1 X97.77 Y111.613 E7.59824
G1 X97.977 Y110.961 E7.62099
G1 X98.191 Y110.355 E7.64237
G1 X98.409 Y109.791 E7.66248
G1 X98.61 Y109.311 E7.67979
G1 X98.869 Y108.74 E7.70064
G1 X99.165 Y108.136 E7.72301
G1 X99.465 Y107.567 E7.74441
G1 X99.733 Y107.095 E7.76246
G1 X100.055 Y106.565 E7.78309
G1 X100.39 Y106.048 E7.80358
G1 X100.76 Y105.514 E7.82519
G1 X101.102 Y105.051 E7.84433
G1 X101.47 Y104.581 E7.86418
G1 X101.85 Y104.123 E7.88398
G1 X102.294 Y103.621 E7.90627
G1 X102.737 Y103.151 E7.92775
G1 X103.195 Y102.694 E7.94927
G1 X103.622 Y102.293 E7.96875
G1 X104.079 Y101.887 E7.98908
G1 X104.524 Y101.515 E8.00838
G1 X105.014 Y101.13 E8.0291
G1 X105.469 Y100.793 E8.04793
G1 X106.007 Y100.419 E8.06973
G1 X106.554 Y100.064 E8.09142
G1 X107.062 Y99.755 E8.11119
G1 X107.52 Y99.493 E8.12874
G1 X108.094 Y99.188 E8.15036
G1 X108.69 Y98.894 E8.17246
G1 X109.291 Y98.618 E8.19446
G1 X109.809 Y98.399 E8.21317
G1 X110.372 Y98.184 E8.23321
G1 X110.981 Y97.971 E8.25467
G1 X111.6 Y97.776 E8.27625
G1 X112.209 Y97.604 E8.2973
G1 X112.795 Y97.456 E8.3174
G1 X113.3 Y97.344 E8.33461
G1 X113.937 Y97.224 E8.35617
G1 X114.581 Y97.122 E8.37785
G1 X115.203 Y97.042 E8.39871
G1 X115.763 Y96.987 E8.41743
G1 X116.373 Y96.945 E8.43777
G1 X116.994 Y96.92 E8.45844
G1 X117.658 Y96.914 E8.48052
G1 X118.236 Y96.927 E8.49975
G1 X118.861 Y96.959 E8.52057
G0 F6000 X118.894 Y96.561
G1 F1200 X119.518 Y96.612 E8.54139
G1 X120.167 Y96.684 E8.56311
G1 X120.717 Y96.762 E8.58158
G1 X121.353 Y96.871 E8.60305
G1 X121.961 Y96.994 E8.62368
G1 X122.593 Y97.142 E8.64527
G1 X123.16 Y97.292 E8.66477
G1 X123.82 Y97.489 E8.68768
G1 X124.439 Y97.695 E8.70938
G1 X125.062 Y97.923 E8.73145
G1 X125.548 Y98.118 E8.74886
G1 X126.133 Y98.372 E8.77007
G1 X126.72 Y98.648 E8.79165
G1 X127.304 Y98.945 E8.81344
G1 X127.792 Y99.211 E8.83193
G1 X128.385 Y99.559 E8.85479
G1 X128.946 Y99.912 E8.87684
G1 X129.47 Y100.263 E8.89782
G1 X129.908 Y100.575 E8.9157
G1 X130.453 Y100.989 E8.93847
G1 X130.96 Y101.4 E8.96017
G1 X131.429 Y101.803 E8.98074
G1 X131.811 Y102.15 E8.99791
G1 X132.323 Y102.646 E9.02162
G1 X132.818 Y103.158 E9.0453
G1 X133.235 Y103.614 E9.06585
G1 X133.533 Y103.959 E9.08102
G1 X133.931 Y104.443 E9.10186
G1 X134.161 Y104.74 E9.11435
G1 X134.426 Y105.094 E9.12906
G1 X134.744 Y105.541 E9.14731
G1 X135.072 Y106.028 E9.16683
G1 X135.42 Y106.579 E9.18851
G1 X135.72 Y107.087 E9.20813
G1 X136.046 Y107.681 E9.23067
G1 X136.319 Y108.216 E9.25065
G1 X136.598 Y108.799 E9.27214
G1 X136.865 Y109.413 E9.29441
G1 X137.078 Y109.947 E9.31353
G1 X137.307 Y110.57 E9.33561
G1 X137.51 Y111.179 E9.35696
G1 X137.658 Y111.668 E9.37395
G1 X137.832 Y112.31 E9.39608
G1 X137.991 Y112.979 E9.41895
G1 X138.127 Y113.644 E9.44152
G1 X138.222 Y114.192 E9.46002
G1 X138.311 Y114.809 E9.48076
G1 X138.375 Y115.363 E9.4993
G1 X138.431 Y116.011 E9.52094
G1 X138.468 Y116.673 E9.54299
G1 X138.485 Y117.38 E9.56651
G1 X138.48 Y117.974 E9.58627
G1 X138.454 Y118.639 E9.6084
G1 X138.414 Y119.218 E9.62771
G1 X138.356 Y119.817 E9.64772
G1 X138.285 Y120.388 E9.66686
G1 X138.18 Y121.063 E9.68958
G1 X138.064 Y121.68 E9.71046
G1 X137.916 Y122.349 E9.73325
G1 X137.761 Y122.961 E9.75425
G1 X137.59 Y123.563 E9.77506
G1 X137.431 Y124.068 E9.79267
G1 X137.205 Y124.716 E9.8155
G1 X136.971 Y125.324 E9.83717
G1 X136.733 Y125.894 E9.85771
G1 X136.513 Y126.382 E9.87552
G1 X136.211 Y126.999 E9.89836
G1 X135.903 Y127.582 E9.92029
G1 X135.59 Y128.136 E9.94146
G1 X135.304 Y128.609 E9.95984
G1 X134.934 Y129.179 E9.98244
G1 X134.585 Y129.683 E10.00283
G1 X134.214 Y130.188 E10.02368
G1 X133.866 Y130.634 E10.04249
G1 X133.442 Y131.149 E10.06468
G1 X133.231 Y131.392 E10.07538
G1 X132.988 Y131.663 E10.08749
G1 X132.56 Y132.113 E10.10815
G1 X132.073 Y132.598 E10.13101
G1 X131.636 Y133.011 E10.151
G1 X131.273 Y133.335 E10.16719
G1 X130.747 Y133.775 E10.19
G1 X130.209 Y134.198 E10.21276
G1 X129.668 Y134.597 E10.23512
G1 X129.204 Y134.918 E10.25388
