;FLAVOR:Marlin
;TIME:3206
;Filament used: 1.84272m
;Layer height: 0.2
;MINX:84.512
;MINY:94.349
;MINZ:0.2
;MAXX:150.101
;MAXY:168.487
;MAXZ:23.2
;Generated with Cura_SteamEngine 4.6.1
M140 S60
M105
M190 S60
M104 S200
M105
M109 S200
M82 ;absolute extrusion mode
; Ender 3 Custom Start G-code
G92 E0 ; Reset Extruder
G28 ; Home all axes
G1 Z2.0 F3000 ; Move Z Axis up little to prevent scratching of Heat Bed
G1 X0.1 Y20 Z0.3 F5000.0 ; Move to start position
G1 X0.1 Y200.0 Z0.3 F1500.0 E15 ; Draw the first line
G1 X0.4 Y200.0 Z0.3 F5000.0 ; Move to side a little
G1 X0.4 Y20 Z0.3 F1500.0 E30 ; Draw the second line
G92 E0 ; Reset Extruder
G1 Z2.0 F3000 ; Move Z Axis up little to prevent scratching of Heat Bed
G1 X5 Y20 Z0.3 F5000.0 ; Move over to prevent blob squish
G92 E0
G92 E0
G1 F1500 E-6.5
;LAYER_COUNT:116
;LAYER:0
M107
G0 F6000 X139.238 Y95.16 Z0.2
;TYPE:SKIRT
G1 F1500 E0
G1 F1200 X140.14 Y95.213 E0.03005
G1 X141.033 Y95.345 E0.06008
G1 X141.911 Y95.556 E0.09011
G1 X142.767 Y95.844 E0.12015
G1 X143.594 Y96.206 E0.15018
G1 X144.386 Y96.641 E0.18023
G1 X145.137 Y97.143 E0.21027
G1 X145.84 Y97.71 E0.24031
G1 X146.49 Y98.337 E0.27035
G1 X147.082 Y99.019 E0.30039
G1 X147.612 Y99.75 E0.33042
G1 X148.074 Y100.526 E0.36046
G1 X148.467 Y101.339 E0.39049
G1 X148.785 Y102.184 E0.42052
G1 X149.028 Y103.054 E0.45056
G1 X149.193 Y103.942 E0.4806
G1 X149.288 Y105.072 E0.51832
G1 X149.301 Y105.679 E0.53851
G1 X149.3 Y129.067 E1.3164
G1 X149.29 Y129.784 E1.34025
G1 X149.237 Y130.686 E1.3703
G1 X149.105 Y131.579 E1.40033
G1 X148.895 Y132.457 E1.43036
G1 X148.607 Y133.314 E1.46043
G1 X148.245 Y134.141 E1.49045
G1 X147.811 Y134.933 E1.52049
G1 X147.309 Y135.684 E1.55053
G1 X146.743 Y136.387 E1.58055
G1 X146.116 Y137.037 E1.61059
G1 X145.434 Y137.63 E1.64065
G1 X144.845 Y138.064 E1.66498
G1 X144.064 Y138.596 E1.69641
G1 X143.013 Y139.286 E1.73823
G1 X140.954 Y140.724 E1.82176
G1 X138.92 Y142.231 E1.90596
G1 X136.902 Y143.817 E1.99132
G1 X134.98 Y145.418 E2.07452
G1 X133.062 Y147.109 E2.15957
G1 X131.191 Y148.853 E2.24464
G1 X129.382 Y150.641 E2.32924
G1 X127.649 Y152.453 E2.41263
G1 X125.93 Y154.354 E2.49788
G1 X124.262 Y156.306 E2.58327
G1 X122.698 Y158.248 E2.66621
G1 X121.461 Y159.86 E2.73379
G1 X120.958 Y160.483 E2.76042
G1 X120.648 Y160.842 E2.7762
G1 X120.406 Y161.113 E2.78828
G1 X119.996 Y161.546 E2.80812
G1 X119.509 Y162.031 E2.83098
G1 X119.103 Y162.414 E2.84954
G1 X118.74 Y162.738 E2.86572
G1 X118.252 Y163.146 E2.88688
G1 X117.714 Y163.569 E2.90964
G1 X117.213 Y163.939 E2.93036
G1 X116.749 Y164.26 E2.94912
G1 X116.237 Y164.593 E2.96944
G1 X115.698 Y164.92 E2.9904
G1 X115.177 Y165.215 E3.01032
G1 X114.695 Y165.47 E3.02846
G1 X114.163 Y165.732 E3.04818
G1 X113.585 Y165.996 E3.06931
G1 X113.02 Y166.234 E3.0897
G1 X112.507 Y166.432 E3.10799
G1 X111.909 Y166.642 E3.12907
G1 X111.289 Y166.838 E3.1507
G1 X110.7 Y167.004 E3.17105
G1 X109.843 Y167.215 E3.20041
G1 X109.647 Y167.258 E3.20708
G1 X109.258 Y167.336 E3.22028
G1 X108.878 Y167.404 E3.23312
G1 X108.354 Y167.483 E3.25074
G1 X107.686 Y167.567 E3.27314
G1 X107.087 Y167.625 E3.29315
G1 X106.589 Y167.658 E3.30975
G1 X106.021 Y167.681 E3.32866
G1 X105.739 Y167.686 E3.33804
G1 X105.305 Y167.687 E3.35248
G1 X104.743 Y167.673 E3.37117
G1 X104.137 Y167.641 E3.39136
G1 X103.541 Y167.592 E3.41125
G1 X102.978 Y167.529 E3.43009
G1 X102.37 Y167.442 E3.45052
G1 X101.724 Y167.33 E3.47232
G1 X101.146 Y167.213 E3.49194
G1 X100.628 Y167.092 E3.50963
G1 X100.01 Y166.927 E3.53091
G1 X99.395 Y166.742 E3.55227
G1 X98.813 Y166.547 E3.57268
G1 X98.231 Y166.333 E3.59331
G1 X97.681 Y166.113 E3.61301
G1 X97.203 Y165.905 E3.63035
G1 X96.655 Y165.647 E3.65049
G1 X96.08 Y165.355 E3.67194
G1 X95.546 Y165.063 E3.69218
G1 X95.047 Y164.771 E3.71141
G1 X94.508 Y164.433 E3.73257
G1 X93.977 Y164.076 E3.75386
G1 X93.498 Y163.733 E3.77345
G1 X93.057 Y163.398 E3.79187
G1 X92.585 Y163.017 E3.81205
G1 X92.141 Y162.636 E3.83151
G1 X91.702 Y162.237 E3.85124
G1 X91.252 Y161.803 E3.87203
G1 X90.774 Y161.31 E3.89487
G1 X90.34 Y160.831 E3.91637
G1 X89.984 Y160.416 E3.93455
G1 X89.667 Y160.026 E3.95127
G1 X89.304 Y159.551 E3.97115
G1 X88.916 Y159.012 E3.99324
G1 X88.544 Y158.459 E4.01541
G1 X88.234 Y157.963 E4.03486
G1 X87.941 Y157.462 E4.05417
G1 X87.658 Y156.946 E4.07374
G1 X87.378 Y156.397 E4.09424
G1 X87.122 Y155.855 E4.11418
G1 X86.867 Y155.276 E4.13522
G1 X86.664 Y154.773 E4.15326
G1 X86.479 Y154.267 E4.17118
G1 X86.254 Y153.598 E4.19465
G1 X86.071 Y152.99 E4.21577
G1 X85.936 Y152.487 E4.23309
G1 X85.808 Y151.963 E4.25103
G1 X85.728 Y151.591 E4.26369
G1 X85.649 Y151.186 E4.27741
G1 X85.564 Y150.687 E4.29425
G1 X85.478 Y150.09 E4.31431
G1 X85.403 Y149.447 E4.33584
G1 X85.353 Y148.839 E4.35613
G1 X85.326 Y148.287 E4.37451
G1 X85.312 Y147.665 E4.39521
G1 X85.316 Y147.045 E4.41583
G1 X85.34 Y146.417 E4.43673
G1 X85.376 Y145.871 E4.45493
G1 X85.415 Y145.448 E4.46906
G1 X85.652 Y142.812 E4.55709
G1 X85.811 Y140.234 E4.643
G1 X85.893 Y137.746 E4.72579
G1 X85.905 Y135.175 E4.8113
G1 X85.845 Y132.648 E4.89538
G1 X85.756 Y130.763 E4.95814
G1 X85.714 Y129.954 E4.98509
G1 X85.699 Y129.315 E5.00634
G1 X85.7 Y105.87 E5.78613
G1 X85.71 Y105.205 E5.80825
G1 X85.764 Y104.303 E5.8383
G1 X85.897 Y103.41 E5.86833
G1 X86.108 Y102.532 E5.89837
G1 X86.397 Y101.676 E5.92842
G1 X86.76 Y100.849 E5.95845
G1 X87.194 Y100.058 E5.98846
G1 X87.697 Y99.307 E6.01853
G1 X88.265 Y98.605 E6.04856
G1 X88.892 Y97.955 E6.0786
G1 X89.574 Y97.363 E6.10864
G1 X90.306 Y96.834 E6.13867
G1 X91.082 Y96.372 E6.16871
G1 X91.896 Y95.981 E6.19875
G1 X92.741 Y95.662 E6.22879
G1 X93.611 Y95.42 E6.25882
G1 X94.499 Y95.256 E6.28886
G1 X95.622 Y95.162 E6.32634
G1 X96.229 Y95.149 E6.34653
G1 X138.54 Y95.15 E7.7538
G1 X139.238 Y95.16 E7.77702
G0 F6000 X139.244 Y94.76
G1 F1200 X140.163 Y94.813 E7.80764
G1 X141.074 Y94.946 E7.83826
G1 X141.97 Y95.157 E7.86887
G1 X142.844 Y95.445 E7.89948
G1 X143.691 Y95.808 E7.93013
G1 X144.502 Y96.243 E7.96074
G1 X145.272 Y96.747 E7.99135
G1 X145.996 Y97.316 E8.02198
G1 X146.668 Y97.946 E8.05261
G1 X147.283 Y98.631 E8.08323
G1 X147.836 Y99.367 E8.11385
G1 X148.323 Y100.148 E8.14446
G1 X148.74 Y100.969 E8.17509
G1 X149.085 Y101.823 E8.20572
G1 X149.354 Y102.703 E8.23633
G1 X149.546 Y103.604 E8.26697
G1 X149.659 Y104.517 E8.29757
G1 X149.688 Y105.061 E8.31569
G1 X149.701 Y105.679 E8.33625
G1 X149.7 Y129.073 E9.11433
G1 X149.69 Y129.79 E9.13818
G1 X149.637 Y130.709 E9.1688
G1 X149.505 Y131.62 E9.19942
G1 X149.294 Y132.516 E9.23003
G1 X149.006 Y133.391 E9.26067
G1 X148.643 Y134.237 E9.29129
G1 X148.209 Y135.048 E9.32189
G1 X147.705 Y135.819 E9.35252
G1 X147.137 Y136.543 E9.38313
G1 X146.507 Y137.215 E9.41377
G1 X145.822 Y137.83 E9.44438
G1 X145.071 Y138.394 E9.47562
G1 X144.284 Y138.93 E9.50729
G1 X143.24 Y139.615 E9.54882
G1 X141.192 Y141.045 E9.6319
G1 X139.143 Y142.565 E9.71675
G1 X137.159 Y144.122 E9.80064
G1 X135.237 Y145.724 E9.88386
G1 X133.315 Y147.418 E9.96907
G1 X131.479 Y149.13 E10.05256
G1 X129.687 Y150.901 E10.13636
G1 X127.917 Y152.752 E10.22154
G1 X126.247 Y154.598 E10.30434
G1 X124.579 Y156.551 E10.38976
G1 X123.008 Y158.502 E10.47307
G1 X121.774 Y160.109 E10.54046
G1 X121.474 Y160.485 E10.55646
G1 X121.114 Y160.916 E10.57514
G1 X120.704 Y161.379 E10.59571
G1 X120.278 Y161.83 E10.61634
G1 X119.791 Y162.315 E10.6392
G1 X119.369 Y162.712 E10.65847
G1 X119.006 Y163.036 E10.67466
G1 X118.5 Y163.461 E10.69664
G1 X117.962 Y163.884 E10.7194
G1 X117.441 Y164.268 E10.74092
G1 X116.977 Y164.589 E10.75969
G1 X116.444 Y164.935 E10.78083
G1 X115.905 Y165.262 E10.80179
G1 X115.364 Y165.569 E10.82248
G1 X114.882 Y165.824 E10.84062
G1 X114.329 Y166.096 E10.86112
G1 X113.751 Y166.36 E10.88225
G1 X113.164 Y166.607 E10.90343
G1 X112.651 Y166.805 E10.92172
G1 X112.029 Y167.023 E10.94364
G1 X111.409 Y167.219 E10.96527
G1 X110.798 Y167.392 E10.98639
G1 X109.928 Y167.606 E11.01619
G1 X109.732 Y167.649 E11.02287
G1 X109.328 Y167.729 E11.03656
G1 X108.948 Y167.797 E11.0494
G1 X108.404 Y167.88 E11.06771
G1 X107.736 Y167.964 E11.0901
G1 X107.114 Y168.024 E11.11088
G1 X106.616 Y168.057 E11.12748
G1 X106.033 Y168.081 E11.14689
G1 X105.739 Y168.086 E11.15667
G1 X105.305 Y168.087 E11.1711
G1 X104.722 Y168.072 E11.1905
G1 X104.116 Y168.04 E11.21069
G1 X103.496 Y167.989 E11.23138
G1 X102.933 Y167.926 E11.25022
G1 X102.301 Y167.836 E11.27145
G1 X101.655 Y167.724 E11.29326
G1 X101.055 Y167.602 E11.31362
G1 X100.537 Y167.481 E11.33131
G1 X99.895 Y167.31 E11.35341
G1 X99.28 Y167.125 E11.37477
G1 X98.675 Y166.923 E11.39599
G1 X98.093 Y166.709 E11.41661
G1 X97.522 Y166.48 E11.43707
G1 X97.044 Y166.272 E11.45441
G1 X96.473 Y166.003 E11.4754
G1 X95.898 Y165.711 E11.49685
G1 X95.344 Y165.409 E11.51784
G1 X94.845 Y165.117 E11.53707
G1 X94.285 Y164.765 E11.55907
G1 X93.754 Y164.408 E11.58035
G1 X93.256 Y164.052 E11.60071
G1 X92.815 Y163.717 E11.61913
G1 X92.324 Y163.32 E11.64013
G1 X91.88 Y162.939 E11.65959
G1 X91.425 Y162.525 E11.68005
G1 X90.975 Y162.091 E11.70085
G1 X90.478 Y161.578 E11.7246
G1 X90.044 Y161.099 E11.7461
G1 X89.673 Y160.668 E11.76502
G1 X89.356 Y160.278 E11.78173
G1 X88.979 Y159.785 E11.80237
G1 X88.591 Y159.246 E11.82446
G1 X88.205 Y158.671 E11.8475
G1 X87.895 Y158.175 E11.86695
G1 X87.59 Y157.654 E11.88703
G1 X87.307 Y157.138 E11.9066
G1 X87.016 Y156.568 E11.92789
G1 X86.76 Y156.026 E11.94783
G1 X86.499 Y155.433 E11.96938
G1 X86.293 Y154.92 E11.98776
G1 X86.1 Y154.394 E12.0064
G1 X85.875 Y153.725 E12.02987
G1 X85.684 Y153.094 E12.0518
G1 X85.549 Y152.591 E12.06912
G1 X85.418 Y152.055 E12.08748
G1 X85.335 Y151.667 E12.10067
G1 X85.256 Y151.262 E12.1144
G1 X85.168 Y150.744 E12.13187
G1 X85.082 Y150.147 E12.15193
G1 X85.006 Y149.489 E12.17396
G1 X84.98 Y149.208 E12.18335
G1 X84.954 Y148.87 E12.19463
G1 X84.926 Y148.296 E12.21374
G1 X84.912 Y147.674 E12.23443
G1 X84.917 Y147.03 E12.25585
G1 X84.941 Y146.402 E12.27675
G1 X84.978 Y145.834 E12.29569
G1 X85.015 Y145.436 E12.30898
G1 X85.255 Y142.752 E12.39861
G1 X85.41 Y140.231 E12.48261
G1 X85.493 Y137.73 E12.56584
G1 X85.505 Y135.182 E12.65059
G1 X85.445 Y132.635 E12.73533
G1 X85.362 Y130.882 E12.7937
G1 X85.314 Y129.966 E12.82421
G1 X85.299 Y129.315 E12.84587
G1 X85.3 Y105.864 E13.62585
G1 X85.31 Y105.199 E13.64797
G1 X85.364 Y104.28 E13.67859
G1 X85.497 Y103.369 E13.70921
G1 X85.709 Y102.473 E13.73983
G1 X85.998 Y101.598 E13.77048
G1 X86.362 Y100.753 E13.80108
G1 X86.797 Y99.942 E13.83169
G1 X87.302 Y99.171 E13.86235
G1 X87.871 Y98.448 E13.89295
G1 X88.501 Y97.776 E13.92359
G1 X89.187 Y97.162 E13.95421
G1 X89.923 Y96.61 E13.98481
G1 X90.705 Y96.123 E14.01545
G1 X91.526 Y95.707 E14.04606
G1 X92.38 Y95.363 E14.07668
G1 X93.26 Y95.094 E14.10729
G1 X94.161 Y94.903 E14.13792
G1 X95.075 Y94.791 E14.16855
G1 X95.611 Y94.762 E14.1864
G1 X96.229 Y94.749 E14.20696
G1 X138.546 Y94.75 E15.61443
G1 X139.244 Y94.76 E15.63765
G0 F6000 X139.25 Y94.36
G1 F1200 X140.186 Y94.414 E15.66883
G1 X141.114 Y94.546 E15.70001
G1 X142.028 Y94.758 E15.73121
G1 X142.92 Y95.047 E15.7624
G1 X143.785 Y95.41 E15.7936
G1 X144.615 Y95.846 E15.82478
G1 X145.406 Y96.351 E15.856
G1 X146.15 Y96.922 E15.88719
G1 X146.843 Y97.554 E15.91838
G1 X147.48 Y98.242 E15.94957
G1 X148.055 Y98.983 E15.98076
G1 X148.566 Y99.769 E16.01195
G1 X149.008 Y100.597 E16.04316
G1 X149.377 Y101.459 E16.07435
G1 X149.672 Y102.349 E16.10554
G1 X149.89 Y103.261 E16.13672
G1 X150.03 Y104.189 E16.16794
G1 X150.088 Y105.05 E16.19664
G1 X150.101 Y105.679 E16.21757
G1 X150.1 Y129.078 E16.99582
G1 X150.09 Y129.795 E17.01967
G1 X150.037 Y130.732 E17.05088
G1 X149.904 Y131.66 E17.08206
G1 X149.693 Y132.574 E17.11326
G1 X149.405 Y133.466 E17.14444
G1 X149.041 Y134.331 E17.17565
G1 X148.606 Y135.162 E17.20685
G1 X148.101 Y135.952 E17.23804
G1 X147.531 Y136.697 E17.26924
G1 X146.899 Y137.39 E17.30043
G1 X146.211 Y138.027 E17.33162
G1 X145.296 Y138.725 E17.36989
G1 X144.503 Y139.264 E17.40178
G1 X143.483 Y139.934 E17.44237
G1 X141.437 Y141.362 E17.52536
G1 X139.382 Y142.885 E17.61043
G1 X137.416 Y144.429 E17.69358
G1 X135.491 Y146.033 E17.77692
G1 X133.589 Y147.71 E17.86126
G1 X131.751 Y149.425 E17.94487
G1 X129.957 Y151.197 E18.02873
G1 X128.237 Y152.996 E18.11152
G1 X126.532 Y154.881 E18.19605
G1 X124.879 Y156.816 E18.2807
G1 X123.316 Y158.756 E18.36356
G1 X122.086 Y160.358 E18.43074
G1 X121.567 Y161.001 E18.45822
G1 X121.245 Y161.375 E18.47463
G1 X121.003 Y161.646 E18.48672
G1 X120.56 Y162.113 E18.50813
G1 X120.073 Y162.598 E18.53099
G1 X119.636 Y163.011 E18.55099
G1 X119.273 Y163.335 E18.56717
G1 X118.747 Y163.775 E18.58998
G1 X118.209 Y164.198 E18.61274
G1 X117.668 Y164.597 E18.6351
G1 X117.204 Y164.918 E18.65387
G1 X116.652 Y165.277 E18.67577
G1 X116.113 Y165.604 E18.69673
G1 X115.551 Y165.922 E18.71821
G1 X115.069 Y166.177 E18.73635
G1 X114.495 Y166.46 E18.75763
G1 X113.917 Y166.724 E18.77877
G1 X113.308 Y166.98 E18.80074
G1 X112.795 Y167.178 E18.81903
G1 X112.15 Y167.404 E18.84176
G1 X111.53 Y167.6 E18.86339
G1 X110.895 Y167.78 E18.88534
G1 X110.338 Y167.92 E18.90444
G1 X109.818 Y168.039 E18.92219
G1 X109.399 Y168.123 E18.9364
G1 X109.019 Y168.191 E18.94924
G1 X108.453 Y168.277 E18.96828
G1 X107.785 Y168.361 E18.99067
G1 X107.14 Y168.423 E19.01222
G1 X106.642 Y168.456 E19.02882
G1 X106.045 Y168.481 E19.0487
G1 X105.74 Y168.486 E19.05884
G1 X105.306 Y168.487 E19.07328
G1 X104.701 Y168.472 E19.09341
G1 X104.095 Y168.44 E19.11359
G1 X103.452 Y168.387 E19.13505
G1 X102.889 Y168.324 E19.15389
G1 X102.233 Y168.23 E19.17593
G1 X101.587 Y168.118 E19.19774
G1 X100.964 Y167.992 E19.21888
G1 X100.446 Y167.871 E19.23657
G1 X99.779 Y167.693 E19.25953
G1 X99.164 Y167.508 E19.28089
G1 X98.537 Y167.298 E19.30289
G1 X97.955 Y167.084 E19.32351
G1 X97.362 Y166.846 E19.34476
G1 X96.884 Y166.638 E19.3621
G1 X96.292 Y166.36 E19.38386
G1 X95.717 Y166.068 E19.4053
G1 X95.142 Y165.754 E19.42709
G1 X94.643 Y165.462 E19.44632
G1 X94.062 Y165.097 E19.46915
G1 X93.531 Y164.74 E19.49043
G1 X93.014 Y164.37 E19.51157
G1 X92.573 Y164.035 E19.52999
G1 X92.064 Y163.624 E19.55175
G1 X91.62 Y163.243 E19.57121
G1 X91.147 Y162.813 E19.59247
G1 X90.697 Y162.379 E19.61327
G1 X90.181 Y161.847 E19.63792
G1 X89.747 Y161.368 E19.65941
G1 X89.363 Y160.92 E19.67904
G1 X89.046 Y160.53 E19.69576
G1 X88.654 Y160.018 E19.7172
G1 X88.266 Y159.479 E19.73929
G1 X87.866 Y158.883 E19.76317
G1 X87.556 Y158.387 E19.78262
G1 X87.239 Y157.847 E19.80345
G1 X86.956 Y157.331 E19.82302
G1 X86.655 Y156.739 E19.84511
G1 X86.399 Y156.197 E19.86505
G1 X86.131 Y155.59 E19.88711
G1 X85.921 Y155.068 E19.90583
G1 X85.721 Y154.522 E19.92517
G1 X85.496 Y153.853 E19.94864
G1 X85.298 Y153.197 E19.97144
G1 X85.163 Y152.694 E19.98876
G1 X85.029 Y152.146 E20.00752
G1 X84.942 Y151.744 E20.0212
G1 X84.863 Y151.339 E20.03493
G1 X84.772 Y150.801 E20.05307
G1 X84.686 Y150.204 E20.07313
G1 X84.608 Y149.53 E20.0957
G1 X84.581 Y149.239 E20.10542
G1 X84.555 Y148.901 E20.1167
G1 X84.526 Y148.305 E20.13654
G1 X84.512 Y147.683 E20.15724
G1 X84.517 Y147.015 E20.17945
G1 X84.541 Y146.387 E20.20036
G1 X84.579 Y145.797 E20.22002
G1 X84.618 Y145.374 E20.23415
G1 X84.856 Y142.726 E20.32258
G1 X85.01 Y140.23 E20.40575
G1 X85.093 Y137.715 E20.48945
G1 X85.105 Y135.162 E20.57436
G1 X85.045 Y132.663 E20.6575
G1 X84.914 Y129.978 E20.74691
G1 X84.899 Y129.315 E20.76897
G1 X84.9 Y105.858 E21.54915
G1 X84.91 Y105.193 E21.57127
G1 X84.964 Y104.256 E21.60249
G1 X85.098 Y103.328 E21.63368
G1 X85.31 Y102.414 E21.66488
G1 X85.599 Y101.522 E21.69607
G1 X85.964 Y100.658 E21.72726
G1 X86.4 Y99.828 E21.75845
G1 X86.906 Y99.038 E21.78965
G1 X87.477 Y98.294 E21.82084
G1 X88.109 Y97.601 E21.85204
G1 X88.798 Y96.965 E21.88323
G1 X89.539 Y96.39 E21.91442
G1 X90.326 Y95.88 E21.94561
G1 X91.154 Y95.439 E21.97681
G1 X92.016 Y95.07 E22.008
G1 X92.907 Y94.776 E22.03921
G1 X93.819 Y94.558 E22.0704
G1 X94.746 Y94.42 E22.10157
G1 X95.6 Y94.362 E22.13004
G1 X96.229 Y94.349 E22.15096
G1 X138.552 Y94.35 E23.55863
G1 X139.25 Y94.36 E23.58185
G1 F1500 E17.08185
;MESH:Screw Test 2.3.stl
G0 F6000 X138.681 Y104.684
G0 X138.681 Y105.769
G0 X96.681 Y106.131
G0 X96.499 Y129.051
;TYPE:WALL-INNER
G1 F1500 E23.58185
G1 F1200 X96.499 Y105.949 E24.35022
G1 X138.501 Y105.949 E25.74722
