;FLAVOR:Marlin
;TIME:2710
;Filament used: 1.58018m
;Layer height: 0.2
;MINX:84.899
;MINY:94.349
;MINZ:0.2
;MAXX:150.101
;MAXY:140.651
;MAXZ:23.2
;Generated with Cura_SteamEngine 4.6.1
M140 S60
M105
M190 S60
M104 S200
M105
M109 S200
M82 ;absolute extrusion mode
; Ender 3 Custom Start G-code
G92 E0 ; Reset Extruder
G28 ; Home all axes
G1 Z2.0 F3000 ; Move Z Axis up little to prevent scratching of Heat Bed
G1 X0.1 Y20 Z0.3 F5000.0 ; Move to start position
G1 X0.1 Y200.0 Z0.3 F1500.0 E15 ; Draw the first line
G1 X0.4 Y200.0 Z0.3 F5000.0 ; Move to side a little
G1 X0.4 Y20 Z0.3 F1500.0 E30 ; Draw the second line
G92 E0 ; Reset Extruder
G1 Z2.0 F3000 ; Move Z Axis up little to prevent scratching of Heat Bed
G1 X5 Y20 Z0.3 F5000.0 ; Move over to prevent blob squish
G92 E0
G92 E0
G1 F1500 E-6.5
;LAYER_COUNT:116
;LAYER:0
M107
G0 F6000 X139.238 Y95.16 Z0.2
;TYPE:SKIRT
G1 F1500 E0
G1 F1200 X140.14 Y95.213 E0.03005
G1 X141.033 Y95.345 E0.06008
G1 X141.911 Y95.556 E0.09011
G1 X142.767 Y95.844 E0.12015
G1 X143.594 Y96.206 E0.15018
G1 X144.386 Y96.641 E0.18023
G1 X145.137 Y97.143 E0.21027
G1 X145.84 Y97.71 E0.24031
G1 X146.49 Y98.337 E0.27035
G1 X147.082 Y99.019 E0.30039
G1 X147.612 Y99.75 E0.33042
G1 X148.074 Y100.526 E0.36046
G1 X148.467 Y101.339 E0.39049
G1 X148.785 Y102.184 E0.42052
G1 X149.028 Y103.054 E0.45056
G1 X149.193 Y103.942 E0.4806
G1 X149.288 Y105.072 E0.51832
G1 X149.301 Y105.679 E0.53851
G1 X149.3 Y129.041 E1.31554
G1 X149.291 Y129.768 E1.33972
G1 X149.24 Y130.67 E1.36977
G1 X149.109 Y131.564 E1.39982
G1 X148.9 Y132.442 E1.42984
G1 X148.614 Y133.299 E1.45989
G1 X148.253 Y134.127 E1.48993
G1 X147.821 Y134.919 E1.51994
G1 X147.32 Y135.671 E1.54999
G1 X146.754 Y136.375 E1.58004
G1 X146.129 Y137.026 E1.61005
G1 X145.448 Y137.62 E1.64011
G1 X144.717 Y138.151 E1.67016
G1 X143.943 Y138.615 E1.70017
G1 X143.13 Y139.009 E1.73022
G1 X142.286 Y139.329 E1.76024
G1 X141.416 Y139.574 E1.7903
G1 X140.529 Y139.74 E1.82032
G1 X139.378 Y139.838 E1.85874
G1 X138.771 Y139.851 E1.87893
G1 X96.474 Y139.85 E3.28574
G1 X95.776 Y139.841 E3.30895
G1 X94.875 Y139.79 E3.33897
G1 X93.981 Y139.658 E3.36903
G1 X93.103 Y139.449 E3.39904
G1 X92.246 Y139.162 E3.4291
G1 X91.419 Y138.801 E3.45912
G1 X90.626 Y138.368 E3.48917
G1 X89.875 Y137.867 E3.51919
G1 X89.171 Y137.301 E3.54924
G1 X88.52 Y136.675 E3.57928
G1 X87.927 Y135.994 E3.60931
G1 X87.397 Y135.263 E3.63934
G1 X86.933 Y134.488 E3.66939
G1 X86.539 Y133.675 E3.69943
G1 X86.219 Y132.831 E3.72946
G1 X85.975 Y131.961 E3.75951
G1 X85.809 Y131.073 E3.78956
G1 X85.712 Y129.918 E3.82811
G1 X85.699 Y129.309 E3.84837
G1 X85.7 Y105.885 E4.62745
G1 X85.709 Y105.22 E4.64957
G1 X85.761 Y104.318 E4.67962
G1 X85.893 Y103.425 E4.70965
G1 X86.103 Y102.547 E4.73967
G1 X86.39 Y101.69 E4.76973
G1 X86.752 Y100.863 E4.79976
G1 X87.185 Y100.071 E4.82978
G1 X87.687 Y99.32 E4.85982
G1 X88.254 Y98.616 E4.88989
G1 X88.88 Y97.966 E4.9199
G1 X89.561 Y97.373 E4.94994
G1 X90.293 Y96.843 E4.98
G1 X91.068 Y96.38 E5.01002
G1 X91.881 Y95.987 E5.04006
G1 X92.726 Y95.667 E5.07011
G1 X93.595 Y95.424 E5.10012
G1 X94.483 Y95.258 E5.13017
G1 X95.622 Y95.162 E5.16819
G1 X96.229 Y95.149 E5.18838
G1 X138.54 Y95.15 E6.59565
G1 X139.238 Y95.16 E6.61887
G0 F6000 X139.244 Y94.76
G1 F1200 X140.163 Y94.813 E6.64948
G1 X141.074 Y94.946 E6.6801
G1 X141.97 Y95.157 E6.71072
G1 X142.844 Y95.445 E6.74133
G1 X143.691 Y95.808 E6.77198
G1 X144.502 Y96.243 E6.80259
G1 X145.272 Y96.747 E6.8332
G1 X145.996 Y97.316 E6.86382
G1 X146.668 Y97.946 E6.89446
G1 X147.283 Y98.631 E6.92508
G1 X147.836 Y99.367 E6.9557
G1 X148.323 Y100.148 E6.98631
G1 X148.74 Y100.969 E7.01694
G1 X149.085 Y101.823 E7.04757
G1 X149.354 Y102.703 E7.07818
G1 X149.546 Y103.604 E7.10882
G1 X149.659 Y104.517 E7.13942
G1 X149.688 Y105.061 E7.15753
G1 X149.701 Y105.679 E7.17809
G1 X149.7 Y129.046 E7.95528
G1 X149.691 Y129.773 E7.97947
G1 X149.64 Y130.692 E8.01008
G1 X149.509 Y131.604 E8.04072
G1 X149.299 Y132.5 E8.07133
G1 X149.013 Y133.375 E8.10195
G1 X148.652 Y134.222 E8.13257
G1 X148.218 Y135.034 E8.1632
G1 X147.716 Y135.806 E8.19382
G1 X147.148 Y136.531 E8.22446
G1 X146.52 Y137.204 E8.25507
G1 X145.836 Y137.82 E8.28569
G1 X145.101 Y138.374 E8.3163
G1 X144.321 Y138.863 E8.34692
G1 X143.501 Y139.282 E8.37755
G1 X142.648 Y139.628 E8.40816
G1 X141.768 Y139.899 E8.43879
G1 X140.868 Y140.092 E8.4694
G1 X139.954 Y140.207 E8.50004
G1 X139.389 Y140.238 E8.51886
G1 X138.771 Y140.251 E8.53942
G1 X96.469 Y140.25 E9.94639
G1 X95.771 Y140.241 E9.96961
G1 X94.852 Y140.189 E10.00023
G1 X93.941 Y140.058 E10.03084
G1 X93.045 Y139.848 E10.06145
G1 X92.17 Y139.561 E10.09207
G1 X91.323 Y139.199 E10.12271
G1 X90.511 Y138.765 E10.15333
G1 X89.74 Y138.263 E10.18393
G1 X89.015 Y137.695 E10.21457
G1 X88.342 Y137.066 E10.2452
G1 X87.727 Y136.382 E10.2758
G1 X87.173 Y135.647 E10.30641
G1 X86.685 Y134.866 E10.33704
G1 X86.266 Y134.046 E10.36767
G1 X85.92 Y133.193 E10.39828
G1 X85.65 Y132.313 E10.4289
G1 X85.457 Y131.412 E10.45955
G1 X85.343 Y130.499 E10.49015
G1 X85.312 Y129.928 E10.50917
G1 X85.299 Y129.309 E10.52976
G1 X85.3 Y105.88 E11.30901
G1 X85.309 Y105.215 E11.33113
G1 X85.361 Y104.295 E11.36178
G1 X85.493 Y103.384 E11.3924
G1 X85.704 Y102.488 E11.42301
G1 X85.991 Y101.613 E11.45364
G1 X86.354 Y100.767 E11.48426
G1 X86.788 Y99.955 E11.51488
G1 X87.291 Y99.184 E11.5455
G1 X87.86 Y98.46 E11.57613
G1 X88.488 Y97.788 E11.60672
G1 X89.173 Y97.172 E11.63736
G1 X89.909 Y96.619 E11.66798
G1 X90.69 Y96.131 E11.69861
G1 X91.51 Y95.713 E11.72922
G1 X92.364 Y95.368 E11.75986
G1 X93.244 Y95.098 E11.79047
G1 X94.144 Y94.906 E11.82108
G1 X95.058 Y94.792 E11.85172
G1 X95.611 Y94.762 E11.87014
G1 X96.229 Y94.749 E11.8907
G1 X138.546 Y94.75 E13.29816
G1 X139.244 Y94.76 E13.32138
G0 F6000 X139.25 Y94.36
G1 F1200 X140.186 Y94.414 E13.35257
G1 X141.114 Y94.546 E13.38374
G1 X142.028 Y94.758 E13.41495
G1 X142.92 Y95.047 E13.44614
G1 X143.785 Y95.41 E13.47734
G1 X144.615 Y95.846 E13.50852
G1 X145.406 Y96.351 E13.53973
G1 X146.15 Y96.922 E13.57093
G1 X146.843 Y97.554 E13.60212
G1 X147.48 Y98.242 E13.63331
G1 X148.055 Y98.983 E13.6645
G1 X148.566 Y99.769 E13.69568
G1 X149.008 Y100.597 E13.7269
G1 X149.377 Y101.459 E13.75809
G1 X149.672 Y102.349 E13.78927
G1 X149.89 Y103.261 E13.82046
G1 X150.03 Y104.189 E13.85167
G1 X150.088 Y105.05 E13.88038
G1 X150.101 Y105.679 E13.9013
G1 X150.1 Y129.051 E14.67866
G1 X150.091 Y129.778 E14.70284
G1 X150.04 Y130.715 E14.73405
G1 X149.908 Y131.643 E14.76523
G1 X149.699 Y132.557 E14.79641
G1 X149.412 Y133.45 E14.82761
G1 X149.05 Y134.316 E14.85883
G1 X148.616 Y135.147 E14.89001
G1 X148.112 Y135.938 E14.9212
G1 X147.543 Y136.683 E14.95238
G1 X146.912 Y137.378 E14.9836
G1 X146.225 Y138.016 E15.01479
G1 X145.486 Y138.593 E15.04597
G1 X144.7 Y139.105 E15.07717
G1 X143.874 Y139.548 E15.10835
G1 X143.012 Y139.92 E15.13957
G1 X142.123 Y140.216 E15.17074
G1 X141.211 Y140.436 E15.20194
G1 X140.284 Y140.577 E15.23313
G1 X139.4 Y140.638 E15.2626
G1 X138.771 Y140.651 E15.28352
G1 X96.464 Y140.65 E16.69066
G1 X95.766 Y140.641 E16.71388
G1 X94.83 Y140.589 E16.74506
G1 X93.901 Y140.457 E16.77627
G1 X92.987 Y140.247 E16.80746
G1 X92.094 Y139.96 E16.83866
G1 X91.229 Y139.597 E16.86986
G1 X90.398 Y139.163 E16.90104
G1 X89.607 Y138.659 E16.93223
G1 X88.862 Y138.089 E16.96343
G1 X88.168 Y137.458 E16.99463
G1 X87.531 Y136.771 E17.02579
G1 X86.954 Y136.031 E17.057
G1 X86.442 Y135.245 E17.0882
G1 X85.999 Y134.418 E17.1194
G1 X85.628 Y133.557 E17.15059
G1 X85.332 Y132.667 E17.18178
G1 X85.113 Y131.755 E17.21298
G1 X84.972 Y130.828 E17.24416
G1 X84.912 Y129.939 E17.2738
G1 X84.899 Y129.309 E17.29476
G1 X84.9 Y105.874 E18.07421
G1 X84.909 Y105.209 E18.09633
G1 X84.962 Y104.273 E18.12751
G1 X85.094 Y103.344 E18.15872
G1 X85.305 Y102.43 E18.18992
G1 X85.593 Y101.538 E18.2211
G1 X85.956 Y100.673 E18.2523
G1 X86.391 Y99.842 E18.28349
G1 X86.895 Y99.052 E18.31466
G1 X87.465 Y98.307 E18.34586
G1 X88.097 Y97.613 E18.37708
G1 X88.785 Y96.976 E18.40826
G1 X89.525 Y96.4 E18.43945
G1 X90.311 Y95.888 E18.47065
G1 X91.138 Y95.446 E18.50184
G1 X92 Y95.076 E18.53304
G1 X92.89 Y94.78 E18.56424
G1 X93.802 Y94.562 E18.59543
G1 X94.729 Y94.421 E18.62661
G1 X95.6 Y94.362 E18.65565
G1 X96.229 Y94.349 E18.67657
G1 X138.552 Y94.35 E20.08424
G1 X139.25 Y94.36 E20.10746
G1 F1500 E13.60746
;MESH:Screw Test 1.stl
G0 F6000 X138.681 Y104.684
G0 X138.681 Y105.769
G0 X96.681 Y106.131
G0 X96.499 Y129.051
;TYPE:WALL-INNER
G1 F1500 E20.10746
G1 F1200 X96.499 Y105.949 E20.87584
G1 X138.501 Y105.949 E22.27283
G1 X138.501 Y129.051 E23.0412
G1 X96.499 Y129.051 E24.4382
G0 F6000 X96.099 Y129.451
;TYPE:WALL-OUTER
G1 F1200 X96.099 Y105.549 E25.23318
G1 X138.901 Y105.549 E26.65678
G1 X138.901 Y129.451 E27.45176
G1 X96.099 Y129.451 E28.87536
G0 F6000 X96.369 Y129.181
G0 X96.609 Y128.661
G0 X96.889 Y128.661
;TYPE:SKIN
G1 F1200 X96.889 Y106.339 E29.6178
G1 X138.111 Y106.339 E30.98885
G1 X138.111 Y128.661 E31.73128
G1 X96.889 Y128.661 E33.10233
G0 F6000 X97.386 Y128.499
G1 F1200 X97.048 Y128.161 E33.11823
G0 F6000 X97.048 Y127.596
G1 F1200 X97.952 Y128.499 E33.16072
G0 F6000 X98.518 Y128.499
G1 F1200 X97.048 Y127.03 E33.22984
G0 F6000 X97.048 Y126.464
G1 F1200 X99.084 Y128.499 E33.32559
G0 F6000 X99.649 Y128.499
G1 F1200 X97.048 Y125.898 E33.44793
G0 F6000 X97.048 Y125.333
G1 F1200 X100.215 Y128.499 E33.59687
G0 F6000 X100.781 Y128.499
G1 F1200 X97.048 Y124.767 E33.77244
G0 F6000 X97.048 Y124.201
G1 F1200 X101.346 Y128.499 E33.9746
G0 F6000 X101.912 Y128.499
G1 F1200 X97.048 Y123.636 E34.20337
G0 F6000 X97.048 Y123.07
G1 F1200 X102.478 Y128.499 E34.45876
G0 F6000 X103.043 Y128.499
G1 F1200 X97.048 Y122.504 E34.74074
G0 F6000 X97.048 Y121.939
G1 F1200 X103.609 Y128.499 E35.04933
G0 F6000 X104.175 Y128.499
G1 F1200 X97.048 Y121.373 E35.38454
G0 F6000 X97.048 Y120.807
G1 F1200 X104.74 Y128.499 E35.74634
G0 F6000 X105.306 Y128.499
G1 F1200 X97.048 Y120.242 E36.13475
G0 F6000 X97.048 Y119.676
G1 F1200 X105.872 Y128.499 E36.54978
G0 F6000 X106.437 Y128.499
G1 F1200 X97.048 Y119.11 E36.99141
G0 F6000 X97.048 Y118.545
G1 F1200 X107.003 Y128.499 E37.45964
G0 F6000 X107.569 Y128.499
G1 F1200 X97.048 Y117.979 E37.95449
G0 F6000 X97.048 Y117.413
G1 F1200 X108.135 Y128.499 E38.47597
G0 F6000 X108.7 Y128.499
G1 F1200 X97.048 Y116.847 E39.02404
G0 F6000 X97.048 Y116.282
G1 F1200 X109.266 Y128.499 E39.59872
G0 F6000 X109.832 Y128.499
G1 F1200 X97.048 Y115.716 E40.20001
G0 F6000 X97.048 Y115.15
G1 F1200 X110.397 Y128.499 E40.82791
G0 F6000 X110.963 Y128.499
G1 F1200 X97.048 Y114.585 E41.4824
G0 F6000 X97.048 Y114.019
G1 F1200 X111.529 Y128.499 E42.16352
G0 F6000 X112.094 Y128.499
G1 F1200 X97.048 Y113.453 E42.87124
G0 F6000 X97.048 Y112.888
G1 F1200 X112.66 Y128.499 E43.60556
G0 F6000 X113.226 Y128.499
G1 F1200 X97.048 Y112.322 E44.3665
G0 F6000 X97.048 Y111.756
G1 F1200 X113.791 Y128.499 E45.15404
G0 F6000 X114.357 Y128.499
G1 F1200 X97.048 Y111.191 E45.96818
G0 F6000 X97.048 Y110.625
G1 F1200 X114.923 Y128.499 E46.80894
G0 F6000 X115.488 Y128.499
G1 F1200 X97.048 Y110.059 E47.6763
G0 F6000 X97.048 Y109.494
G1 F1200 X116.054 Y128.499 E48.57026
G0 F6000 X116.62 Y128.499
G1 F1200 X97.048 Y108.928 E49.49084
G0 F6000 X97.048 Y108.362
G1 F1200 X117.185 Y128.499 E50.43802
G0 F6000 X117.752 Y128.5
G1 F1200 X97.048 Y107.797 E51.41185
G0 F6000 X97.048 Y107.231
G1 F1200 X118.318 Y128.5 E52.41231
G0 F6000 X118.883 Y128.5
G1 F1200 X97.048 Y106.665 E53.43936
G0 F6000 X97.448 Y106.499
G1 F1200 X119.449 Y128.5 E54.47422
G0 F6000 X120.015 Y128.5
G1 F1200 X98.014 Y106.499 E55.50908
G0 F6000 X98.579 Y106.499
G1 F1200 X120.58 Y128.5 E56.54394
G0 F6000 X121.146 Y128.5
G1 F1200 X99.145 Y106.499 E57.5788
G0 F6000 X99.711 Y106.499
G1 F1200 X121.712 Y128.5 E58.61366
G0 F6000 X122.277 Y128.5
G1 F1200 X100.276 Y106.499 E59.64852
G0 F6000 X100.842 Y106.499
G1 F1200 X122.843 Y128.5 E60.68337
G0 F6000 X123.409 Y128.5
G1 F1200 X101.408 Y106.499 E61.71823
G0 F6000 X101.973 Y106.499
G1 F1200 X123.974 Y128.5 E62.75309
G0 F6000 X124.54 Y128.5
G1 F1200 X102.539 Y106.499 E63.78795
G0 F6000 X103.105 Y106.499
G1 F1200 X125.106 Y128.5 E64.82281
G0 F6000 X125.671 Y128.5
G1 F1200 X103.671 Y106.499 E65.85765
G0 F6000 X104.236 Y106.499
G1 F1200 X126.237 Y128.5 E66.89251
G0 F6000 X126.803 Y128.5
G1 F1200 X104.802 Y106.499 E67.92737
G0 F6000 X105.368 Y106.499
G1 F1200 X127.369 Y128.5 E68.96223
G0 F6000 X127.934 Y128.5
G1 F1200 X105.933 Y106.499 E69.99709
G0 F6000 X106.499 Y106.499
G1 F1200 X128.5 Y128.5 E71.03195
G0 F6000 X129.066 Y128.5
G1 F1200 X107.065 Y106.499 E72.06681
G0 F6000 X107.63 Y106.499
G1 F1200 X129.631 Y128.5 E73.10167
G0 F6000 X130.197 Y128.5
G1 F1200 X108.196 Y106.499 E74.13653
G0 F6000 X108.762 Y106.499
G1 F1200 X130.763 Y128.5 E75.17139
G0 F6000 X131.328 Y128.5
G1 F1200 X109.327 Y106.499 E76.20625
G0 F6000 X109.893 Y106.499
G1 F1200 X131.894 Y128.5 E77.2411
G0 F6000 X132.46 Y128.5
G1 F1200 X110.459 Y106.499 E78.27596
G0 F6000 X111.024 Y106.499
G1 F1200 X133.025 Y128.5 E79.31082
G0 F6000 X133.591 Y128.5
G1 F1200 X111.59 Y106.499 E80.34568
G0 F6000 X112.156 Y106.499
G1 F1200 X134.157 Y128.5 E81.38054
G0 F6000 X134.722 Y128.5
G1 F1200 X112.722 Y106.499 E82.41538
G0 F6000 X113.287 Y106.499
G1 F1200 X135.288 Y128.5 E83.45024
G0 F6000 X135.854 Y128.5
G1 F1200 X113.853 Y106.499 E84.4851
G0 F6000 X114.419 Y106.499
G1 F1200 X136.419 Y128.5 E85.51993
G0 F6000 X136.985 Y128.5
G1 F1200 X114.984 Y106.499 E86.55479
G0 F6000 X115.55 Y106.499
G1 F1200 X137.551 Y128.5 E87.58965
G0 F6000 X137.95 Y128.334
G1 F1200 X116.116 Y106.499 E88.61668
G0 F6000 X116.681 Y106.499
G1 F1200 X137.95 Y127.768 E89.61711
G0 F6000 X137.95 Y127.202
G1 F1200 X117.247 Y106.499 E90.59092
G0 F6000 X117.813 Y106.499
G1 F1200 X137.95 Y126.637 E91.53812
G0 F6000 X137.95 Y126.071
G1 F1200 X118.378 Y106.499 E92.45873
G0 F6000 X118.944 Y106.499
G1 F1200 X137.95 Y125.505 E93.35271
G0 F6000 X137.95 Y124.94
G1 F1200 X119.51 Y106.499 E94.2201
G0 F6000 X120.075 Y106.499
G1 F1200 X137.95 Y124.374 E95.06088
G0 F6000 X137.95 Y123.808
G1 F1200 X120.641 Y106.499 E95.87504
G0 F6000 X121.207 Y106.499
G1 F1200 X137.95 Y123.243 E96.66261
G0 F6000 X137.95 Y122.677
G1 F1200 X121.772 Y106.499 E97.42357
G0 F6000 X122.338 Y106.499
G1 F1200 X137.95 Y122.111 E98.15791
G0 F6000 X137.95 Y121.545
G1 F1200 X122.904 Y106.499 E98.86563
G0 F6000 X123.47 Y106.499
G1 F1200 X137.95 Y120.98 E99.54675
G0 F6000 X137.95 Y120.414
G1 F1200 X124.035 Y106.499 E100.20127
G0 F6000 X124.601 Y106.499
G1 F1200 X137.95 Y119.848 E100.82916
G0 F6000 X137.95 Y119.283
G1 F1200 X125.167 Y106.499 E101.43046
G0 F6000 X125.732 Y106.499
G1 F1200 X137.95 Y118.717 E102.00516
G0 F6000 X137.95 Y118.151
G1 F1200 X126.298 Y106.499 E102.55323
G0 F6000 X126.864 Y106.499
G1 F1200 X137.95 Y117.586 E103.07471
G0 F6000 X137.95 Y117.02
G1 F1200 X127.429 Y106.499 E103.56958
G0 F6000 X127.995 Y106.499
G1 F1200 X137.95 Y116.454 E104.03783
G0 F6000 X137.95 Y115.889
G1 F1200 X128.561 Y106.499 E104.47949
G0 F6000 X129.126 Y106.499
G1 F1200 X137.95 Y115.323 E104.89454
G0 F6000 X137.95 Y114.757
G1 F1200 X129.692 Y106.499 E105.28297
G0 F6000 X130.258 Y106.499
G1 F1200 X137.95 Y114.192 E105.6448
G0 F6000 X137.95 Y113.626
G1 F1200 X130.823 Y106.499 E105.98004
G0 F6000 X131.389 Y106.499
G1 F1200 X137.95 Y113.06 E106.28865
G0 F6000 X137.95 Y112.495
G1 F1200 X131.955 Y106.499 E106.57066
G0 F6000 X132.521 Y106.499
G1 F1200 X137.95 Y111.929 E106.82604
G0 F6000 X137.95 Y111.363
G1 F1200 X133.086 Y106.499 E107.05483
G0 F6000 X133.652 Y106.499
G1 F1200 X137.95 Y110.797 E107.257
G0 F6000 X137.95 Y110.232
G1 F1200 X134.218 Y106.499 E107.43256
G0 F6000 X134.783 Y106.499
G1 F1200 X137.95 Y109.666 E107.58153
G0 F6000 X137.95 Y109.1
G1 F1200 X135.349 Y106.499 E107.70387
G0 F6000 X135.915 Y106.499
G1 F1200 X137.95 Y108.535 E107.79961
G0 F6000 X137.95 Y107.969
G1 F1200 X136.48 Y106.499 E107.86876
G0 F6000 X137.046 Y106.499
G1 F1200 X137.95 Y107.403 E107.91128
G0 F6000 X137.95 Y106.838
G1 F1200 X137.612 Y106.499 E107.9272
G0 F6000 X137.612 Y106.149
G1 F1500 E101.4272
;MESH:NONMESH
G0 F300 X137.612 Y106.149 Z0.4
G0 F6000 X137.612 Y106.059
G0 X96.681 Y106.131
G0 X96.499 Y129.051
;TIME_ELAPSED:178.160304
;LAYER:1
M140 S60
M106 S85
