;FLAVOR:Marlin
;TIME:7848
;Filament used: 6.32101m
;Layer height: 0.2
;MINX:56.511
;MINY:56.516
;MINZ:0.2
;MAXX:178.477
;MAXY:178.486
;MAXZ:4
;Generated with Cura_SteamEngine 4.6.1
M140 S60
M105
M190 S60
M104 S200
M105
M109 S200
M82 ;absolute extrusion mode
; Ender 3 Custom Start G-code
G92 E0 ; Reset Extruder
G28 ; Home all axes
G1 Z2.0 F3000 ; Move Z Axis up little to prevent scratching of Heat Bed
G1 X0.1 Y20 Z0.3 F5000.0 ; Move to start position
G1 X0.1 Y200.0 Z0.3 F1500.0 E15 ; Draw the first line
G1 X0.4 Y200.0 Z0.3 F5000.0 ; Move to side a little
G1 X0.4 Y20 Z0.3 F1500.0 E30 ; Draw the second line
G92 E0 ; Reset Extruder
G1 Z2.0 F3000 ; Move Z Axis up little to prevent scratching of Heat Bed
G1 X5 Y20 Z0.3 F5000.0 ; Move over to prevent blob squish
G92 E0
G92 E0
G1 F1500 E-6.5
;LAYER_COUNT:20
;LAYER:0
M107
G0 F6000 X119.19 Y57.338 Z0.2
;TYPE:SKIRT
G1 F1500 E0
G1 F1200 X121.18 Y57.428 E0.06626
G1 X122.111 Y57.488 E0.09728
G1 X122.813 Y57.55 E0.12072
G1 X124.752 Y57.756 E0.18558
G1 X125.687 Y57.872 E0.21692
G1 X126.468 Y57.99 E0.24319
G1 X128.256 Y58.287 E0.30347
G1 X128.887 Y58.401 E0.3248
G1 X129.193 Y58.462 E0.33517
G1 X130.196 Y58.676 E0.36929
G1 X131.815 Y59.046 E0.42452
G1 X132.682 Y59.262 E0.45424
G1 X133.678 Y59.537 E0.48861
G1 X135.239 Y59.993 E0.5427
G1 X135.794 Y60.163 E0.562
G1 X136.113 Y60.266 E0.57315
G1 X137.295 Y60.672 E0.61472
G1 X138.718 Y61.183 E0.66501
G1 X139.571 Y61.507 E0.69536
G1 X140.335 Y61.821 E0.72283
G1 X142.008 Y62.537 E0.78336
G1 X142.742 Y62.87 E0.81016
G1 X144.147 Y63.549 E0.86206
G1 X145.272 Y64.112 E0.90391
G1 X145.699 Y64.333 E0.9199
G1 X145.987 Y64.488 E0.93078
G1 X147.165 Y65.147 E0.97567
G1 X148.364 Y65.841 E1.02175
G1 X149.145 Y66.312 E1.05208
G1 X150.202 Y66.989 E1.09383
G1 X151.382 Y67.768 E1.14086
G1 X151.932 Y68.141 E1.16296
G1 X152.198 Y68.328 E1.17378
G1 X153.008 Y68.917 E1.20709
G1 X154.347 Y69.922 E1.26277
G1 X154.731 Y70.218 E1.2789
G1 X154.993 Y70.427 E1.29004
G1 X156.125 Y71.362 E1.33888
G1 X157.152 Y72.234 E1.38369
G1 X157.801 Y72.808 E1.4125
G1 X158.545 Y73.498 E1.44625
G1 X159.769 Y74.669 E1.50259
G1 X160.401 Y75.297 E1.53223
G1 X161.068 Y75.992 E1.56427
G1 X162.263 Y77.282 E1.62275
G1 X162.602 Y77.658 E1.63959
G1 X162.812 Y77.899 E1.65022
G1 X163.642 Y78.881 E1.69299
G1 X164.545 Y79.981 E1.74032
G1 X165.159 Y80.756 E1.77321
G1 X165.723 Y81.509 E1.8045
G1 X166.736 Y82.905 E1.86187
G1 X167.272 Y83.671 E1.89296
G1 X167.715 Y84.34 E1.91965
G1 X168.71 Y85.902 E1.98125
G1 X169.244 Y86.771 E2.01517
G1 X169.571 Y87.339 E2.03697
G1 X170.496 Y88.999 E2.10017
G1 X170.912 Y89.78 E2.12961
G1 X171.515 Y90.992 E2.17463
G1 X172.104 Y92.217 E2.21984
G1 X172.52 Y93.121 E2.25294
G1 X172.831 Y93.848 E2.27924
G1 X173.532 Y95.559 E2.34074
G1 X173.744 Y96.097 E2.35997
G1 X173.856 Y96.396 E2.37059
G1 X174.214 Y97.399 E2.40601
G1 X174.719 Y98.88 E2.45805
G1 X175.057 Y99.931 E2.49477
G1 X175.241 Y100.56 E2.51657
G1 X175.744 Y102.386 E2.57957
G1 X175.905 Y103.005 E2.60084
G1 X175.975 Y103.295 E2.61076
G1 X176.207 Y104.313 E2.64549
G1 X176.527 Y105.823 E2.69683
G1 X176.723 Y106.825 E2.73078
G1 X176.892 Y107.852 E2.7654
G1 X177.135 Y109.468 E2.81975
G1 X177.249 Y110.345 E2.84917
G1 X177.364 Y111.439 E2.88576
G1 X177.507 Y113.039 E2.93918
G1 X177.553 Y113.638 E2.95917
G1 X177.572 Y113.953 E2.96966
G1 X177.618 Y114.989 E3.00415
G1 X177.668 Y116.672 E3.06015
G1 X177.677 Y117.538 E3.08896
G1 X177.661 Y118.589 E3.12392
G1 X177.609 Y120.277 E3.18009
G1 X177.565 Y121.165 E3.20966
G1 X177.489 Y122.163 E3.24295
G1 X177.34 Y123.819 E3.29825
G1 X177.239 Y124.742 E3.32913
G1 X177.098 Y125.784 E3.36411
G1 X176.857 Y127.371 E3.4175
G1 X176.753 Y128.003 E3.4388
G1 X176.697 Y128.309 E3.44915
G1 X176.497 Y129.326 E3.48362
G1 X176.161 Y130.903 E3.53725
G1 X176.04 Y131.434 E3.55536
G1 X175.962 Y131.753 E3.56628
G1 X175.574 Y133.232 E3.61714
G1 X175.251 Y134.398 E3.65738
G1 X174.976 Y135.327 E3.68961
G1 X174.677 Y136.245 E3.72172
G1 X174.134 Y137.834 E3.77757
G1 X173.952 Y138.345 E3.79561
G1 X173.836 Y138.655 E3.80662
G1 X173.369 Y139.84 E3.84898
G1 X172.82 Y141.175 E3.89699
G1 X172.423 Y142.094 E3.93029
G1 X172.096 Y142.803 E3.95626
G1 X171.306 Y144.441 E4.01674
G1 X171.048 Y144.957 E4.03593
G1 X170.902 Y145.237 E4.04643
G1 X170.262 Y146.422 E4.09123
G1 X169.569 Y147.663 E4.1385
G1 X169.168 Y148.346 E4.16485
G1 X168.43 Y149.538 E4.21148
G1 X167.69 Y150.697 E4.25721
G1 X167.189 Y151.449 E4.28727
G1 X166.597 Y152.287 E4.32139
G1 X165.631 Y153.615 E4.37601
G1 X165.022 Y154.422 E4.40964
G1 X164.532 Y155.037 E4.43579
G1 X163.365 Y156.454 E4.49685
G1 X163.019 Y156.864 E4.51469
G1 X162.802 Y157.113 E4.52567
G1 X161.973 Y158.032 E4.56684
G1 X160.96 Y159.122 E4.61633
G1 X160.333 Y159.773 E4.64639
G1 X159.592 Y160.503 E4.68099
G1 X158.401 Y161.639 E4.73573
G1 X157.656 Y162.326 E4.76944
G1 X157.117 Y162.797 E4.79325
G1 X155.713 Y163.986 E4.85444
G1 X154.953 Y164.606 E4.88706
G1 X154.147 Y165.228 E4.92092
G1 X152.826 Y166.218 E4.97583
G1 X152.05 Y166.777 E5.00764
G1 X151.344 Y167.259 E5.03607
G1 X149.858 Y168.237 E5.09524
G1 X149.008 Y168.777 E5.12873
G1 X148.381 Y169.151 E5.15302
G1 X146.754 Y170.09 E5.2155
G1 X145.888 Y170.569 E5.24841
G1 X145.292 Y170.88 E5.27077
G1 X143.535 Y171.757 E5.33608
G1 X142.779 Y172.116 E5.36392
G1 X141.623 Y172.629 E5.40598
G1 X140.28 Y173.203 E5.45456
G1 X139.665 Y173.457 E5.47669
G1 X139.349 Y173.581 E5.48798
G1 X138.629 Y173.849 E5.51354
G1 X136.915 Y174.462 E5.57408
G1 X136.032 Y174.76 E5.60508
G1 X135.03 Y175.069 E5.63995
G1 X133.461 Y175.526 E5.6943
G1 X132.59 Y175.763 E5.72433
G1 X131.544 Y176.018 E5.76014
G1 X129.989 Y176.371 E5.81317
G1 X129.437 Y176.49 E5.83195
G1 X129.091 Y176.558 E5.84368
G1 X127.85 Y176.78 E5.88561
G1 X126.369 Y177.026 E5.93555
G1 X125.589 Y177.139 E5.96176
G1 X124.176 Y177.306 E6.00908
G1 X122.811 Y177.448 E6.05473
G1 X122.034 Y177.514 E6.08066
G1 X120.631 Y177.596 E6.12741
G1 X119.27 Y177.657 E6.17272
G1 X118.197 Y177.686 E6.20842
G1 X117.59 Y177.686 E6.22861
G1 X115.659 Y177.656 E6.29284
G1 X114.642 Y177.623 E6.32669
G1 X113.954 Y177.582 E6.34961
G1 X112.12 Y177.443 E6.41078
G1 X111.02 Y177.341 E6.44753
G1 X110.348 Y177.26 E6.47004
G1 X108.48 Y177.006 E6.53274
G1 X107.521 Y176.858 E6.56502
G1 X106.724 Y176.714 E6.59195
G1 X104.935 Y176.36 E6.65261
G1 X104.007 Y176.159 E6.68419
G1 X103.156 Y175.952 E6.71332
G1 X101.432 Y175.503 E6.77257
G1 X100.564 Y175.259 E6.80256
G1 X99.578 Y174.955 E6.83688
G1 X98.005 Y174.442 E6.89191
G1 X97.041 Y174.11 E6.92582
G1 X96.418 Y173.877 E6.94794
G1 X94.666 Y173.188 E7.01056
G1 X94.033 Y172.93 E7.0333
G1 X93.728 Y172.8 E7.04432
G1 X92.88 Y172.42 E7.07523
G1 X91.359 Y171.716 E7.13097
G1 X90.456 Y171.277 E7.16437
G1 X89.768 Y170.921 E7.19013
G1 X88.129 Y170.037 E7.25207
G1 X87.255 Y169.546 E7.28541
G1 X86.674 Y169.198 E7.30794
G1 X85.063 Y168.202 E7.37093
G1 X84.191 Y167.641 E7.40542
G1 X83.684 Y167.296 E7.42582
G1 X82.059 Y166.151 E7.49193
G1 X81.323 Y165.611 E7.5223
G1 X80.584 Y165.039 E7.55338
G1 X79.229 Y163.957 E7.61105
G1 X78.551 Y163.394 E7.64036
G1 X77.611 Y162.57 E7.68194
G1 X76.515 Y161.582 E7.73102
G1 X75.847 Y160.959 E7.7614
G1 X75.137 Y160.258 E7.79458
G1 X73.96 Y159.061 E7.85042
G1 X73.29 Y158.355 E7.88279
G1 X72.739 Y157.745 E7.91013
G1 X71.523 Y156.351 E7.97166
G1 X70.961 Y155.681 E8.00074
G1 X70.317 Y154.872 E8.03513
G1 X69.321 Y153.583 E8.08931
G1 X68.74 Y152.8 E8.12174
G1 X68.174 Y151.994 E8.1545
G1 X67.255 Y150.645 E8.20879
G1 X66.938 Y150.166 E8.22789
G1 X66.763 Y149.892 E8.23871
G1 X66.067 Y148.762 E8.28285
G1 X65.335 Y147.536 E8.33034
G1 X64.915 Y146.798 E8.35858
G1 X64.344 Y145.737 E8.39866
G1 X63.624 Y144.348 E8.45069
G1 X63.189 Y143.471 E8.48326
G1 X62.907 Y142.86 E8.50564
G1 X62.14 Y141.134 E8.56846
G1 X61.772 Y140.262 E8.59994
G1 X61.396 Y139.304 E8.63417
G1 X60.834 Y137.804 E8.68744
G1 X60.636 Y137.253 E8.70692
G1 X60.533 Y136.951 E8.71753
G1 X60.114 Y135.655 E8.76283
G1 X59.699 Y134.304 E8.80984
G1 X59.445 Y133.423 E8.84033
G1 X59.235 Y132.62 E8.86794
G1 X58.814 Y130.891 E8.92713
G1 X58.595 Y129.92 E8.96023
G1 X58.424 Y129.053 E8.98963
G1 X58.105 Y127.286 E9.04935
G1 X57.968 Y126.436 E9.07798
G1 X57.823 Y125.363 E9.114
G1 X57.632 Y123.764 E9.16756
G1 X57.538 Y122.831 E9.19874
G1 X57.458 Y121.76 E9.23447
G1 X57.364 Y120.165 E9.28761
G1 X57.325 Y119.224 E9.31893
G1 X57.311 Y118.234 E9.35186
G1 X57.312 Y116.568 E9.40727
G1 X57.33 Y115.617 E9.43891
G1 X57.375 Y114.621 E9.47207
G1 X57.475 Y112.981 E9.52672
G1 X57.522 Y112.339 E9.54813
G1 X57.55 Y112.026 E9.55858
G1 X57.656 Y111.027 E9.592
G1 X57.848 Y109.444 E9.64503
G1 X57.979 Y108.5 E9.67673
G1 X58.183 Y107.276 E9.718
G1 X58.448 Y105.823 E9.76713
G1 X58.546 Y105.32 E9.78417
G1 X58.616 Y104.989 E9.79542
G1 X58.915 Y103.693 E9.83966
G1 X59.262 Y102.275 E9.88822
G1 X59.503 Y101.365 E9.91953
G1 X59.727 Y100.598 E9.9461
G1 X60.266 Y98.853 E10.00685
G1 X60.549 Y97.996 E10.03686
G1 X60.913 Y96.981 E10.07273
G1 X61.475 Y95.489 E10.12576
G1 X61.793 Y94.692 E10.1543
G1 X62.383 Y93.317 E10.20406
G1 X62.878 Y92.208 E10.24445
G1 X63.3 Y91.304 E10.27764
G1 X63.701 Y90.501 E10.30749
G1 X64.515 Y88.935 E10.36619
G1 X64.832 Y88.344 E10.3885
G1 X64.98 Y88.079 E10.39859
G1 X65.363 Y87.416 E10.42406
G1 X66.338 Y85.785 E10.48726
G1 X66.786 Y85.069 E10.51535
G1 X67.378 Y84.172 E10.5511
G1 X68.294 Y82.831 E10.60511
G1 X68.652 Y82.32 E10.62586
G1 X68.845 Y82.055 E10.63677
G1 X69.434 Y81.271 E10.66938
G1 X70.447 Y79.961 E10.72446
G1 X70.799 Y79.519 E10.74325
G1 X71.006 Y79.268 E10.75407
G1 X71.891 Y78.227 E10.79952
G1 X72.788 Y77.201 E10.84485
G1 X73.391 Y76.537 E10.87468
G1 X74.147 Y75.746 E10.91107
G1 X75.276 Y74.604 E10.96448
G1 X76.003 Y73.892 E10.99833
G1 X76.542 Y73.392 E11.02278
G1 X77.935 Y72.14 E11.08508
G1 X78.596 Y71.569 E11.11413
G1 X79.516 Y70.813 E11.15373
G1 X80.699 Y69.871 E11.20403
G1 X81.332 Y69.387 E11.23053
G1 X82.748 Y68.363 E11.28865
G1 X83.602 Y67.763 E11.32337
G1 X84.044 Y67.461 E11.34117
G1 X84.32 Y67.279 E11.35217
G1 X85.569 Y66.485 E11.40139
G1 X86.671 Y65.806 E11.44445
G1 X87.403 Y65.373 E11.47273
G1 X88.5 Y64.763 E11.51448
G1 X89.803 Y64.063 E11.56368
G1 X90.637 Y63.634 E11.59487
G1 X91.566 Y63.188 E11.62914
G1 X93.039 Y62.507 E11.68312
G1 X93.842 Y62.156 E11.71227
G1 X95.174 Y61.612 E11.76012
G1 X96.352 Y61.151 E11.8022
G1 X97.255 Y60.815 E11.83424
G1 X98.198 Y60.494 E11.86737
G1 X99.783 Y59.979 E11.9228
G1 X100.327 Y59.811 E11.94174
G1 X100.624 Y59.725 E11.95202
G1 X101.782 Y59.406 E11.99197
G1 X103.205 Y59.037 E12.04087
G1 X103.824 Y58.885 E12.06207
G1 X104.143 Y58.812 E12.07295
G1 X105.369 Y58.554 E12.11462
G1 X106.805 Y58.271 E12.1633
G1 X107.569 Y58.137 E12.1891
G1 X109.088 Y57.91 E12.24018
G1 X110.305 Y57.747 E12.28102
G1 X110.862 Y57.679 E12.29969
G1 X111.199 Y57.644 E12.31096
G1 X112.63 Y57.518 E12.35874
G1 X113.89 Y57.424 E12.40076
G1 X114.431 Y57.391 E12.41879
G1 X114.769 Y57.376 E12.43004
G1 X116.294 Y57.334 E12.48078
G1 X117.531 Y57.316 E12.52193
G1 X118.562 Y57.32 E12.55622
G1 X119.19 Y57.338 E12.57712
G0 F6000 X119.207 Y56.939
G1 F1200 X121.203 Y57.029 E12.64357
G1 X122.145 Y57.089 E12.67496
G1 X122.855 Y57.152 E12.69867
G1 X124.799 Y57.358 E12.76369
G1 X125.441 Y57.435 E12.7852
G1 X125.746 Y57.477 E12.79544
G1 X126.533 Y57.596 E12.82191
G1 X128.328 Y57.894 E12.88243
G1 X129.276 Y58.07 E12.9145
G1 X130.285 Y58.286 E12.94882
G1 X131.91 Y58.657 E13.00426
G1 X132.788 Y58.876 E13.03436
G1 X133.79 Y59.153 E13.06893
G1 X135.356 Y59.611 E13.1232
G1 X135.911 Y59.781 E13.1425
G1 X136.242 Y59.888 E13.15407
G1 X137.429 Y60.296 E13.19582
G1 X138.858 Y60.809 E13.24632
G1 X139.722 Y61.137 E13.27706
G1 X140.492 Y61.453 E13.30474
G1 X142.171 Y62.171 E13.36548
G1 X142.916 Y62.509 E13.39269
G1 X144.326 Y63.191 E13.44478
G1 X145.456 Y63.757 E13.48682
G1 X145.883 Y63.978 E13.50281
G1 X146.182 Y64.139 E13.5141
G1 X147.365 Y64.801 E13.55919
G1 X148.569 Y65.498 E13.60546
G1 X149.36 Y65.975 E13.63618
G1 X150.423 Y66.655 E13.67816
G1 X151.607 Y67.437 E13.72535
G1 X152.157 Y67.81 E13.74745
G1 X152.433 Y68.004 E13.75867
G1 X153.248 Y68.597 E13.7922
G1 X154.591 Y69.606 E13.84807
G1 X154.975 Y69.902 E13.86419
G1 X155.248 Y70.119 E13.87579
G1 X156.384 Y71.057 E13.92479
G1 X157.415 Y71.933 E13.96979
G1 X158.073 Y72.514 E13.99898
G1 X158.822 Y73.209 E14.03297
G1 X160.05 Y74.384 E14.0895
G1 X160.69 Y75.02 E14.11951
G1 X161.361 Y75.72 E14.15176
G1 X162.56 Y77.014 E14.21043
G1 X162.899 Y77.39 E14.22727
G1 X163.117 Y77.64 E14.2383
G1 X163.951 Y78.627 E14.28128
G1 X164.858 Y79.731 E14.3288
G1 X165.281 Y80.26 E14.35133
G1 X165.479 Y80.516 E14.36209
G1 X166.046 Y81.274 E14.39358
G1 X167.063 Y82.675 E14.45116
G1 X167.604 Y83.449 E14.48257
G1 X168.052 Y84.125 E14.50954
G1 X169.05 Y85.691 E14.5713
G1 X169.59 Y86.57 E14.60562
G1 X169.921 Y87.144 E14.62765
G1 X170.848 Y88.809 E14.69104
G1 X171.114 Y89.302 E14.70967
G1 X171.269 Y89.602 E14.7209
G1 X171.876 Y90.819 E14.76613
G1 X172.466 Y92.048 E14.81148
G1 X172.887 Y92.963 E14.84497
G1 X173.201 Y93.696 E14.8715
G1 X173.904 Y95.412 E14.93318
G1 X174.116 Y95.95 E14.95241
G1 X174.233 Y96.261 E14.96346
G1 X174.593 Y97.269 E14.99906
G1 X175.099 Y98.756 E15.0513
G1 X175.44 Y99.817 E15.08837
G1 X175.626 Y100.453 E15.11041
G1 X176.131 Y102.286 E15.17365
G1 X176.292 Y102.905 E15.19492
G1 X176.365 Y103.206 E15.20522
G1 X176.599 Y104.23 E15.24016
G1 X176.92 Y105.744 E15.29163
G1 X177.055 Y106.418 E15.3145
G1 X177.117 Y106.759 E15.32602
G1 X177.288 Y107.792 E15.36085
G1 X177.531 Y109.415 E15.41543
G1 X177.647 Y110.303 E15.44522
G1 X177.762 Y111.403 E15.482
G1 X177.906 Y113.008 E15.5356
G1 X177.952 Y113.607 E15.55558
G1 X177.972 Y113.934 E15.56648
G1 X178.018 Y114.977 E15.6012
G1 X178.068 Y116.666 E15.6574
G1 X178.077 Y117.23 E15.67616
G1 X178.077 Y117.544 E15.68661
G1 X178.061 Y118.602 E15.7218
G1 X178.009 Y120.294 E15.7781
G1 X177.964 Y121.195 E15.80811
G1 X177.888 Y122.198 E15.84156
G1 X177.737 Y123.861 E15.8971
G1 X177.635 Y124.795 E15.92835
G1 X177.493 Y125.844 E15.96356
G1 X177.251 Y127.436 E16.01712
G1 X177.09 Y128.386 E16.04917
G1 X176.888 Y129.409 E16.08385
G1 X176.551 Y130.992 E16.13768
G1 X176.43 Y131.523 E16.15579
G1 X176.349 Y131.854 E16.16713
G1 X175.959 Y133.338 E16.21816
G1 X175.635 Y134.51 E16.2586
G1 X175.356 Y135.451 E16.29125
G1 X175.055 Y136.374 E16.32354
G1 X174.511 Y137.968 E16.37956
G1 X174.329 Y138.479 E16.3976
G1 X174.208 Y138.801 E16.40904
G1 X173.739 Y139.991 E16.45158
G1 X173.188 Y141.333 E16.49983
G1 X172.787 Y142.261 E16.53346
G1 X172.456 Y142.976 E16.55966
G1 X171.664 Y144.619 E16.62033
G1 X171.406 Y145.135 E16.63952
G1 X171.254 Y145.427 E16.65046
G1 X170.612 Y146.617 E16.69544
G1 X169.915 Y147.864 E16.74295
G1 X169.509 Y148.556 E16.76964
G1 X168.768 Y149.753 E16.81646
G1 X168.024 Y150.917 E16.86241
G1 X167.516 Y151.679 E16.89287
G1 X166.921 Y152.522 E16.92719
G1 X165.951 Y153.855 E16.98202
G1 X165.335 Y154.671 E17.01602
G1 X164.841 Y155.291 E17.04239
G1 X163.671 Y156.712 E17.10361
G1 X163.1 Y157.381 E17.13287
G1 X162.266 Y158.304 E17.17424
G1 X161.25 Y159.398 E17.2239
G1 X160.614 Y160.058 E17.25438
G1 X159.868 Y160.792 E17.28919
G1 X158.673 Y161.932 E17.34412
G1 X157.92 Y162.627 E17.3782
G1 X157.376 Y163.102 E17.40222
G1 X155.968 Y164.295 E17.4636
G1 X155.456 Y164.717 E17.48567
G1 X155.198 Y164.922 E17.49663
G1 X154.387 Y165.548 E17.53071
G1 X153.062 Y166.541 E17.58578
G1 X152.276 Y167.107 E17.618
G1 X151.564 Y167.593 E17.64667
G1 X150.074 Y168.574 E17.706
G1 X149.213 Y169.12 E17.73991
G1 X148.581 Y169.498 E17.7644
G1 X146.949 Y170.439 E17.82706
G1 X146.074 Y170.923 E17.86032
G1 X145.47 Y171.238 E17.88298
G1 X143.708 Y172.118 E17.94848
G1 X143.23 Y172.348 E17.96613
G1 X142.942 Y172.481 E17.97668
G1 X141.78 Y172.997 E18.01897
G1 X140.432 Y173.572 E18.06771
G1 X139.817 Y173.826 E18.08984
G1 X139.489 Y173.955 E18.10156
G1 X138.764 Y174.226 E18.12731
G1 X137.044 Y174.841 E18.18806
G1 X136.151 Y175.142 E18.2194
G1 X135.142 Y175.453 E18.25452
G1 X133.568 Y175.911 E18.30904
G1 X132.685 Y176.151 E18.33948
G1 X131.633 Y176.408 E18.3755
G1 X130.073 Y176.762 E18.4287
G1 X129.521 Y176.881 E18.44748
G1 X129.162 Y176.952 E18.45965
G1 X127.915 Y177.175 E18.50179
G1 X126.428 Y177.421 E18.55192
