;FLAVOR:Marlin
;TIME:48250
;Filament used: 47.8234m
;Layer height: 0.2
;MINX:11.5
;MINY:16.5
;MINZ:0.2
;MAXX:223.5
;MAXY:218.5
;MAXZ:60
;Generated with Cura_SteamEngine 4.6.1
M140 S60
M105
M190 S60
M104 S200
M105
M109 S200
M82 ;absolute extrusion mode
; Ender 3 Custom Start G-code
G92 E0 ; Reset Extruder
G28 ; Home all axes
G1 Z2.0 F3000 ; Move Z Axis up little to prevent scratching of Heat Bed
G1 X0.1 Y20 Z0.3 F5000.0 ; Move to start position
G1 X0.1 Y200.0 Z0.3 F1500.0 E15 ; Draw the first line
G1 X0.4 Y200.0 Z0.3 F5000.0 ; Move to side a little
G1 X0.4 Y20 Z0.3 F1500.0 E30 ; Draw the second line
G92 E0 ; Reset Extruder
G1 Z2.0 F3000 ; Move Z Axis up little to prevent scratching of Heat Bed
G1 X5 Y20 Z0.3 F5000.0 ; Move over to prevent blob squish
G92 E0
G92 E0
G1 F1500 E-6.5
;LAYER_COUNT:300
;LAYER:0
M107
G0 F6000 X208.171 Y17.33 Z0.2
;TYPE:SKIRT
G1 F1500 E0
G1 F1200 X208.602 Y17.357 E0.01436
G1 X209.068 Y17.397 E0.02992
G1 X210.216 Y17.562 E0.06849
G1 X210.905 Y17.705 E0.0919
G1 X211.215 Y17.777 E0.10248
G1 X212.336 Y18.107 E0.14135
G1 X212.956 Y18.333 E0.1633
G1 X213.271 Y18.456 E0.17455
G1 X214.298 Y18.923 E0.21207
G1 X214.668 Y19.117 E0.22597
G1 X215.203 Y19.414 E0.24632
G1 X216.153 Y20.023 E0.28385
G1 X216.698 Y20.422 E0.30632
G1 X216.985 Y20.643 E0.31836
G1 X217.858 Y21.398 E0.35675
G1 X218.375 Y21.905 E0.38084
G1 X218.589 Y22.126 E0.39107
G1 X219.333 Y22.987 E0.42891
G1 X219.756 Y23.54 E0.45207
G1 X219.905 Y23.744 E0.46047
G1 X220.499 Y24.656 E0.49667
G1 X220.714 Y25.028 E0.51096
G1 X220.895 Y25.354 E0.52337
G1 X221.044 Y25.635 E0.53394
G1 X221.535 Y26.706 E0.57313
G1 X221.786 Y27.362 E0.59649
G1 X221.885 Y27.639 E0.60628
G1 X222.197 Y28.686 E0.64261
G1 X222.287 Y29.06 E0.65541
G1 X222.367 Y29.422 E0.66774
G1 X222.434 Y29.753 E0.67897
G1 X222.599 Y30.893 E0.71728
G1 X222.633 Y31.284 E0.73034
G1 X222.673 Y31.917 E0.75143
G1 X222.695 Y32.533 E0.77193
G1 X222.7 Y32.836 E0.78201
G1 X222.7 Y201.764 E6.40058
G1 X222.681 Y202.935 E6.43953
G1 X222.671 Y203.168 E6.44729
G1 X222.642 Y203.607 E6.46192
G1 X222.602 Y204.071 E6.47741
G1 X222.439 Y205.21 E6.51568
G1 X222.295 Y205.905 E6.53929
G1 X222.223 Y206.215 E6.54987
G1 X221.893 Y207.336 E6.58874
G1 X221.67 Y207.95 E6.61047
G1 X221.548 Y208.263 E6.62164
G1 X221.078 Y209.295 E6.65936
G1 X220.883 Y209.667 E6.67333
G1 X220.563 Y210.24 E6.69516
G1 X219.984 Y211.142 E6.73081
G1 X219.774 Y211.434 E6.74277
G1 X219.58 Y211.695 E6.75358
G1 X219.364 Y211.976 E6.76537
G1 X218.59 Y212.871 E6.80473
G1 X218.106 Y213.363 E6.82768
G1 X217.889 Y213.574 E6.83775
G1 X217.013 Y214.333 E6.8763
G1 X216.446 Y214.767 E6.90005
G1 X216.222 Y214.93 E6.90926
G1 X215.27 Y215.544 E6.94694
G1 X214.659 Y215.887 E6.97025
G1 X214.377 Y216.037 E6.98087
G1 X213.294 Y216.535 E7.02052
G1 X212.627 Y216.79 E7.04427
G1 X212.349 Y216.889 E7.05408
G1 X211.319 Y217.195 E7.08982
G1 X210.946 Y217.285 E7.10258
G1 X210.578 Y217.367 E7.11512
G1 X210.247 Y217.434 E7.12635
G1 X209.107 Y217.599 E7.16467
G1 X208.417 Y217.654 E7.18769
G1 X207.771 Y217.687 E7.2092
G1 X207.164 Y217.7 E7.2294
G1 X28.207 Y217.7 E13.18153
G1 X28.062 Y217.699 E13.18635
G1 X27.065 Y217.681 E13.21952
G1 X26.832 Y217.671 E13.22728
G1 X26.427 Y217.645 E13.24077
G1 X25.956 Y217.606 E13.25649
G1 X24.725 Y217.428 E13.29786
G1 X24.095 Y217.295 E13.31928
G1 X23.785 Y217.223 E13.32986
G1 X22.664 Y216.893 E13.36873
G1 X22.044 Y216.667 E13.39068
G1 X21.729 Y216.544 E13.40192
G1 X20.687 Y216.069 E13.44001
G1 X20.309 Y215.87 E13.45422
G1 X19.772 Y215.57 E13.47468
G1 X18.858 Y214.984 E13.51079
G1 X18.296 Y214.574 E13.53393
G1 X18.013 Y214.356 E13.54581
G1 X17.128 Y213.588 E13.58478
G1 X16.639 Y213.108 E13.60757
G1 X16.423 Y212.886 E13.61788
G1 X15.648 Y211.991 E13.65725
G1 X15.227 Y211.437 E13.6804
G1 X15.052 Y211.196 E13.6903
G1 X14.422 Y210.215 E13.72908
G1 X14.105 Y209.646 E13.75074
G1 X13.956 Y209.365 E13.76132
G1 X13.465 Y208.294 E13.80051
G1 X13.212 Y207.633 E13.82405
G1 X13.111 Y207.35 E13.83404
G1 X12.799 Y206.3 E13.87048
G1 X12.711 Y205.933 E13.88303
G1 X12.627 Y205.55 E13.89607
G1 X12.56 Y205.214 E13.90746
G1 X12.402 Y204.112 E13.94449
G1 X12.368 Y203.725 E13.95741
G1 X12.326 Y203.069 E13.97928
G1 X12.304 Y202.451 E13.99984
G1 X12.3 Y202.164 E14.00939
G1 X12.3 Y98.084 E17.47111
G1 X12.301 Y97.932 E17.47616
G1 X12.319 Y96.988 E17.50756
G1 X12.329 Y96.747 E17.51559
G1 X12.358 Y96.286 E17.53095
G1 X12.398 Y95.826 E17.54631
G1 X12.56 Y94.699 E17.58418
G1 X12.698 Y94.038 E17.60664
G1 X12.777 Y93.698 E17.61825
G1 X13.097 Y92.602 E17.65622
G1 X13.216 Y92.266 E17.66808
G1 X13.334 Y91.95 E17.6793
G1 X13.459 Y91.631 E17.69069
G1 X13.93 Y90.601 E17.72836
G1 X14.272 Y89.961 E17.7525
G1 X14.413 Y89.711 E17.76204
G1 X15.026 Y88.753 E17.79987
G1 X15.236 Y88.462 E17.81181
G1 X15.432 Y88.199 E17.82272
G1 X15.645 Y87.923 E17.83431
G1 X16.389 Y87.063 E17.87213
G1 X16.685 Y86.757 E17.88629
G1 X17.115 Y86.333 E17.90638
G1 X17.937 Y85.617 E17.94264
G1 X18.248 Y85.374 E17.95576
G1 X18.531 Y85.161 E17.96754
G1 X18.791 Y84.972 E17.97823
G1 X19.775 Y84.339 E18.01715
G1 X20.371 Y84.006 E18.03986
G1 X20.631 Y83.868 E18.04965
G1 X21.705 Y83.376 E18.08894
G1 X22.374 Y83.12 E18.11276
G1 X23.008 Y82.894 E18.13515
G1 X25.438 Y81.988 E18.22141
G1 X27.809 Y81.026 E18.30651
G1 X30.134 Y80.006 E18.39095
G1 X32.43 Y78.921 E18.47542
G1 X34.674 Y77.78 E18.55915
G1 X36.945 Y76.545 E18.64513
G1 X39.12 Y75.281 E18.7288
G1 X41.273 Y73.947 E18.81304
G1 X43.392 Y72.549 E18.89747
G1 X45.477 Y71.087 E18.98217
G1 X47.51 Y69.575 E19.06644
G1 X49.506 Y68 E19.151
G1 X51.471 Y66.357 E19.2362
G1 X53.339 Y64.703 E19.31918
G1 X55.245 Y62.919 E19.40601
G1 X56.999 Y61.178 E19.48821
G1 X58.773 Y59.317 E19.57372
G1 X60.465 Y57.438 E19.65782
G1 X62.128 Y55.485 E19.74314
G1 X63.7 Y53.524 E19.82673
G1 X65.24 Y51.49 E19.91158
G1 X66.713 Y49.428 E19.99587
G1 X68.121 Y47.333 E20.07982
G1 X69.491 Y45.164 E20.16515
G1 X70.791 Y42.97 E20.24997
G1 X72.004 Y40.786 E20.33306
G1 X73.189 Y38.502 E20.41864
G1 X74.288 Y36.228 E20.50265
G1 X75.333 Y33.898 E20.58758
G1 X76.298 Y31.576 E20.67122
G1 X77.524 Y28.331 E20.78659
G1 X77.981 Y27.057 E20.83161
G1 X78.104 Y26.741 E20.84289
G1 X78.575 Y25.705 E20.88074
G1 X78.77 Y25.333 E20.89471
G1 X79.081 Y24.774 E20.91598
G1 X79.679 Y23.843 E20.95279
G1 X80.073 Y23.305 E20.97497
G1 X80.289 Y23.024 E20.98675
G1 X81.063 Y22.129 E21.02611
G1 X81.547 Y21.637 E21.04906
G1 X81.764 Y21.426 E21.05913
G1 X82.638 Y20.668 E21.09761
G1 X83.221 Y20.223 E21.122
G1 X83.44 Y20.064 E21.131
G1 X84.375 Y19.46 E21.16803
G1 X84.727 Y19.259 E21.18151
G1 X85.288 Y18.956 E21.20272
G1 X86.357 Y18.466 E21.24183
G1 X86.749 Y18.313 E21.25582
G1 X87.32 Y18.106 E21.27602
G1 X88.343 Y17.803 E21.31151
G1 X89.04 Y17.641 E21.33531
G1 X89.358 Y17.575 E21.34611
G1 X90.584 Y17.397 E21.38732
G1 X91.239 Y17.346 E21.40917
G1 X91.854 Y17.314 E21.42965
G1 X92.494 Y17.3 E21.45094
G1 X206.793 Y17.3 E25.25254
G1 X206.937 Y17.301 E25.25733
G1 X208.171 Y17.33 E25.29839
G0 F6000 X208.188 Y16.93
G1 F1200 X208.637 Y16.959 E25.31335
G1 X209.103 Y16.999 E25.32891
G1 X210.295 Y17.17 E25.36896
G1 X210.995 Y17.316 E25.39274
G1 X211.305 Y17.388 E25.40333
G1 X212.47 Y17.73 E25.44371
G1 X213.102 Y17.96 E25.46608
G1 X213.417 Y18.083 E25.47733
G1 X214.483 Y18.569 E25.51629
G1 X214.853 Y18.763 E25.53019
G1 X215.4 Y19.066 E25.55099
G1 X216.387 Y19.698 E25.58997
G1 X216.678 Y19.908 E25.6019
G1 X216.942 Y20.105 E25.61286
G1 X217.229 Y20.326 E25.62491
G1 X218.136 Y21.11 E25.66478
G1 X218.421 Y21.386 E25.67798
G1 X218.876 Y21.848 E25.69955
G1 X219.65 Y22.742 E25.73888
G1 X220.079 Y23.304 E25.76239
G1 X220.228 Y23.508 E25.77079
G1 X220.845 Y24.456 E25.80841
G1 X221.06 Y24.828 E25.82271
G1 X221.248 Y25.166 E25.83557
G1 X221.397 Y25.447 E25.84615
G1 X221.907 Y26.561 E25.8869
G1 X222.163 Y27.228 E25.91066
G1 X222.262 Y27.505 E25.92044
G1 X222.586 Y28.592 E25.95817
G1 X222.676 Y28.966 E25.97096
G1 X222.759 Y29.343 E25.9838
G1 X222.826 Y29.674 E25.99504
G1 X222.997 Y30.859 E26.03486
G1 X223.054 Y31.562 E26.05832
G1 X223.085 Y32.185 E26.07906
G1 X223.1 Y32.836 E26.10072
G1 X223.1 Y201.764 E31.71929
G1 X223.089 Y202.642 E31.74849
G1 X223.07 Y203.186 E31.7666
G1 X223.041 Y203.641 E31.78176
G1 X223.001 Y204.105 E31.79725
G1 X222.831 Y205.289 E31.83704
G1 X222.684 Y205.995 E31.86102
G1 X222.612 Y206.305 E31.87161
G1 X222.27 Y207.47 E31.91199
G1 X222.042 Y208.096 E31.93415
G1 X221.92 Y208.409 E31.94532
G1 X221.432 Y209.48 E31.98447
G1 X221.237 Y209.852 E31.99844
G1 X221.057 Y210.182 E32.01094
G1 X220.911 Y210.438 E32.02074
G1 X220.309 Y211.376 E32.05781
G1 X220.099 Y211.668 E32.06977
G1 X219.897 Y211.939 E32.08102
G1 X219.681 Y212.22 E32.0928
G1 X218.876 Y213.15 E32.13371
G1 X218.385 Y213.65 E32.15702
G1 X218.168 Y213.861 E32.16709
G1 X217.258 Y214.65 E32.20715
G1 X216.681 Y215.09 E32.23128
G1 X216.457 Y215.253 E32.2405
G1 X215.468 Y215.892 E32.27966
G1 X215.117 Y216.092 E32.2931
G1 X214.565 Y216.39 E32.31396
G1 X213.439 Y216.907 E32.35517
G1 X212.761 Y217.167 E32.37932
G1 X212.483 Y217.266 E32.38914
G1 X211.413 Y217.584 E32.42626
G1 X211.04 Y217.674 E32.43903
G1 X210.657 Y217.759 E32.45207
G1 X210.326 Y217.826 E32.46331
G1 X209.141 Y217.997 E32.50313
G1 X208.44 Y218.054 E32.52652
G1 X207.782 Y218.087 E32.54843
G1 X207.164 Y218.1 E32.56899
G1 X28.207 Y218.1 E38.52113
G1 X28.057 Y218.099 E38.52612
G1 X27.047 Y218.08 E38.55971
G1 X26.814 Y218.07 E38.56747
G1 X26.394 Y218.044 E38.58147
G1 X25.923 Y218.005 E38.59719
G1 X24.643 Y217.82 E38.6402
G1 X24.005 Y217.684 E38.6619
G1 X23.695 Y217.612 E38.67248
G1 X22.53 Y217.27 E38.71287
G1 X21.898 Y217.04 E38.73524
G1 X21.583 Y216.917 E38.74648
G1 X20.501 Y216.423 E38.78604
G1 X20.123 Y216.224 E38.80025
G1 X19.574 Y215.918 E38.82116
G1 X18.624 Y215.309 E38.85869
G1 X18.332 Y215.099 E38.87065
G1 X18.052 Y214.89 E38.88227
G1 X17.769 Y214.672 E38.89415
G1 X16.849 Y213.875 E38.93464
G1 X16.353 Y213.387 E38.95778
G1 X16.137 Y213.165 E38.96808
G1 X15.331 Y212.235 E39.00902
G1 X14.904 Y211.672 E39.03252
G1 X14.729 Y211.431 E39.04242
G1 X14.074 Y210.412 E39.08271
G1 X13.752 Y209.834 E39.10472
G1 X13.603 Y209.553 E39.1153
G1 X13.093 Y208.439 E39.15605
G1 X12.836 Y207.768 E39.17995
G1 X12.735 Y207.485 E39.18994
G1 X12.41 Y206.394 E39.2278
G1 X12.322 Y206.027 E39.24036
G1 X12.235 Y205.628 E39.25394
G1 X12.168 Y205.292 E39.26533
G1 X12.004 Y204.147 E39.30381
G1 X11.946 Y203.44 E39.3274
G1 X11.913 Y202.782 E39.34931
G1 X11.9 Y202.164 E39.36987
G1 X11.9 Y98.084 E42.83159
G1 X11.901 Y97.927 E42.83681
G1 X11.919 Y96.972 E42.86858
G1 X11.929 Y96.731 E42.8766
G1 X11.96 Y96.252 E42.89257
G1 X12 Y95.792 E42.90792
G1 X12.168 Y94.62 E42.9473
G1 X12.308 Y93.948 E42.97013
G1 X12.387 Y93.608 E42.98174
G1 X12.72 Y92.468 E43.02124
G1 X12.839 Y92.132 E43.0331
G1 X12.962 Y91.804 E43.04475
G1 X13.087 Y91.485 E43.05615
G1 X13.576 Y90.415 E43.09527
G1 X13.923 Y89.765 E43.11978
G1 X14.064 Y89.515 E43.12933
G1 X14.701 Y88.519 E43.16865
G1 X14.911 Y88.228 E43.18059
G1 X15.115 Y87.955 E43.19192
G1 X15.328 Y87.679 E43.20352
G1 X16.101 Y86.785 E43.24282
G1 X16.397 Y86.479 E43.25699
G1 X16.836 Y86.046 E43.27749
G1 X17.691 Y85.301 E43.31521
G1 X18.002 Y85.058 E43.32834
G1 X18.295 Y84.837 E43.34055
G1 X18.555 Y84.648 E43.35124
G1 X19.578 Y83.991 E43.39167
G1 X20.183 Y83.653 E43.41472
G1 X20.443 Y83.515 E43.42451
G1 X21.56 Y83.003 E43.46538
G1 X22.239 Y82.743 E43.48957
G1 X22.882 Y82.514 E43.51227
G1 X25.296 Y81.614 E43.59796
G1 X27.647 Y80.66 E43.68234
G1 X29.968 Y79.642 E43.76664
G1 X32.257 Y78.56 E43.85085
G1 X34.509 Y77.416 E43.93486
G1 X36.716 Y76.215 E44.01843
G1 X38.929 Y74.928 E44.10358
G1 X41.063 Y73.606 E44.18707
G1 X43.171 Y72.216 E44.27105
G1 X45.231 Y70.772 E44.35473
G1 X47.269 Y69.256 E44.43921
G1 X49.268 Y67.678 E44.52391
G1 X51.192 Y66.069 E44.60733
G1 X53.084 Y64.395 E44.69136
G1 X54.956 Y62.642 E44.77666
G1 X56.728 Y60.883 E44.8597
G1 X58.468 Y59.058 E44.94357
G1 X60.167 Y57.171 E45.02802
G1 X61.811 Y55.24 E45.11237
G1 X63.398 Y53.26 E45.19677
G1 X64.898 Y51.279 E45.27941
G1 X66.399 Y49.177 E45.36532
G1 X67.794 Y47.103 E45.44846
G1 X69.142 Y44.968 E45.53244
G1 X70.44 Y42.778 E45.61711
G1 X71.656 Y40.587 E45.70045
G1 X72.831 Y38.323 E45.78529
G1 X73.921 Y36.069 E45.86856
G1 X74.97 Y33.729 E45.95386
G1 X75.917 Y31.451 E46.03591
G1 X77.157 Y28.17 E46.15257
G1 X77.608 Y26.912 E46.19702
G1 X77.731 Y26.596 E46.2083
G1 X78.221 Y25.52 E46.24762
G1 X78.416 Y25.148 E46.26159
G1 X78.587 Y24.833 E46.27351
G1 X78.733 Y24.576 E46.28334
G1 X79.354 Y23.609 E46.32157
G1 X79.564 Y23.318 E46.3335
G1 X79.972 Y22.78 E46.35596
G1 X80.777 Y21.85 E46.39687
G1 X81.268 Y21.35 E46.42018
G1 X81.485 Y21.139 E46.43024
G1 X82.393 Y20.352 E46.47021
G1 X82.986 Y19.899 E46.49503
G1 X83.205 Y19.74 E46.50403
G1 X84.177 Y19.113 E46.5425
G1 X84.819 Y18.752 E46.567
G1 X85.1 Y18.603 E46.57758
G1 X86.212 Y18.093 E46.61827
G1 X86.604 Y17.94 E46.63226
G1 X87.187 Y17.728 E46.6529
G1 X88.249 Y17.414 E46.68973
G1 X88.641 Y17.32 E46.70314
G1 X89.277 Y17.183 E46.72478
G1 X90.551 Y16.999 E46.76759
G1 X91.216 Y16.947 E46.78977
G1 X91.843 Y16.915 E46.81066
G1 X92.494 Y16.9 E46.83231
G1 X206.793 Y16.9 E50.63391
G1 X206.943 Y16.901 E50.6389
G1 X208.188 Y16.93 E50.68032
G0 F6000 X208.206 Y16.53
G1 F1200 X208.671 Y16.56 E50.69582
G1 X209.137 Y16.6 E50.71138
G1 X210.374 Y16.778 E50.75294
G1 X211.086 Y16.926 E50.77713
G1 X211.396 Y16.998 E50.78772
G1 X212.605 Y17.353 E50.82963
G1 X213.247 Y17.587 E50.85235
G1 X213.562 Y17.71 E50.8636
G1 X214.669 Y18.215 E50.90407
G1 X215.039 Y18.409 E50.91796
G1 X215.597 Y18.718 E50.93918
G1 X216.621 Y19.374 E50.97963
G1 X216.912 Y19.584 E50.99156
G1 X217.186 Y19.789 E51.00294
G1 X217.473 Y20.01 E51.01499
G1 X218.414 Y20.823 E51.05635
G1 X218.699 Y21.099 E51.06955
G1 X219.163 Y21.57 E51.09154
G1 X219.966 Y22.498 E51.13236
G1 X220.402 Y23.068 E51.15622
G1 X220.551 Y23.272 E51.16463
G1 X221.192 Y24.256 E51.20369
G1 X221.407 Y24.628 E51.21798
G1 X221.601 Y24.979 E51.23132
G1 X221.75 Y25.26 E51.24189
G1 X222.28 Y26.416 E51.28419
G1 X222.539 Y27.093 E51.3083
G1 X222.638 Y27.37 E51.31808
G1 X222.975 Y28.498 E51.35724
G1 X223.065 Y28.872 E51.37003
G1 X223.151 Y29.264 E51.38338
G1 X223.218 Y29.595 E51.39461
G1 X223.396 Y30.824 E51.43592
G1 X223.43 Y31.215 E51.44897
G1 X223.472 Y31.872 E51.47087
G1 X223.495 Y32.509 E51.49207
G1 X223.5 Y32.836 E51.50295
G1 X223.5 Y201.764 E57.12151
G1 X223.499 Y201.914 E57.1265
G1 X223.48 Y202.97 E57.16163
G1 X223.47 Y203.203 E57.16939
G1 X223.439 Y203.676 E57.18515
G1 X223.399 Y204.14 E57.20064
G1 X223.223 Y205.368 E57.2419
G1 X223.074 Y206.086 E57.26629
G1 X223.002 Y206.396 E57.27688
G1 X222.647 Y207.605 E57.31879
G1 X222.415 Y208.241 E57.34131
G1 X222.293 Y208.554 E57.35248
G1 X221.787 Y209.666 E57.39311
G1 X221.592 Y210.038 E57.40708
G1 X221.258 Y210.636 E57.42986
G1 X220.633 Y211.61 E57.46836
G1 X220.423 Y211.902 E57.48032
G1 X220.214 Y212.183 E57.49197
G1 X219.998 Y212.464 E57.50375
G1 X219.163 Y213.429 E57.5462
G1 X218.881 Y213.719 E57.55965
G1 X218.446 Y214.147 E57.57995
G1 X217.502 Y214.966 E57.62152
G1 X216.916 Y215.413 E57.64603
G1 X216.692 Y215.576 E57.65524
G1 X215.666 Y216.239 E57.69587
G1 X215.035 Y216.594 E57.71995
G1 X214.753 Y216.744 E57.73058
G1 X213.584 Y217.28 E57.77335
G1 X212.895 Y217.544 E57.79789
G1 X212.617 Y217.643 E57.80771
G1 X211.507 Y217.973 E57.84622
G1 X211.134 Y218.063 E57.85898
G1 X210.736 Y218.151 E57.87254
G1 X210.405 Y218.218 E57.88377
G1 X209.176 Y218.396 E57.92508
G1 X208.463 Y218.453 E57.94887
G1 X207.793 Y218.487 E57.97118
G1 X207.164 Y218.5 E57.99211
G1 X28.207 Y218.5 E63.94424
G1 X28.051 Y218.499 E63.94943
G1 X27.03 Y218.48 E63.98339
G1 X26.797 Y218.47 E63.99115
G1 X26.361 Y218.442 E64.00568
G1 X25.89 Y218.403 E64.0214
G1 X24.562 Y218.211 E64.06603
G1 X23.914 Y218.074 E64.08806
G1 X23.604 Y218.002 E64.09864
G1 X22.395 Y217.647 E64.14055
G1 X21.753 Y217.413 E64.16328
G1 X21.438 Y217.29 E64.17453
G1 X20.315 Y216.777 E64.21559
G1 X19.937 Y216.578 E64.2298
G1 X19.376 Y216.266 E64.25115
G1 X18.39 Y215.633 E64.29012
G1 X18.098 Y215.423 E64.30208
G1 X17.808 Y215.207 E64.31411
G1 X17.525 Y214.989 E64.32599
G1 X16.57 Y214.162 E64.36801
G1 X16.066 Y213.666 E64.39153
