;FLAVOR:Marlin
;TIME:15360
;Filament used: 13.0701m
;Layer height: 0.2
;MINX:36.501
;MINY:81.5
;MINZ:0.2
;MAXX:198.499
;MAXY:153.5
;MAXZ:40.4
;Generated with Cura_SteamEngine 4.6.1
M140 S60
M105
M190 S60
M104 S200
M105
M109 S200
M82 ;absolute extrusion mode
; Ender 3 Custom Start G-code
G92 E0 ; Reset Extruder
G28 ; Home all axes
G1 Z2.0 F3000 ; Move Z Axis up little to prevent scratching of Heat Bed
G1 X0.1 Y20 Z0.3 F5000.0 ; Move to start position
G1 X0.1 Y200.0 Z0.3 F1500.0 E15 ; Draw the first line
G1 X0.4 Y200.0 Z0.3 F5000.0 ; Move to side a little
G1 X0.4 Y20 Z0.3 F1500.0 E30 ; Draw the second line
G92 E0 ; Reset Extruder
G1 Z2.0 F3000 ; Move Z Axis up little to prevent scratching of Heat Bed
G1 X5 Y20 Z0.3 F5000.0 ; Move over to prevent blob squish
G92 E0
G92 E0
G1 F1500 E-6.5
;LAYER_COUNT:202
;LAYER:0
M107
G0 F6000 X182.781 Y82.313 Z0.2
;TYPE:SKIRT
G1 F1500 E0
G1 F1200 X183.282 Y82.332 E0.01668
G1 X183.66 Y82.356 E0.02927
G1 X184.576 Y82.456 E0.05992
G1 X185.105 Y82.538 E0.07772
G1 X186.195 Y82.769 E0.11478
G1 X186.674 Y82.898 E0.13128
G1 X187.648 Y83.213 E0.16533
G1 X188.145 Y83.402 E0.18302
G1 X189.171 Y83.859 E0.22037
G1 X189.651 Y84.105 E0.23831
G1 X190.526 Y84.609 E0.2719
G1 X190.951 Y84.883 E0.28872
G1 X191.834 Y85.522 E0.32497
G1 X192.24 Y85.85 E0.34233
G1 X193.023 Y86.552 E0.3773
G1 X193.395 Y86.922 E0.39476
G1 X194.125 Y87.73 E0.43097
G1 X194.455 Y88.137 E0.4484
G1 X195.082 Y88.999 E0.48385
G1 X195.376 Y89.451 E0.50179
G1 X195.92 Y90.394 E0.538
G1 X196.145 Y90.837 E0.55452
G1 X196.562 Y91.77 E0.58851
G1 X196.755 Y92.268 E0.60628
G1 X197.093 Y93.302 E0.64246
G1 X197.229 Y93.807 E0.65985
G1 X197.451 Y94.842 E0.69506
G1 X197.534 Y95.359 E0.71248
G1 X197.653 Y96.516 E0.75116
G1 X197.689 Y97.313 E0.7777
G1 X197.699 Y97.773 E0.793
G1 X197.699 Y136.938 E2.09563
G1 X197.687 Y137.776 E2.12351
G1 X197.668 Y138.27 E2.13995
G1 X197.644 Y138.652 E2.15268
G1 X197.542 Y139.586 E2.18393
G1 X197.46 Y140.111 E2.2016
G1 X197.239 Y141.159 E2.23723
G1 X197.11 Y141.644 E2.25392
G1 X196.788 Y142.644 E2.28886
G1 X196.6 Y143.139 E2.30647
G1 X196.146 Y144.161 E2.34367
G1 X195.9 Y144.642 E2.36164
G1 X195.392 Y145.525 E2.39552
G1 X195.127 Y145.936 E2.41178
G1 X194.51 Y146.793 E2.44691
G1 X194.177 Y147.208 E2.4646
G1 X193.472 Y147.998 E2.49982
G1 X193.101 Y148.373 E2.51736
G1 X192.276 Y149.121 E2.5544
G1 X191.863 Y149.456 E2.57209
G1 X190.981 Y150.096 E2.60834
G1 X190.53 Y150.388 E2.62621
G1 X189.613 Y150.916 E2.6614
G1 X189.171 Y151.141 E2.6779
G1 X188.233 Y151.561 E2.71208
G1 X187.738 Y151.753 E2.72974
G1 X186.7 Y152.092 E2.76606
G1 X186.191 Y152.229 E2.78359
G1 X185.143 Y152.453 E2.81923
G1 X184.615 Y152.537 E2.83701
G1 X183.488 Y152.653 E2.8747
G1 X182.825 Y152.684 E2.89677
G1 X182.453 Y152.694 E2.90915
G1 X181.958 Y152.699 E2.92561
G1 X179.028 Y152.7 E3.02307
G1 X58.464 Y152.7 E7.03304
G1 X58.263 Y152.698 E7.03973
G1 X56.689 Y152.667 E7.09209
G1 X56.196 Y152.645 E7.1085
G1 X55.844 Y152.621 E7.12024
G1 X55.217 Y152.559 E7.14119
G1 X54.62 Y152.481 E7.16122
G1 X54.222 Y152.421 E7.1746
G1 X53.953 Y152.375 E7.18368
G1 X53.548 Y152.297 E7.1974
G1 X53.022 Y152.185 E7.21529
G1 X52.605 Y152.087 E7.22953
G1 X52.329 Y152.016 E7.23901
G1 X51.949 Y151.911 E7.25212
G1 X51.514 Y151.781 E7.26722
G1 X51.152 Y151.665 E7.27987
G1 X50.849 Y151.562 E7.29051
G1 X50.472 Y151.426 E7.30384
G1 X50.009 Y151.248 E7.32034
G1 X49.638 Y151.097 E7.33366
G1 X49.38 Y150.986 E7.343
G1 X48.984 Y150.805 E7.35749
G1 X48.546 Y150.594 E7.37366
G1 X48.24 Y150.44 E7.38505
G1 X47.967 Y150.297 E7.3953
G1 X47.571 Y150.079 E7.41033
G1 X47.143 Y149.83 E7.4268
G1 X46.628 Y149.513 E7.44692
G1 X46.273 Y149.279 E7.46106
G1 X45.852 Y148.989 E7.47806
G1 X45.54 Y148.765 E7.49084
G1 X45.3 Y148.586 E7.5008
G1 X44.962 Y148.323 E7.51504
G1 X44.571 Y148.005 E7.5318
G1 X44.091 Y147.593 E7.55284
G1 X43.805 Y147.333 E7.5657
G1 X43.39 Y146.94 E7.58471
G1 X43.003 Y146.553 E7.60291
G1 X42.659 Y146.186 E7.61964
G1 X42.315 Y145.804 E7.63674
G1 X41.926 Y145.35 E7.65662
G1 X41.628 Y144.977 E7.6725
G1 X41.313 Y144.564 E7.68978
G1 X41.094 Y144.267 E7.70205
G1 X40.913 Y144.011 E7.71248
G1 X40.68 Y143.665 E7.72635
G1 X40.423 Y143.268 E7.74208
G1 X40.219 Y142.941 E7.7549
G1 X40.075 Y142.699 E7.76427
G1 X39.881 Y142.357 E7.77735
G1 X39.64 Y141.914 E7.79412
G1 X39.434 Y141.514 E7.80908
G1 X39.311 Y141.262 E7.81841
G1 X39.151 Y140.919 E7.831
G1 X38.832 Y140.188 E7.85753
G1 X38.728 Y139.934 E7.86666
G1 X38.543 Y139.447 E7.88398
G1 X38.286 Y138.701 E7.91023
G1 X38.22 Y138.493 E7.91748
G1 X38.093 Y138.061 E7.93246
G1 X37.933 Y137.467 E7.95292
G1 X37.833 Y137.061 E7.96683
G1 X37.77 Y136.782 E7.97634
G1 X37.685 Y136.367 E7.99043
G1 X37.599 Y135.896 E8.00636
G1 X37.537 Y135.516 E8.01916
G1 X37.496 Y135.231 E8.02874
G1 X37.446 Y134.824 E8.04238
G1 X37.395 Y134.329 E8.05893
G1 X37.344 Y133.518 E8.08595
G1 X37.301 Y131.545 E8.15159
G1 X37.301 Y128.32 E8.25886
G1 X37.31 Y127.687 E8.27991
G1 X37.363 Y126.785 E8.30996
G1 X37.44 Y126.202 E8.32952
G1 X37.497 Y125.85 E8.34138
G1 X37.681 Y124.965 E8.37145
G1 X37.942 Y124.101 E8.40147
G1 X38.279 Y123.263 E8.43151
G1 X38.606 Y122.606 E8.45592
G1 X38.767 Y122.31 E8.46713
G1 X39.233 Y121.537 E8.49715
G1 X39.766 Y120.808 E8.52718
G1 X40.361 Y120.128 E8.55723
G1 X41.054 Y119.469 E8.58904
G1 X41.328 Y119.232 E8.60109
G1 X42.037 Y118.672 E8.63114
G1 X42.792 Y118.177 E8.66117
G1 X43.588 Y117.751 E8.6912
G1 X44.419 Y117.397 E8.72124
G1 X45.052 Y117.183 E8.74346
G1 X49.339 Y115.888 E8.89241
G1 X51.732 Y115.09 E8.97631
G1 X54.125 Y114.217 E9.06104
G1 X56.519 Y113.266 E9.14671
G1 X58.83 Y112.271 E9.2304
G1 X61.12 Y111.207 E9.31438
G1 X63.393 Y110.072 E9.39889
G1 X65.661 Y108.858 E9.48445
G1 X67.84 Y107.612 E9.56793
G1 X70.012 Y106.286 E9.65257
G1 X72.157 Y104.893 E9.73764
G1 X74.226 Y103.463 E9.82129
G1 X76.304 Y101.94 E9.90698
G1 X78.264 Y100.415 E9.98958
G1 X80.242 Y98.785 E10.07483
G1 X82.947 Y96.396 E10.19486
G1 X83.671 Y95.732 E10.22753
G1 X84.312 Y95.192 E10.25541
G1 X84.504 Y95.043 E10.26349
G1 X85.383 Y94.432 E10.2991
G1 X85.804 Y94.171 E10.31557
G1 X86.591 Y93.729 E10.3456
G1 X87.143 Y93.472 E10.36585
G1 X87.482 Y93.326 E10.37812
G1 X88.715 Y92.886 E10.42167
G1 X89.121 Y92.77 E10.43571
G1 X89.999 Y92.561 E10.46573
G1 X90.511 Y92.476 E10.48299
G1 X90.883 Y92.424 E10.49548
G1 X92.051 Y92.329 E10.53446
G1 X93.382 Y92.3 E10.57874
G1 X111.932 Y92.3 E11.19572
G1 X114.538 Y92.263 E11.2824
G1 X117.103 Y92.154 E11.36779
G1 X119.61 Y91.976 E11.45138
G1 X122.151 Y91.725 E11.53631
G1 X124.659 Y91.404 E11.62041
G1 X127.164 Y91.01 E11.70475
G1 X129.651 Y90.548 E11.78888
G1 X132.172 Y90.005 E11.87465
G1 X134.597 Y89.41 E11.9577
G1 X137.063 Y88.733 E12.04275
G1 X139.49 Y87.99 E12.12717
G1 X141.892 Y87.179 E12.2115
G1 X144.305 Y86.289 E12.29704
G1 X146.659 Y85.344 E12.3814
G1 X148.738 Y84.444 E12.45675
G1 X149.73 Y84.003 E12.49286
G1 X150.497 Y83.685 E12.52048
G1 X150.701 Y83.606 E12.52775
G1 X151.141 Y83.447 E12.54331
G1 X151.639 Y83.28 E12.56078
G1 X152.139 Y83.125 E12.5782
G1 X152.56 Y83.008 E12.59273
G1 X153.336 Y82.814 E12.61933
G1 X153.589 Y82.757 E12.62796
G1 X154.096 Y82.657 E12.64515
G1 X155.063 Y82.498 E12.67774
G1 X155.557 Y82.438 E12.69429
G1 X156.07 Y82.388 E12.71144
G1 X156.466 Y82.357 E12.72465
G1 X156.775 Y82.339 E12.73494
G1 X157.206 Y82.323 E12.74929
G1 X158.755 Y82.3 E12.80081
G1 X181.938 Y82.301 E13.57188
G1 X182.781 Y82.313 E13.59992
G0 F6000 X182.787 Y81.913
G1 F1200 X183.308 Y81.933 E13.61726
G1 X183.686 Y81.957 E13.62986
G1 X184.638 Y82.061 E13.66171
G1 X185.167 Y82.143 E13.67952
G1 X186.299 Y82.383 E13.71801
G1 X186.778 Y82.512 E13.73451
G1 X187.79 Y82.839 E13.76988
G1 X188.287 Y83.028 E13.78756
G1 X189.354 Y83.503 E13.82641
G1 X189.834 Y83.749 E13.84435
G1 X190.743 Y84.273 E13.87925
G1 X191.168 Y84.547 E13.89606
G1 X192.085 Y85.211 E13.93372
G1 X192.491 Y85.539 E13.95108
G1 X193.305 Y86.268 E13.98742
G1 X193.677 Y86.638 E14.00487
G1 X194.436 Y87.478 E14.04253
G1 X194.766 Y87.885 E14.05996
G1 X195.418 Y88.781 E14.09681
G1 X195.712 Y89.233 E14.11475
G1 X196.277 Y90.213 E14.15237
G1 X196.502 Y90.656 E14.1689
G1 X196.935 Y91.626 E14.20423
G1 X197.128 Y92.124 E14.22199
G1 X197.479 Y93.198 E14.25957
G1 X197.615 Y93.703 E14.27697
G1 X197.846 Y94.779 E14.31357
G1 X197.929 Y95.296 E14.33099
G1 X198.052 Y96.498 E14.37117
G1 X198.088 Y97.295 E14.39771
G1 X198.099 Y97.773 E14.41361
G1 X198.099 Y136.944 E15.71644
G1 X198.087 Y137.782 E15.74432
G1 X198.067 Y138.295 E15.76139
G1 X198.043 Y138.677 E15.77412
G1 X197.937 Y139.648 E15.80661
G1 X197.855 Y140.173 E15.82428
G1 X197.626 Y141.262 E15.8613
G1 X197.497 Y141.747 E15.87799
G1 X197.162 Y142.786 E15.9143
G1 X196.974 Y143.281 E15.93191
G1 X196.502 Y144.344 E15.97059
G1 X196.256 Y144.825 E15.98856
G1 X195.728 Y145.742 E16.02376
G1 X195.463 Y146.153 E16.04002
G1 X194.821 Y147.043 E16.07652
G1 X194.488 Y147.458 E16.09422
G1 X193.756 Y148.279 E16.1308
G1 X193.385 Y148.654 E16.14835
G1 X192.528 Y149.431 E16.18682
G1 X192.115 Y149.766 E16.20451
G1 X191.198 Y150.432 E16.24221
G1 X190.747 Y150.724 E16.26007
G1 X189.795 Y151.272 E16.29661
G1 X189.353 Y151.497 E16.31311
G1 X188.377 Y151.934 E16.34867
G1 X187.882 Y152.126 E16.36633
G1 X186.804 Y152.479 E16.40406
G1 X186.295 Y152.616 E16.42159
G1 X185.205 Y152.848 E16.45866
G1 X184.677 Y152.932 E16.47644
G1 X183.507 Y153.052 E16.51556
G1 X182.844 Y153.083 E16.53763
G1 X182.457 Y153.094 E16.55051
G1 X181.959 Y153.099 E16.56707
G1 X179.029 Y153.1 E16.66453
G1 X58.464 Y153.1 E20.67454
G1 X58.255 Y153.098 E20.68149
G1 X56.681 Y153.067 E20.73385
G1 X56.169 Y153.044 E20.75089
G1 X55.817 Y153.02 E20.76263
G1 X55.165 Y152.956 E20.78442
G1 X54.568 Y152.878 E20.80444
G1 X54.154 Y152.815 E20.81837
G1 X53.885 Y152.769 E20.82745
G1 X53.464 Y152.689 E20.8417
G1 X52.938 Y152.577 E20.85959
G1 X52.505 Y152.475 E20.87439
G1 X52.229 Y152.404 E20.88386
G1 X51.835 Y152.294 E20.89747
G1 X51.4 Y152.164 E20.91257
G1 X51.023 Y152.044 E20.92573
G1 X50.72 Y151.941 E20.93637
G1 X50.328 Y151.799 E20.95024
G1 X49.865 Y151.621 E20.96674
G1 X49.48 Y151.464 E20.98057
G1 X49.222 Y151.353 E20.98991
G1 X48.811 Y151.166 E21.00493
G1 X48.373 Y150.955 E21.0211
G1 X48.055 Y150.795 E21.03294
G1 X47.782 Y150.652 E21.04319
G1 X47.37 Y150.424 E21.05885
G1 X46.942 Y150.175 E21.07532
G1 X46.415 Y149.851 E21.09589
G1 X46.046 Y149.608 E21.11059
G1 X45.625 Y149.318 E21.12759
G1 X45.301 Y149.086 E21.14085
G1 X45.061 Y148.907 E21.15081
G1 X44.71 Y148.634 E21.16559
G1 X44.319 Y148.316 E21.18236
G1 X43.827 Y147.894 E21.20392
G1 X43.53 Y147.624 E21.21727
G1 X43.115 Y147.231 E21.23628
G1 X42.712 Y146.828 E21.25523
G1 X42.362 Y146.453 E21.27229
G1 X42.018 Y146.071 E21.28939
G1 X41.62 Y145.607 E21.30972
G1 X41.31 Y145.219 E21.32624
G1 X40.995 Y144.806 E21.34352
G1 X40.768 Y144.497 E21.35627
G1 X40.587 Y144.241 E21.3667
G1 X40.344 Y143.882 E21.38112
G1 X40.087 Y143.485 E21.39685
G1 X39.876 Y143.145 E21.41015
G1 X39.732 Y142.903 E21.41952
G1 X39.53 Y142.549 E21.43308
G1 X39.289 Y142.106 E21.44985
G1 X39.074 Y141.69 E21.46543
G1 X38.951 Y141.438 E21.47475
G1 X38.785 Y141.081 E21.48785
G1 X38.461 Y140.34 E21.51475
G1 X38.357 Y140.086 E21.52387
G1 X38.165 Y139.58 E21.54187
G1 X37.904 Y138.822 E21.56854
G1 X37.838 Y138.614 E21.5758
G1 X37.707 Y138.165 E21.59135
G1 X37.547 Y137.571 E21.61181
G1 X37.442 Y137.149 E21.62628
G1 X37.379 Y136.87 E21.63579
G1 X37.291 Y136.439 E21.65042
G1 X37.205 Y135.968 E21.66635
G1 X37.141 Y135.573 E21.67966
G1 X37.1 Y135.288 E21.68923
G1 X37.048 Y134.865 E21.70341
G1 X36.997 Y134.37 E21.71996
G1 X36.944 Y133.527 E21.74805
G1 X36.901 Y131.545 E21.81399
G1 X36.901 Y128.314 E21.92145
G1 X36.91 Y127.681 E21.94251
G1 X36.963 Y126.762 E21.97312
G1 X37.045 Y126.138 E21.99406
G1 X37.102 Y125.786 E22.00592
G1 X37.289 Y124.884 E22.03656
G1 X37.553 Y124.002 E22.06718
G1 X37.892 Y123.146 E22.0978
G1 X38.254 Y122.415 E22.12493
G1 X38.415 Y122.119 E22.13614
G1 X38.89 Y121.33 E22.16677
G1 X39.431 Y120.586 E22.19736
G1 X40.035 Y119.891 E22.22799
G1 X40.793 Y119.167 E22.26285
G1 X41.067 Y118.93 E22.2749
G1 X41.788 Y118.358 E22.30551
G1 X42.557 Y117.852 E22.33613
G1 X43.367 Y117.414 E22.36676
G1 X44.211 Y117.048 E22.39736
G1 X44.936 Y116.8 E22.42284
G1 X49.212 Y115.508 E22.57141
G1 X51.605 Y114.71 E22.65531
G1 X54.019 Y113.83 E22.74077
G1 X56.319 Y112.916 E22.82309
G1 X58.669 Y111.905 E22.90818
G1 X60.951 Y110.844 E22.99188
G1 X63.247 Y109.698 E23.07723
G1 X65.427 Y108.531 E23.15947
G1 X67.665 Y107.251 E23.24522
G1 X69.792 Y105.953 E23.3281
G1 X71.934 Y104.561 E23.41306
G1 X73.991 Y103.139 E23.49623
G1 X76.044 Y101.634 E23.5809
G1 X78.049 Y100.075 E23.66537
G1 X79.959 Y98.501 E23.74769
G1 X82.694 Y96.085 E23.86907
G1 X83.401 Y95.437 E23.90097
G1 X84.066 Y94.876 E23.9299
G1 X84.258 Y94.727 E23.93799
G1 X85.172 Y94.092 E23.975
G1 X85.593 Y93.831 E23.99148
G1 X86.396 Y93.38 E24.02211
G1 X86.985 Y93.105 E24.04373
G1 X87.324 Y92.959 E24.05601
G1 X88.605 Y92.502 E24.10124
G1 X89.011 Y92.386 E24.11529
G1 X89.906 Y92.172 E24.14589
G1 X90.456 Y92.08 E24.16444
G1 X90.828 Y92.028 E24.17693
G1 X92.042 Y91.929 E24.21745
G1 X93.382 Y91.9 E24.26202
G1 X111.926 Y91.9 E24.8788
G1 X114.551 Y91.863 E24.96612
G1 X117.059 Y91.756 E25.04961
G1 X119.579 Y91.578 E25.13363
G1 X122.094 Y91.329 E25.21769
G1 X124.583 Y91.01 E25.30115
G1 X127.135 Y90.609 E25.38707
G1 X129.566 Y90.157 E25.46932
G1 X132.065 Y89.619 E25.55434
G1 X134.501 Y89.022 E25.63776
G1 X136.967 Y88.344 E25.72282
G1 X139.36 Y87.611 E25.80606
G1 X141.774 Y86.797 E25.89079
G1 X144.124 Y85.93 E25.9741
G1 X146.532 Y84.963 E26.06041
G1 X148.539 Y84.094 E26.13315
G1 X149.575 Y83.634 E26.17085
G1 X150.352 Y83.312 E26.19883
G1 X150.556 Y83.233 E26.2061
G1 X151.014 Y83.068 E26.2223
G1 X151.831 Y82.799 E26.2509
G1 X152.024 Y82.741 E26.25761
G1 X152.461 Y82.62 E26.27269
G1 X153.248 Y82.424 E26.29966
G1 X153.501 Y82.367 E26.30829
G1 X154.028 Y82.262 E26.32616
G1 X155.005 Y82.103 E26.35909
G1 X155.518 Y82.04 E26.37628
G1 X156.031 Y81.99 E26.39342
G1 X156.443 Y81.958 E26.40716
G1 X156.752 Y81.94 E26.41746
G1 X157.2 Y81.923 E26.43237
G1 X158.755 Y81.9 E26.4841
G1 X181.944 Y81.901 E27.25536
G1 X182.787 Y81.913 E27.28341
G0 F6000 X182.793 Y81.513
G1 F1200 X183.333 Y81.534 E27.30138
G1 X183.711 Y81.558 E27.31398
G1 X184.699 Y81.666 E27.34703
G1 X185.228 Y81.748 E27.36484
G1 X186.404 Y81.996 E27.40481
G1 X186.883 Y82.125 E27.42131
G1 X187.932 Y82.465 E27.45799
G1 X188.429 Y82.654 E27.47567
G1 X189.536 Y83.147 E27.51598
G1 X190.016 Y83.393 E27.53392
G1 X190.959 Y83.937 E27.57013
G1 X191.384 Y84.211 E27.58695
G1 X192.337 Y84.899 E27.62604
G1 X192.743 Y85.227 E27.6434
G1 X193.587 Y85.985 E27.68113
G1 X193.959 Y86.355 E27.69858
G1 X194.746 Y87.226 E27.73763
G1 X195.076 Y87.633 E27.75505
G1 X195.753 Y88.563 E27.79331
G1 X196.047 Y89.015 E27.81125
G1 X196.634 Y90.032 E27.8503
G1 X196.859 Y90.475 E27.86683
G1 X197.308 Y91.481 E27.90347
G1 X197.501 Y91.979 E27.92123
G1 X197.866 Y93.094 E27.96025
G1 X198.002 Y93.599 E27.97765
G1 X198.241 Y94.715 E28.01561
G1 X198.324 Y95.232 E28.03302
G1 X198.452 Y96.48 E28.07475
G1 X198.488 Y97.277 E28.10129
G1 X198.499 Y97.773 E28.11779
G1 X198.499 Y136.95 E29.42082
G1 X198.487 Y137.788 E29.44869
G1 X198.466 Y138.32 E29.4664
G1 X198.442 Y138.702 E29.47913
G1 X198.332 Y139.71 E29.51286
G1 X198.25 Y140.235 E29.53053
G1 X198.012 Y141.364 E29.56891
G1 X197.883 Y141.849 E29.5856
G1 X197.536 Y142.928 E29.6233
G1 X197.348 Y143.423 E29.64091
G1 X196.858 Y144.526 E29.68105
G1 X196.612 Y145.007 E29.69902
G1 X196.064 Y145.959 E29.73556
G1 X195.799 Y146.37 E29.75182
G1 X195.133 Y147.293 E29.78968
G1 X194.8 Y147.708 E29.80737
G1 X194.041 Y148.56 E29.84533
G1 X193.67 Y148.935 E29.86287
G1 X192.78 Y149.742 E29.90283
G1 X192.367 Y150.077 E29.92052
G1 X191.415 Y150.768 E29.95964
G1 X190.964 Y151.06 E29.97751
G1 X189.976 Y151.629 E30.01543
G1 X189.534 Y151.854 E30.03193
G1 X188.522 Y152.307 E30.06881
G1 X188.027 Y152.499 E30.08647
G1 X186.908 Y152.865 E30.12562
G1 X186.399 Y153.002 E30.14316
G1 X185.268 Y153.243 E30.18162
G1 X184.74 Y153.327 E30.1994
G1 X183.526 Y153.452 E30.23999
G1 X182.863 Y153.483 E30.26207
G1 X182.461 Y153.494 E30.27544
G1 X181.959 Y153.499 E30.29214
