;FLAVOR:Marlin
;TIME:16055
;Filament used: 13.3494m
;Layer height: 0.2
;MINX:86.5
;MINY:99
;MINZ:0.2
;MAXX:148.499
;MAXY:136
;MAXZ:164.4
;Generated with Cura_SteamEngine 4.6.1
M140 S60
M105
M190 S60
M104 S200
M105
M109 S200
M82 ;absolute extrusion mode
; Ender 3 Custom Start G-code
G92 E0 ; Reset Extruder
G28 ; Home all axes
G1 Z2.0 F3000 ; Move Z Axis up little to prevent scratching of Heat Bed
G1 X0.1 Y20 Z0.3 F5000.0 ; Move to start position
G1 X0.1 Y200.0 Z0.3 F1500.0 E15 ; Draw the first line
G1 X0.4 Y200.0 Z0.3 F5000.0 ; Move to side a little
G1 X0.4 Y20 Z0.3 F1500.0 E30 ; Draw the second line
G92 E0 ; Reset Extruder
G1 Z2.0 F3000 ; Move Z Axis up little to prevent scratching of Heat Bed
G1 X5 Y20 Z0.3 F5000.0 ; Move over to prevent blob squish
G92 E0
G92 E0
G1 F1500 E-6.5
;LAYER_COUNT:822
;LAYER:0
M107
G0 F6000 X132.934 Y99.819 Z0.2
;TYPE:SKIRT
G1 F1500 E0
G1 F1200 X133.454 Y99.844 E0.01732
G1 X133.742 Y99.864 E0.02692
G1 X134.588 Y99.958 E0.05523
G1 X135.211 Y100.058 E0.07621
G1 X135.441 Y100.1 E0.08399
G1 X136.307 Y100.297 E0.11353
G1 X136.595 Y100.376 E0.12346
G1 X137.136 Y100.538 E0.14225
G1 X137.724 Y100.739 E0.16291
G1 X137.923 Y100.814 E0.16999
G1 X138.367 Y100.993 E0.18591
G1 X138.717 Y101.144 E0.19859
G1 X139.448 Y101.495 E0.22556
G1 X139.652 Y101.603 E0.23324
G1 X139.948 Y101.766 E0.24448
G1 X140.224 Y101.924 E0.25505
G1 X140.935 Y102.371 E0.28299
G1 X141.426 Y102.714 E0.30291
G1 X141.632 Y102.865 E0.3114
G1 X142.39 Y103.479 E0.34385
G1 X142.805 Y103.849 E0.36234
G1 X143.508 Y104.539 E0.3951
G1 X143.752 Y104.803 E0.40706
G1 X144.116 Y105.216 E0.42537
G1 X144.563 Y105.773 E0.44912
G1 X144.705 Y105.963 E0.45701
G1 X144.909 Y106.245 E0.46859
G1 X145.094 Y106.511 E0.47936
G1 X145.597 Y107.31 E0.51077
G1 X145.972 Y107.99 E0.53659
G1 X146.369 Y108.812 E0.56696
G1 X146.606 Y109.377 E0.58733
G1 X146.699 Y109.614 E0.5958
G1 X146.905 Y110.187 E0.61605
G1 X146.97 Y110.387 E0.62305
G1 X147.099 Y110.817 E0.63798
G1 X147.194 Y111.16 E0.64982
G1 X147.392 Y112.017 E0.67907
G1 X147.495 Y112.595 E0.6986
G1 X147.537 Y112.866 E0.70772
G1 X147.634 Y113.74 E0.73697
G1 X147.671 Y114.351 E0.75733
G1 X147.69 Y114.904 E0.77573
G1 X147.699 Y115.648 E0.80048
G1 X147.699 Y124.388 E1.09117
G1 X147.689 Y125.123 E1.11562
G1 X147.637 Y126.024 E1.14564
G1 X147.505 Y126.918 E1.1757
G1 X147.295 Y127.796 E1.20572
G1 X147.008 Y128.652 E1.23575
G1 X146.646 Y129.48 E1.26581
G1 X146.212 Y130.272 E1.29584
G1 X145.71 Y131.023 E1.32589
G1 X145.144 Y131.726 E1.35591
G1 X144.518 Y132.377 E1.38595
G1 X143.836 Y132.969 E1.41598
G1 X143.105 Y133.499 E1.44601
G1 X142.33 Y133.963 E1.47606
G1 X141.516 Y134.356 E1.50612
G1 X140.672 Y134.675 E1.53613
G1 X139.802 Y134.919 E1.56618
G1 X138.914 Y135.084 E1.59622
G1 X137.736 Y135.181 E1.63554
G1 X136.827 Y135.2 E1.66578
G1 X98.061 Y135.199 E2.95514
G1 X97.363 Y135.189 E2.97836
G1 X96.461 Y135.136 E3.00841
G1 X95.568 Y135.004 E3.03843
G1 X94.69 Y134.793 E3.06847
G1 X93.834 Y134.505 E3.09851
G1 X93.007 Y134.143 E3.12853
G1 X92.215 Y133.708 E3.15859
G1 X91.464 Y133.206 E3.18863
G1 X90.761 Y132.639 E3.21867
G1 X90.111 Y132.012 E3.24871
G1 X89.519 Y131.33 E3.27875
G1 X88.989 Y130.599 E3.30878
G1 X88.527 Y129.823 E3.33882
G1 X88.134 Y129.01 E3.36885
G1 X87.816 Y128.165 E3.39888
G1 X87.573 Y127.295 E3.42892
G1 X87.408 Y126.407 E3.45896
G1 X87.313 Y125.266 E3.49704
G1 X87.3 Y124.658 E3.51727
G1 X87.301 Y115.568 E3.81961
G1 X87.312 Y114.799 E3.84519
G1 X87.329 Y114.339 E3.8605
G1 X87.359 Y113.835 E3.87729
G1 X87.463 Y112.871 E3.90954
G1 X87.55 Y112.334 E3.92763
G1 X87.6 Y112.06 E3.93689
G1 X87.797 Y111.193 E3.96647
G1 X87.876 Y110.905 E3.9764
G1 X88.038 Y110.364 E3.99518
G1 X88.239 Y109.776 E4.01585
G1 X88.314 Y109.577 E4.02292
G1 X88.493 Y109.133 E4.03885
G1 X88.644 Y108.783 E4.05152
G1 X88.995 Y108.052 E4.07849
G1 X89.103 Y107.848 E4.08617
G1 X89.268 Y107.549 E4.09753
G1 X89.429 Y107.268 E4.1083
G1 X89.881 Y106.55 E4.13652
G1 X90.206 Y106.086 E4.15536
G1 X90.358 Y105.878 E4.16393
G1 X90.978 Y105.11 E4.19676
G1 X91.346 Y104.697 E4.21516
G1 X92.052 Y103.979 E4.24865
G1 X92.317 Y103.735 E4.26063
G1 X92.736 Y103.368 E4.27916
G1 X93.269 Y102.94 E4.30189
G1 X93.464 Y102.794 E4.30999
G1 X93.788 Y102.561 E4.32327
G1 X94.052 Y102.379 E4.33393
G1 X94.806 Y101.906 E4.36354
G1 X95.292 Y101.634 E4.38206
G1 X95.524 Y101.51 E4.39081
G1 X96.289 Y101.141 E4.41906
G1 X96.56 Y101.024 E4.42888
G1 X97.114 Y100.801 E4.44874
G1 X97.694 Y100.593 E4.46923
G1 X97.913 Y100.522 E4.47689
G1 X98.357 Y100.389 E4.49231
G1 X98.681 Y100.3 E4.50348
G1 X99.517 Y100.108 E4.53201
G1 X99.791 Y100.057 E4.54128
G1 X100.325 Y99.97 E4.55928
G1 X101.202 Y99.874 E4.58862
G1 X101.764 Y99.837 E4.60735
G1 X102.101 Y99.82 E4.61858
G1 X102.987 Y99.8 E4.64805
G1 X131.925 Y99.801 E5.61053
G1 X132.934 Y99.819 E5.6441
G0 F6000 X132.949 Y99.419
G1 F1200 X133.481 Y99.444 E5.66181
G1 X133.769 Y99.464 E5.67141
G1 X134.649 Y99.563 E5.70087
G1 X135.283 Y99.664 E5.72222
G1 X135.513 Y99.706 E5.73
G1 X136.413 Y99.912 E5.7607
G1 X136.701 Y99.991 E5.77064
G1 X137.254 Y100.156 E5.78983
G1 X137.865 Y100.365 E5.81131
G1 X138.064 Y100.44 E5.81838
G1 X138.525 Y100.626 E5.83492
G1 X138.875 Y100.777 E5.8476
G1 X139.636 Y101.142 E5.87567
G1 X139.84 Y101.25 E5.88334
G1 X140.422 Y101.577 E5.90555
G1 X141.161 Y102.041 E5.93457
G1 X141.663 Y102.392 E5.95494
G1 X141.869 Y102.543 E5.96344
G1 X142.656 Y103.18 E5.99711
G1 X143.071 Y103.55 E6.01561
G1 X143.801 Y104.267 E6.04964
G1 X144.045 Y104.531 E6.0616
G1 X144.419 Y104.955 E6.0804
G1 X144.884 Y105.533 E6.10507
G1 X145.026 Y105.723 E6.11296
G1 X145.422 Y106.283 E6.13577
G1 X145.945 Y107.113 E6.1684
G1 X146.324 Y107.8 E6.1945
G1 X146.737 Y108.654 E6.22605
G1 X146.854 Y108.927 E6.23593
G1 X147.071 Y109.468 E6.25532
G1 X147.285 Y110.064 E6.27638
G1 X147.35 Y110.264 E6.28337
G1 X147.484 Y110.711 E6.2989
G1 X147.579 Y111.054 E6.31073
G1 X147.785 Y111.943 E6.34108
G1 X147.89 Y112.534 E6.36105
G1 X147.932 Y112.805 E6.37017
G1 X148.033 Y113.713 E6.40056
G1 X148.071 Y114.335 E6.42128
G1 X148.09 Y114.898 E6.44002
G1 X148.099 Y115.648 E6.46497
G1 X148.099 Y124.393 E6.75583
G1 X148.089 Y125.128 E6.78027
G1 X148.037 Y126.047 E6.81089
G1 X147.904 Y126.958 E6.84151
G1 X147.694 Y127.855 E6.87215
G1 X147.406 Y128.729 E6.90276
G1 X147.044 Y129.576 E6.9334
G1 X146.609 Y130.387 E6.964
G1 X146.106 Y131.158 E6.99462
G1 X145.538 Y131.883 E7.02526
G1 X144.909 Y132.555 E7.05587
G1 X144.224 Y133.17 E7.08649
G1 X143.488 Y133.724 E7.11713
G1 X142.707 Y134.211 E7.14774
G1 X141.887 Y134.629 E7.17835
G1 X141.033 Y134.974 E7.20899
G1 X140.153 Y135.244 E7.2396
G1 X139.253 Y135.436 E7.27021
G1 X138.339 Y135.55 E7.30085
G1 X137.746 Y135.581 E7.3206
G1 X136.827 Y135.6 E7.35117
G1 X98.055 Y135.599 E8.64073
G1 X97.357 Y135.589 E8.66395
G1 X96.438 Y135.536 E8.69456
G1 X95.527 Y135.403 E8.72519
G1 X94.631 Y135.192 E8.7558
G1 X93.757 Y134.904 E8.78641
G1 X92.91 Y134.541 E8.81706
G1 X92.099 Y134.106 E8.84767
G1 X91.329 Y133.602 E8.87828
G1 X90.605 Y133.033 E8.9089
G1 X89.933 Y132.403 E8.93954
G1 X89.318 Y131.718 E8.97016
G1 X88.765 Y130.982 E9.00078
G1 X88.278 Y130.201 E9.03139
G1 X87.861 Y129.38 E9.06202
G1 X87.516 Y128.526 E9.09265
G1 X87.247 Y127.646 E9.12326
G1 X87.055 Y126.745 E9.1539
G1 X86.942 Y125.832 E9.1845
G1 X86.913 Y125.277 E9.20298
G1 X86.9 Y124.658 E9.22357
G1 X86.901 Y115.562 E9.52611
G1 X86.912 Y114.793 E9.55169
G1 X86.93 Y114.315 E9.5676
G1 X86.96 Y113.811 E9.58439
G1 X87.067 Y112.809 E9.61791
G1 X87.156 Y112.262 E9.63634
G1 X87.206 Y111.988 E9.6456
G1 X87.412 Y111.087 E9.67634
G1 X87.491 Y110.799 E9.68628
G1 X87.656 Y110.246 E9.70547
G1 X87.865 Y109.635 E9.72695
G1 X87.94 Y109.436 E9.73402
G1 X88.126 Y108.975 E9.75055
G1 X88.277 Y108.625 E9.76323
G1 X88.642 Y107.864 E9.7913
G1 X88.75 Y107.66 E9.79898
G1 X88.921 Y107.35 E9.81076
G1 X89.082 Y107.069 E9.82153
G1 X89.552 Y106.323 E9.85085
G1 X89.883 Y105.85 E9.87006
G1 X90.035 Y105.642 E9.87862
G1 X90.679 Y104.844 E9.91273
G1 X91.047 Y104.431 E9.93113
G1 X91.781 Y103.685 E9.96594
G1 X92.046 Y103.441 E9.97792
G1 X92.475 Y103.064 E9.99691
G1 X93.029 Y102.62 E10.02053
G1 X93.224 Y102.474 E10.02863
G1 X93.561 Y102.232 E10.04243
G1 X93.825 Y102.05 E10.05309
G1 X94.609 Y101.558 E10.08388
G1 X95.335 Y101.158 E10.11145
G1 X96.13 Y100.774 E10.14081
G1 X96.401 Y100.657 E10.15063
G1 X96.968 Y100.429 E10.17096
G1 X97.571 Y100.213 E10.19226
G1 X97.79 Y100.142 E10.19992
G1 X98.251 Y100.004 E10.21592
G1 X98.575 Y99.915 E10.2271
G1 X99.443 Y99.715 E10.25673
G1 X99.717 Y99.664 E10.26599
G1 X100.264 Y99.575 E10.28443
G1 X101.176 Y99.475 E10.31494
G1 X101.738 Y99.438 E10.33368
G1 X102.088 Y99.421 E10.34533
G1 X102.984 Y99.4 E10.37514
G1 X131.931 Y99.401 E11.33792
G1 X132.949 Y99.419 E11.37178
G0 F6000 X132.965 Y99.019
G1 F1200 X133.509 Y99.045 E11.3899
G1 X133.797 Y99.065 E11.3995
G1 X134.71 Y99.167 E11.43006
G1 X135.585 Y99.313 E11.45956
G1 X136.519 Y99.526 E11.49142
G1 X137.142 Y99.702 E11.51296
G1 X137.372 Y99.773 E11.52096
G1 X138.006 Y99.991 E11.54326
G1 X138.205 Y100.066 E11.55033
G1 X138.683 Y100.259 E11.56748
G1 X139.033 Y100.41 E11.58016
G1 X139.823 Y100.788 E11.60929
G1 X140.027 Y100.896 E11.61696
G1 X140.621 Y101.23 E11.63963
G1 X141.388 Y101.712 E11.66976
G1 X141.899 Y102.069 E11.69049
G1 X142.105 Y102.22 E11.69899
G1 X142.922 Y102.881 E11.73394
G1 X143.337 Y103.251 E11.75243
G1 X144.095 Y103.996 E11.78778
G1 X144.339 Y104.26 E11.79974
G1 X144.722 Y104.693 E11.81896
G1 X145.204 Y105.294 E11.84459
G1 X145.346 Y105.484 E11.85248
G1 X145.566 Y105.788 E11.86496
G1 X145.751 Y106.054 E11.87574
G1 X146.293 Y106.916 E11.9096
G1 X146.676 Y107.61 E11.93597
G1 X147.105 Y108.497 E11.96874
G1 X147.222 Y108.77 E11.97862
G1 X147.444 Y109.322 E11.99841
G1 X147.665 Y109.94 E12.02023
G1 X147.73 Y110.14 E12.02723
G1 X147.87 Y110.604 E12.04335
G1 X147.965 Y110.947 E12.05519
G1 X148.178 Y111.87 E12.08669
G1 X148.285 Y112.472 E12.10703
G1 X148.327 Y112.743 E12.11615
G1 X148.432 Y113.686 E12.14771
G1 X148.471 Y114.319 E12.1688
G1 X148.49 Y114.893 E12.1879
G1 X148.499 Y115.648 E12.21302
G1 X148.499 Y124.399 E12.50408
G1 X148.489 Y125.134 E12.52852
G1 X148.436 Y126.07 E12.55971
G1 X148.304 Y126.999 E12.59092
G1 X148.093 Y127.912 E12.62208
G1 X147.805 Y128.805 E12.65329
G1 X147.442 Y129.67 E12.68449
G1 X147.007 Y130.5 E12.71566
G1 X146.502 Y131.291 E12.74687
G1 X145.932 Y132.036 E12.77807
G1 X145.301 Y132.729 E12.80924
G1 X144.613 Y133.367 E12.84045
G1 X143.873 Y133.943 E12.87164
G1 X143.086 Y134.454 E12.90285
G1 X142.259 Y134.896 E12.93404
G1 X141.398 Y135.267 E12.96522
G1 X140.508 Y135.562 E12.99641
G1 X139.596 Y135.781 E13.0276
G1 X138.668 Y135.921 E13.05882
G1 X137.755 Y135.981 E13.08925
G1 X136.827 Y136 E13.12012
G1 X98.049 Y135.999 E14.40988
G1 X97.351 Y135.989 E14.4331
G1 X96.415 Y135.935 E14.46428
G1 X95.487 Y135.803 E14.49546
G1 X94.573 Y135.591 E14.52667
G1 X93.681 Y135.302 E14.55785
G1 X92.816 Y134.939 E14.58905
G1 X91.986 Y134.503 E14.62024
G1 X91.195 Y133.998 E14.65145
G1 X90.451 Y133.427 E14.68264
G1 X89.758 Y132.795 E14.71384
G1 X89.121 Y132.107 E14.74502
G1 X88.546 Y131.366 E14.77622
G1 X88.035 Y130.58 E14.8074
G1 X87.593 Y129.752 E14.83862
G1 X87.224 Y128.89 E14.8698
G1 X86.929 Y128 E14.90099
G1 X86.711 Y127.088 E14.93218
G1 X86.571 Y126.16 E14.96339
G1 X86.513 Y125.288 E14.99246
G1 X86.5 Y124.658 E15.01342
G1 X86.501 Y115.557 E15.31612
G1 X86.512 Y114.788 E15.3417
G1 X86.53 Y114.291 E15.35824
G1 X86.56 Y113.787 E15.37503
G1 X86.672 Y112.748 E15.40979
G1 X86.763 Y112.19 E15.42859
G1 X86.813 Y111.916 E15.43786
G1 X87.026 Y110.981 E15.46975
G1 X87.202 Y110.358 E15.49128
G1 X87.273 Y110.128 E15.49929
G1 X87.491 Y109.494 E15.52159
G1 X87.566 Y109.295 E15.52866
G1 X87.759 Y108.817 E15.54581
G1 X87.91 Y108.467 E15.55848
G1 X88.288 Y107.677 E15.58761
G1 X88.396 Y107.473 E15.59529
G1 X88.735 Y106.871 E15.61827
G1 X89.222 Y106.096 E15.64871
G1 X89.56 Y105.614 E15.66829
G1 X89.712 Y105.406 E15.67686
G1 X90.38 Y104.578 E15.71225
G1 X90.748 Y104.165 E15.73064
G1 X91.51 Y103.391 E15.76677
G1 X91.775 Y103.147 E15.77875
G1 X92.214 Y102.761 E15.79819
G1 X92.789 Y102.3 E15.82271
G1 X92.984 Y102.154 E15.83081
G1 X93.334 Y101.903 E15.84513
G1 X93.598 Y101.721 E15.8558
G1 X94.411 Y101.21 E15.88774
G1 X95.147 Y100.805 E15.91568
G1 X95.972 Y100.407 E15.94614
G1 X96.243 Y100.29 E15.95596
G1 X96.822 Y100.056 E15.97673
G1 X97.448 Y99.832 E15.99885
G1 X97.667 Y99.761 E16.0065
G1 X98.145 Y99.618 E16.0231
G1 X98.469 Y99.529 E16.03427
G1 X99.37 Y99.322 E16.06502
G1 X99.988 Y99.212 E16.0859
G1 X100.203 Y99.179 E16.09313
G1 X101.149 Y99.076 E16.12478
G1 X101.711 Y99.039 E16.14352
G1 X102.075 Y99.021 E16.15564
G1 X102.98 Y99 E16.18575
G1 X131.937 Y99.001 E17.14886
G1 X132.965 Y99.019 E17.18306
G1 F1500 E10.68306
;MESH:Servo 2 Base 2.stl
G0 F6000 X134.313 Y109.635
G0 X134.013 Y110.677
G0 X135.491 Y112.009
G0 X136.073 Y112.74
G0 X136.492 Y113.607
G0 X136.679 Y114.428
G0 X136.9 Y124.4
;TYPE:WALL-INNER
G1 F1500 E17.18306
G1 F1200 X136.701 Y124.4 E17.18967
G1 X98.1 Y124.4 E18.47355
G1 X98.1 Y115.018 E18.7856
G1 X98.129 Y114.504 E18.80272
G1 X98.21 Y114.022 E18.81897
G1 X98.346 Y113.553 E18.83522
G1 X98.537 Y113.09 E18.85187
G1 X98.776 Y112.659 E18.86827
G1 X99.062 Y112.255 E18.88473
G1 X99.388 Y111.888 E18.90106
G1 X99.755 Y111.562 E18.91738
G1 X100.159 Y111.276 E18.93385
G1 X100.59 Y111.037 E18.95024
G1 X101.053 Y110.846 E18.9669
G1 X101.522 Y110.71 E18.98314
G1 X101.995 Y110.63 E18.99909
G1 X102.628 Y110.6 E19.02017
G1 X132.47 Y110.6 E20.01272
G1 X132.996 Y110.629 E20.03024
G1 X133.478 Y110.71 E20.0465
G1 X133.947 Y110.846 E20.06274
G1 X134.41 Y111.037 E20.0794
G1 X134.841 Y111.276 E20.09579
G1 X135.245 Y111.562 E20.11225
G1 X135.612 Y111.888 E20.12858
G1 X135.938 Y112.255 E20.14491
G1 X136.224 Y112.659 E20.16137
G1 X136.463 Y113.09 E20.17776
G1 X136.654 Y113.553 E20.19442
G1 X136.79 Y114.022 E20.21066
G1 X136.871 Y114.504 E20.22692
G1 X136.899 Y115.005 E20.24361
G1 X136.9 Y124.201 E20.54947
G1 X136.9 Y124.4 E20.55375
G0 F6000 X137.3 Y124.8
;TYPE:WALL-OUTER
G1 F1200 X97.7 Y124.8 E21.87085
G1 X97.7 Y115.018 E22.1962
G1 X97.731 Y114.459 E22.21482
G1 X97.82 Y113.932 E22.2326
G1 X97.97 Y113.415 E22.2505
G1 X98.175 Y112.918 E22.26838
G1 X98.436 Y112.446 E22.28632
G1 X98.749 Y112.005 E22.30431
G1 X99.105 Y111.605 E22.32212
G1 X99.505 Y111.249 E22.33993
G1 X99.946 Y110.936 E22.35792
G1 X100.418 Y110.675 E22.37586
G1 X100.915 Y110.47 E22.39374
G1 X101.432 Y110.32 E22.41164
G1 X101.959 Y110.231 E22.42942
G1 X102.609 Y110.2 E22.45106
G1 X132.474 Y110.2 E23.44438
G1 X133.041 Y110.231 E23.46326
G1 X133.568 Y110.32 E23.48104
G1 X134.085 Y110.47 E23.49894
G1 X134.582 Y110.675 E23.51682
G1 X135.054 Y110.936 E23.53476
G1 X135.495 Y111.249 E23.55275
G1 X135.895 Y111.605 E23.57056
G1 X136.251 Y112.005 E23.58837
G1 X136.564 Y112.446 E23.60636
G1 X136.825 Y112.918 E23.6243
G1 X137.03 Y113.415 E23.64218
G1 X137.18 Y113.932 E23.66008
G1 X137.269 Y114.459 E23.67786
G1 X137.299 Y115.005 E23.69605
G1 X137.3 Y124.8 E24.02183
G0 F6000 X137.03 Y124.53
G0 X136.79 Y124.01
G0 X136.51 Y124.01
;TYPE:SKIN
G1 F1200 X98.49 Y124.01 E25.28638
G1 X98.49 Y115.04 E25.58472
G1 X98.519 Y114.537 E25.60148
G1 X98.588 Y114.122 E25.61547
G1 X98.716 Y113.679 E25.63081
G1 X98.89 Y113.258 E25.64596
G1 X99.106 Y112.868 E25.66079
G1 X99.367 Y112.5 E25.67579
G1 X99.664 Y112.164 E25.69071
G1 X100 Y111.867 E25.70562
G1 X100.368 Y111.606 E25.72063
G1 X100.758 Y111.39 E25.73546
G1 X101.179 Y111.216 E25.75061
G1 X101.618 Y111.089 E25.76581
G1 X102.029 Y111.02 E25.77967
G1 X102.646 Y110.99 E25.80022
G1 X132.448 Y110.99 E26.79144
G1 X132.963 Y111.019 E26.80859
G1 X133.382 Y111.089 E26.82272
G1 X133.821 Y111.216 E26.83792
G1 X134.242 Y111.39 E26.85307
G1 X134.632 Y111.606 E26.8679
G1 X135 Y111.867 E26.88291
G1 X135.336 Y112.164 E26.89782
G1 X135.633 Y112.5 E26.91274
G1 X135.894 Y112.868 E26.92774
G1 X136.11 Y113.258 E26.94257
G1 X136.284 Y113.679 E26.95772
G1 X136.412 Y114.122 E26.97306
G1 X136.481 Y114.537 E26.98705
G1 X136.509 Y115.027 E27.00337
G1 X136.51 Y124.01 E27.30215
G0 F6000 X136.79 Y124.01
G0 X136.7 Y114.52
G0 X136.379 Y113.176
G0 X135.971 Y113.344
G1 F1200 X134.155 Y111.528 E27.38757
