;FLAVOR:Marlin
;TIME:14480
;Filament used: 12.3082m
;Layer height: 0.2
;MINX:16.5
;MINY:91.5
;MINZ:0.2
;MAXX:218.499
;MAXY:143.5
;MAXZ:20
;Generated with Cura_SteamEngine 4.6.1
M140 S60
M105
M190 S60
M104 S200
M105
M109 S200
M82 ;absolute extrusion mode
; Ender 3 Custom Start G-code
G92 E0 ; Reset Extruder
G28 ; Home all axes
G1 Z2.0 F3000 ; Move Z Axis up little to prevent scratching of Heat Bed
G1 X0.1 Y20 Z0.3 F5000.0 ; Move to start position
G1 X0.1 Y200.0 Z0.3 F1500.0 E15 ; Draw the first line
G1 X0.4 Y200.0 Z0.3 F5000.0 ; Move to side a little
G1 X0.4 Y20 Z0.3 F1500.0 E30 ; Draw the second line
G92 E0 ; Reset Extruder
G1 Z2.0 F3000 ; Move Z Axis up little to prevent scratching of Heat Bed
G1 X5 Y20 Z0.3 F5000.0 ; Move over to prevent blob squish
G92 E0
G92 E0
G1 F1500 E-6.5
;LAYER_COUNT:100
;LAYER:0
M107
G0 F6000 X204.643 Y92.311 Z0.2
;TYPE:SKIRT
G1 F1500 E0
G1 F1200 X205.238 Y92.337 E0.01981
G1 X205.651 Y92.367 E0.03358
G1 X206.548 Y92.472 E0.06362
G1 X207.022 Y92.561 E0.07966
G1 X207.424 Y92.646 E0.09333
G1 X208.688 Y92.999 E0.13698
G1 X208.959 Y93.094 E0.14653
G1 X209.975 Y93.513 E0.18308
G1 X210.384 Y93.708 E0.19815
G1 X211.181 Y94.132 E0.22818
G1 X211.617 Y94.405 E0.24529
G1 X211.9 Y94.592 E0.25657
G1 X212.489 Y95.012 E0.28063
G1 X212.657 Y95.141 E0.28767
G1 X213.51 Y95.874 E0.32508
G1 X213.711 Y96.067 E0.33435
G1 X214.497 Y96.912 E0.37273
G1 X214.784 Y97.258 E0.38768
G1 X215.329 Y97.978 E0.41772
G1 X215.616 Y98.418 E0.43519
G1 X215.82 Y98.749 E0.44812
G1 X216.451 Y99.944 E0.49307
G1 X216.609 Y100.298 E0.50596
G1 X216.941 Y101.138 E0.536
G1 X217.108 Y101.672 E0.55461
G1 X217.243 Y102.148 E0.57107
G1 X217.485 Y103.216 E0.60749
G1 X217.521 Y103.427 E0.61461
G1 X217.642 Y104.443 E0.64864
G1 X217.667 Y104.807 E0.66078
G1 X217.693 Y105.433 E0.68162
G1 X217.698 Y105.738 E0.69176
G1 X217.699 Y128.938 E1.4634
G1 X217.689 Y129.643 E1.48685
G1 X217.663 Y130.233 E1.50649
G1 X217.633 Y130.648 E1.52033
G1 X217.529 Y131.545 E1.55036
G1 X217.438 Y132.028 E1.56671
G1 X217.353 Y132.429 E1.58035
G1 X217.002 Y133.685 E1.62372
G1 X216.905 Y133.962 E1.63348
G1 X216.477 Y134.997 E1.67073
G1 X216.284 Y135.4 E1.6856
G1 X215.859 Y136.196 E1.71561
G1 X215.604 Y136.603 E1.73158
G1 X215.419 Y136.884 E1.74277
G1 X214.99 Y137.487 E1.76739
G1 X214.861 Y137.655 E1.77443
G1 X214.127 Y138.509 E1.81188
G1 X213.932 Y138.712 E1.82125
G1 X213.077 Y139.506 E1.86005
G1 X212.724 Y139.798 E1.87529
G1 X212.004 Y140.342 E1.90531
G1 X211.561 Y140.63 E1.92288
G1 X211.237 Y140.829 E1.93553
G1 X210.056 Y141.451 E1.97992
G1 X209.702 Y141.609 E1.99282
G1 X208.862 Y141.941 E2.02286
G1 X208.328 Y142.108 E2.04147
G1 X207.852 Y142.243 E2.05792
G1 X206.784 Y142.485 E2.09434
G1 X206.573 Y142.521 E2.10146
G1 X205.557 Y142.642 E2.1355
G1 X205.193 Y142.667 E2.14763
G1 X204.567 Y142.693 E2.16847
G1 X204.261 Y142.698 E2.17865
G1 X77.785 Y142.7 E6.38526
G1 X77.64 Y142.699 E6.39008
G1 X76.935 Y142.689 E6.41353
G1 X76.343 Y142.663 E6.43324
G1 X75.929 Y142.633 E6.44705
G1 X75.032 Y142.528 E6.47708
G1 X74.556 Y142.439 E6.49319
G1 X74.154 Y142.354 E6.50686
G1 X72.893 Y142.002 E6.5504
G1 X72.616 Y141.905 E6.56016
G1 X71.581 Y141.477 E6.59741
G1 X71.178 Y141.284 E6.61227
G1 X70.194 Y140.744 E6.64961
G1 X69.466 Y140.287 E6.6782
G1 X67.991 Y139.311 E6.73702
G1 X65.819 Y137.961 E6.82208
G1 X63.628 Y136.684 E6.90643
G1 X61.409 Y135.474 E6.99049
G1 X59.146 Y134.321 E7.07497
G1 X56.854 Y133.234 E7.15934
G1 X54.532 Y132.213 E7.2437
G1 X52.176 Y131.253 E7.32832
G1 X49.786 Y130.358 E7.4132
G1 X47.399 Y129.542 E7.4971
G1 X44.964 Y128.784 E7.58193
G1 X42.501 Y128.094 E7.667
G1 X40.055 Y127.482 E7.75086
G1 X37.563 Y126.935 E7.83572
G1 X35.072 Y126.46 E7.92006
G1 X32.616 Y126.063 E8.00281
G1 X29.381 Y125.644 E8.11131
G1 X28.943 Y125.595 E8.12596
G1 X28.106 Y125.466 E8.15413
G1 X27.878 Y125.421 E8.16186
G1 X26.866 Y125.167 E8.19656
G1 X26.422 Y125.031 E8.21201
G1 X25.571 Y124.728 E8.24205
G1 X25.003 Y124.477 E8.26271
G1 X24.6 Y124.284 E8.27757
G1 X23.804 Y123.859 E8.30758
G1 X23.383 Y123.595 E8.32411
G1 X23.1 Y123.408 E8.33539
G1 X22.511 Y122.988 E8.35945
G1 X22.343 Y122.859 E8.3665
G1 X21.49 Y122.126 E8.4039
G1 X21.289 Y121.933 E8.41317
G1 X20.498 Y121.082 E8.45182
G1 X20.204 Y120.727 E8.46715
G1 X19.66 Y120.007 E8.49716
G1 X19.344 Y119.519 E8.5165
G1 X19.144 Y119.19 E8.5293
G1 X18.547 Y118.052 E8.57205
G1 X18.392 Y117.705 E8.58469
G1 X18.06 Y116.865 E8.61473
G1 X17.892 Y116.328 E8.63344
G1 X17.757 Y115.852 E8.6499
G1 X17.515 Y114.784 E8.68632
G1 X17.479 Y114.573 E8.69344
G1 X17.358 Y113.553 E8.7276
G1 X17.333 Y113.187 E8.7398
G1 X17.302 Y112.348 E8.76773
G1 X17.3 Y112.112 E8.77558
G1 X17.301 Y106.09 E8.97587
G1 X17.307 Y105.691 E8.98914
G1 X17.318 Y105.356 E9.00029
G1 X17.355 Y104.584 E9.026
G1 X17.438 Y103.684 E9.05606
G1 X17.536 Y103.098 E9.07582
G1 X17.58 Y102.875 E9.08338
G1 X17.836 Y101.857 E9.11829
G1 X17.971 Y101.417 E9.1336
G1 X18.274 Y100.566 E9.16365
G1 X18.523 Y100.003 E9.18412
G1 X18.716 Y99.6 E9.19898
G1 X19.141 Y98.804 E9.229
G1 X19.405 Y98.383 E9.24552
G1 X19.592 Y98.1 E9.2568
G1 X20.001 Y97.525 E9.28027
G1 X20.128 Y97.359 E9.28723
G1 X20.874 Y96.49 E9.32532
G1 X21.07 Y96.286 E9.33473
G1 X21.926 Y95.492 E9.37356
G1 X22.278 Y95.201 E9.38875
G1 X22.999 Y94.657 E9.41879
G1 X23.439 Y94.37 E9.43626
G1 X23.763 Y94.171 E9.44891
G1 X24.944 Y93.549 E9.49331
G1 X25.298 Y93.391 E9.5062
G1 X26.138 Y93.059 E9.53624
G1 X26.672 Y92.892 E9.55485
G1 X27.148 Y92.757 E9.57131
G1 X28.216 Y92.515 E9.60773
G1 X28.427 Y92.479 E9.61485
G1 X29.443 Y92.358 E9.64888
G1 X29.807 Y92.333 E9.66101
G1 X30.433 Y92.307 E9.68185
G1 X30.739 Y92.302 E9.69203
G1 X203.793 Y92.3 E15.44783
G1 X203.937 Y92.301 E15.45262
G1 X204.643 Y92.311 E15.4761
G0 F6000 X204.649 Y91.911
G1 F1200 X205.267 Y91.938 E15.49668
G1 X205.68 Y91.968 E15.51045
G1 X206.594 Y92.074 E15.54106
G1 X207.105 Y92.169 E15.55834
G1 X207.507 Y92.254 E15.57201
G1 X208.821 Y92.622 E15.61739
G1 X209.092 Y92.717 E15.62695
G1 X210.147 Y93.152 E15.6649
G1 X210.556 Y93.347 E15.67997
G1 X211.369 Y93.779 E15.71059
G1 X211.838 Y94.071 E15.72897
G1 X212.121 Y94.258 E15.74025
G1 X212.733 Y94.695 E15.76526
G1 X212.901 Y94.824 E15.77231
G1 X213.787 Y95.585 E15.81115
G1 X213.988 Y95.778 E15.82042
G1 X214.805 Y96.657 E15.86033
G1 X215.092 Y97.003 E15.87529
G1 X215.648 Y97.736 E15.90589
G1 X215.957 Y98.208 E15.92465
G1 X216.161 Y98.539 E15.93758
G1 X216.609 Y99.343 E15.96819
G1 X216.817 Y99.781 E15.98432
G1 X216.975 Y100.135 E15.99721
G1 X217.313 Y100.991 E16.02782
G1 X217.493 Y101.563 E16.04777
G1 X217.628 Y102.039 E16.06422
G1 X217.879 Y103.148 E16.10204
G1 X217.915 Y103.359 E16.10916
G1 X218.041 Y104.416 E16.14457
G1 X218.066 Y104.78 E16.1567
G1 X218.093 Y105.421 E16.17804
G1 X218.098 Y105.738 E16.18859
G1 X218.099 Y128.943 E16.96039
G1 X218.089 Y129.648 E16.98384
G1 X218.062 Y130.262 E17.00428
G1 X218.032 Y130.677 E17.01812
G1 X217.926 Y131.592 E17.04876
G1 X217.83 Y132.111 E17.06631
G1 X217.745 Y132.512 E17.07994
G1 X217.379 Y133.817 E17.12502
G1 X217.282 Y134.094 E17.13478
G1 X216.838 Y135.169 E17.17347
G1 X216.645 Y135.572 E17.18833
G1 X216.212 Y136.385 E17.21897
G1 X215.939 Y136.823 E17.23613
G1 X215.754 Y137.104 E17.24732
G1 X215.307 Y137.731 E17.27293
G1 X215.178 Y137.899 E17.27998
G1 X214.415 Y138.786 E17.31889
G1 X214.22 Y138.989 E17.32826
G1 X213.332 Y139.814 E17.36857
G1 X212.979 Y140.106 E17.38381
G1 X212.245 Y140.661 E17.41441
G1 X211.771 Y140.97 E17.43323
G1 X211.447 Y141.169 E17.44588
G1 X210.642 Y141.617 E17.47652
G1 X210.219 Y141.817 E17.49208
G1 X209.865 Y141.975 E17.50498
G1 X209.009 Y142.313 E17.53559
G1 X208.437 Y142.493 E17.55553
G1 X207.961 Y142.628 E17.57199
G1 X206.852 Y142.879 E17.60981
G1 X206.641 Y142.915 E17.61693
G1 X205.584 Y143.041 E17.65233
G1 X205.22 Y143.066 E17.66447
G1 X204.579 Y143.093 E17.6858
G1 X204.261 Y143.098 E17.69638
G1 X77.785 Y143.1 E21.90299
G1 X77.635 Y143.099 E21.90798
G1 X76.93 Y143.089 E21.93143
G1 X76.314 Y143.062 E21.95194
G1 X75.9 Y143.032 E21.96574
G1 X74.985 Y142.926 E21.99638
G1 X74.473 Y142.831 E22.0137
G1 X74.071 Y142.746 E22.02737
G1 X72.761 Y142.379 E22.07262
G1 X72.484 Y142.282 E22.08238
G1 X71.409 Y141.838 E22.12106
G1 X71.006 Y141.645 E22.13592
G1 X69.983 Y141.084 E22.17473
G1 X69.245 Y140.62 E22.20372
G1 X67.789 Y139.657 E22.26178
G1 X65.602 Y138.297 E22.34744
G1 X63.453 Y137.045 E22.43016
G1 X61.201 Y135.817 E22.51548
G1 X58.958 Y134.674 E22.59921
G1 X56.7 Y133.603 E22.68233
G1 X54.369 Y132.578 E22.76702
G1 X52.021 Y131.622 E22.85134
G1 X49.684 Y130.746 E22.93435
G1 X47.267 Y129.919 E23.01932
G1 X44.842 Y129.165 E23.10378
G1 X42.434 Y128.49 E23.18696
G1 X39.944 Y127.868 E23.27232
G1 X37.467 Y127.324 E23.35667
G1 X35.006 Y126.854 E23.44
G1 X32.536 Y126.455 E23.52322
G1 X29.407 Y126.05 E23.62816
G1 X28.898 Y125.993 E23.64519
G1 X28.028 Y125.858 E23.67448
G1 X27.8 Y125.813 E23.68221
G1 X26.749 Y125.549 E23.71825
G1 X26.305 Y125.413 E23.73369
G1 X25.437 Y125.106 E23.76432
G1 X24.831 Y124.838 E23.78636
G1 X24.428 Y124.645 E23.80122
G1 X23.615 Y124.212 E23.83185
G1 X23.162 Y123.929 E23.84962
G1 X22.879 Y123.742 E23.8609
G1 X22.267 Y123.305 E23.88591
G1 X22.099 Y123.176 E23.89296
G1 X21.213 Y122.415 E23.9318
G1 X21.012 Y122.222 E23.94107
G1 X20.19 Y121.337 E23.98125
G1 X19.896 Y120.982 E23.99658
G1 X19.34 Y120.248 E24.0272
G1 X19.002 Y119.727 E24.04786
G1 X18.802 Y119.398 E24.06066
G1 X18.182 Y118.215 E24.10509
G1 X18.027 Y117.868 E24.11773
G1 X17.688 Y117.012 E24.14835
G1 X17.507 Y116.437 E24.1684
G1 X17.372 Y115.961 E24.18486
G1 X17.121 Y114.852 E24.22267
G1 X17.085 Y114.641 E24.22979
G1 X16.959 Y113.58 E24.26533
G1 X16.934 Y113.214 E24.27753
G1 X16.902 Y112.352 E24.30622
G1 X16.9 Y112.116 E24.31407
G1 X16.901 Y106.084 E24.5147
G1 X16.907 Y105.685 E24.52797
G1 X16.918 Y105.337 E24.53955
G1 X16.955 Y104.565 E24.56526
G1 X17.039 Y103.648 E24.59588
G1 X17.143 Y103.02 E24.61705
G1 X17.187 Y102.797 E24.62461
G1 X17.453 Y101.74 E24.66087
G1 X17.588 Y101.3 E24.67617
G1 X17.896 Y100.432 E24.70681
G1 X18.162 Y99.831 E24.72867
G1 X18.355 Y99.428 E24.74353
G1 X18.788 Y98.615 E24.77417
G1 X19.071 Y98.162 E24.79193
G1 X19.258 Y97.879 E24.80321
G1 X19.683 Y97.282 E24.82759
G1 X19.81 Y97.116 E24.83454
G1 X20.585 Y96.213 E24.87412
G1 X20.781 Y96.009 E24.88353
G1 X21.671 Y95.183 E24.92391
G1 X22.023 Y94.892 E24.9391
G1 X22.757 Y94.337 E24.96971
G1 X23.229 Y94.03 E24.98844
G1 X23.553 Y93.831 E25.00108
G1 X24.358 Y93.383 E25.03172
G1 X24.781 Y93.183 E25.04729
G1 X25.135 Y93.025 E25.06018
G1 X25.991 Y92.687 E25.09079
G1 X26.563 Y92.507 E25.11073
G1 X27.039 Y92.372 E25.12719
G1 X28.148 Y92.121 E25.16501
G1 X28.359 Y92.085 E25.17213
G1 X29.416 Y91.959 E25.20753
G1 X29.78 Y91.934 E25.21967
G1 X30.421 Y91.907 E25.24101
G1 X30.739 Y91.902 E25.25158
G1 X203.793 Y91.9 E31.00738
G1 X203.943 Y91.901 E31.01237
G1 X204.649 Y91.911 E31.03586
G0 F6000 X204.655 Y91.511
G1 F1200 X205.296 Y91.539 E31.0572
G1 X205.709 Y91.569 E31.07097
G1 X206.641 Y91.677 E31.10218
G1 X207.188 Y91.778 E31.12068
G1 X207.59 Y91.863 E31.13434
G1 X208.498 Y92.096 E31.16552
G1 X208.953 Y92.244 E31.18144
G1 X209.224 Y92.339 E31.19099
G1 X210.319 Y92.791 E31.23039
G1 X210.728 Y92.986 E31.24546
G1 X211.557 Y93.425 E31.27666
G1 X212.058 Y93.738 E31.29631
G1 X212.341 Y93.925 E31.30759
G1 X212.976 Y94.377 E31.33351
G1 X213.144 Y94.506 E31.34056
G1 X214.064 Y95.297 E31.38091
G1 X214.265 Y95.49 E31.39018
G1 X215.112 Y96.401 E31.43155
G1 X215.399 Y96.747 E31.4465
G1 X215.967 Y97.494 E31.47772
G1 X216.297 Y97.999 E31.49778
G1 X216.501 Y98.33 E31.51071
G1 X216.959 Y99.148 E31.54189
G1 X217.182 Y99.618 E31.5592
G1 X217.34 Y99.972 E31.57209
G1 X217.685 Y100.844 E31.60328
G1 X217.878 Y101.454 E31.62456
G1 X218.013 Y101.93 E31.64102
G1 X218.273 Y103.081 E31.68026
G1 X218.309 Y103.292 E31.68738
G1 X218.44 Y104.388 E31.7241
G1 X218.465 Y104.752 E31.73623
G1 X218.493 Y105.409 E31.7581
G1 X218.498 Y105.738 E31.76905
G1 X218.499 Y128.949 E32.54105
G1 X218.489 Y129.654 E32.5645
G1 X218.461 Y130.291 E32.58571
G1 X218.431 Y130.706 E32.59954
G1 X218.324 Y131.638 E32.63075
G1 X218.221 Y132.194 E32.64955
G1 X218.136 Y132.595 E32.66319
G1 X217.902 Y133.503 E32.69437
G1 X217.757 Y133.95 E32.71
G1 X217.66 Y134.227 E32.71977
G1 X217.199 Y135.342 E32.7599
G1 X217.006 Y135.745 E32.77476
G1 X216.565 Y136.573 E32.80596
G1 X216.273 Y137.043 E32.82436
G1 X216.088 Y137.324 E32.83555
G1 X215.625 Y137.974 E32.8621
G1 X215.496 Y138.142 E32.86914
G1 X214.704 Y139.063 E32.90954
G1 X214.509 Y139.266 E32.9189
G1 X213.587 Y140.122 E32.96075
G1 X213.234 Y140.414 E32.97599
G1 X212.487 Y140.98 E33.00716
G1 X211.98 Y141.311 E33.0273
G1 X211.656 Y141.51 E33.03994
G1 X210.837 Y141.967 E33.07114
G1 X210.382 Y142.182 E33.08787
G1 X210.028 Y142.34 E33.10077
G1 X209.156 Y142.685 E33.13196
G1 X208.546 Y142.878 E33.15324
G1 X208.07 Y143.013 E33.16969
G1 X206.919 Y143.273 E33.20894
G1 X206.708 Y143.309 E33.21606
G1 X205.612 Y143.44 E33.25277
G1 X205.248 Y143.465 E33.26491
G1 X204.591 Y143.493 E33.28678
G1 X204.261 Y143.498 E33.29776
G1 X77.785 Y143.5 E37.50437
G1 X77.629 Y143.499 E37.50955
G1 X76.924 Y143.489 E37.53301
G1 X76.285 Y143.461 E37.55428
G1 X75.871 Y143.431 E37.56808
G1 X74.939 Y143.324 E37.59929
G1 X74.39 Y143.222 E37.61786
G1 X73.988 Y143.137 E37.63152
G1 X73.08 Y142.904 E37.6627
G1 X72.628 Y142.757 E37.67851
G1 X72.351 Y142.66 E37.68827
G1 X71.236 Y142.199 E37.7284
G1 X70.833 Y142.006 E37.74327
G1 X69.771 Y141.424 E37.78354
G1 X69.024 Y140.954 E37.8129
G1 X67.538 Y139.971 E37.87216
G1 X65.421 Y138.655 E37.95507
G1 X63.255 Y137.392 E38.03846
G1 X61.02 Y136.174 E38.12312
G1 X58.797 Y135.042 E38.20609
G1 X56.497 Y133.95 E38.29077
G1 X54.237 Y132.957 E38.37288
G1 X51.866 Y131.991 E38.45803
G1 X49.531 Y131.116 E38.54097
G1 X47.155 Y130.304 E38.62448
G1 X44.72 Y129.547 E38.70929
G1 X42.334 Y128.877 E38.79172
G1 X39.827 Y128.25 E38.87767
G1 X37.42 Y127.722 E38.95963
G1 X34.939 Y127.249 E39.04364
G1 X32.481 Y126.852 E39.12645
G1 X29.31 Y126.441 E39.2328
G1 X28.854 Y126.39 E39.24806
G1 X27.951 Y126.251 E39.27845
G1 X27.723 Y126.206 E39.28618
G1 X26.631 Y125.932 E39.32362
G1 X26.187 Y125.796 E39.33907
G1 X25.303 Y125.483 E39.37026
G1 X24.658 Y125.199 E39.3937
G1 X24.255 Y125.006 E39.40856
G1 X23.427 Y124.565 E39.43976
G1 X22.942 Y124.262 E39.45878
G1 X22.659 Y124.075 E39.47006
G1 X22.024 Y123.623 E39.49599
G1 X21.856 Y123.494 E39.50303
G1 X20.936 Y122.703 E39.54339
G1 X20.735 Y122.51 E39.55266
G1 X19.882 Y121.592 E39.59434
G1 X19.588 Y121.237 E39.60967
G1 X19.021 Y120.49 E39.64086
G1 X18.661 Y119.935 E39.66286
G1 X18.461 Y119.606 E39.67567
G1 X17.816 Y118.378 E39.7218
G1 X17.661 Y118.031 E39.73444
G1 X17.316 Y117.159 E39.76563
G1 X17.122 Y116.546 E39.78702
G1 X16.987 Y116.07 E39.80347
G1 X16.727 Y114.919 E39.84272
G1 X16.691 Y114.708 E39.84984
G1 X16.56 Y113.608 E39.88668
G1 X16.535 Y113.242 E39.89889
G1 X16.507 Y112.597 E39.92036
G1 X16.5 Y112.119 E39.93626
G1 X16.501 Y106.078 E40.13718
G1 X16.507 Y105.679 E40.15046
G1 X16.519 Y105.317 E40.1625
G1 X16.556 Y104.545 E40.18821
G1 X16.64 Y103.611 E40.2194
G1 X16.751 Y102.943 E40.24192
G1 X16.795 Y102.72 E40.24948
G1 X17.071 Y101.622 E40.28714
G1 X17.206 Y101.182 E40.30245
G1 X17.519 Y100.298 E40.33364
G1 X17.801 Y99.658 E40.3569
G1 X17.994 Y99.255 E40.37176
G1 X18.435 Y98.427 E40.40296
G1 X18.738 Y97.942 E40.42198
G1 X18.925 Y97.659 E40.43326
G1 X19.366 Y97.039 E40.45857
G1 X19.493 Y96.873 E40.46552
G1 X20.297 Y95.936 E40.50659
G1 X20.493 Y95.732 E40.51599
G1 X21.416 Y94.875 E40.55789
G1 X21.768 Y94.584 E40.57308
G1 X22.516 Y94.018 E40.60427
G1 X23.02 Y93.689 E40.62429
G1 X23.344 Y93.49 E40.63694
G1 X24.163 Y93.033 E40.66813
G1 X24.618 Y92.818 E40.68487
G1 X24.972 Y92.66 E40.69777
G1 X25.844 Y92.315 E40.72896
G1 X26.454 Y92.122 E40.75024
G1 X26.93 Y91.987 E40.76669
G1 X28.081 Y91.727 E40.80594
G1 X28.292 Y91.691 E40.81306
G1 X29.388 Y91.56 E40.84977
G1 X29.752 Y91.535 E40.86191
G1 X30.409 Y91.507 E40.88378
G1 X30.739 Y91.502 E40.89475
G1 X203.793 Y91.5 E46.65055
G1 X203.949 Y91.501 E46.65574
G1 X204.655 Y91.511 E46.67923
G1 F1500 E40.17923
;MESH:Servo 2 Arm.stl
G0 F6000 X204.495 Y101.835
G0 X204.495 Y102.92
G0 X205.953 Y103.81
