;FLAVOR:Marlin
;TIME:7956
;Filament used: 6.30208m
;Layer height: 0.2
;MINX:56.506
;MINY:56.51
;MINZ:0.2
;MAXX:178.482
;MAXY:178.49
;MAXZ:3.4
;Generated with Cura_SteamEngine 4.6.1
M140 S60
M105
M190 S60
M104 S200
M105
M109 S200
M82 ;absolute extrusion mode
; Ender 3 Custom Start G-code
G92 E0 ; Reset Extruder
G28 ; Home all axes
G1 Z2.0 F3000 ; Move Z Axis up little to prevent scratching of Heat Bed
G1 X0.1 Y20 Z0.3 F5000.0 ; Move to start position
G1 X0.1 Y200.0 Z0.3 F1500.0 E15 ; Draw the first line
G1 X0.4 Y200.0 Z0.3 F5000.0 ; Move to side a little
G1 X0.4 Y20 Z0.3 F1500.0 E30 ; Draw the second line
G92 E0 ; Reset Extruder
G1 Z2.0 F3000 ; Move Z Axis up little to prevent scratching of Heat Bed
G1 X5 Y20 Z0.3 F5000.0 ; Move over to prevent blob squish
G92 E0
G92 E0
G1 F1500 E-6.5
;LAYER_COUNT:17
;LAYER:0
M107
G0 F6000 X120.25 Y57.372 Z0.2
;TYPE:SKIRT
G1 F1500 E0
G1 F1200 X121.956 Y57.474 E0.05684
G1 X122.3 Y57.501 E0.06832
G1 X124.272 Y57.691 E0.13421
G1 X125.968 Y57.908 E0.19108
G1 X126.304 Y57.957 E0.20238
G1 X127.946 Y58.223 E0.2577
G1 X128.284 Y58.284 E0.26912
G1 X129.946 Y58.611 E0.32546
G1 X130.281 Y58.683 E0.33686
G1 X131.907 Y59.06 E0.39237
G1 X132.24 Y59.143 E0.40379
G1 X133.858 Y59.576 E0.4595
G1 X134.19 Y59.671 E0.47098
G1 X135.817 Y60.166 E0.52755
G1 X136.139 Y60.27 E0.5388
G1 X137.726 Y60.811 E0.59457
G1 X138.052 Y60.928 E0.60609
G1 X139.6 Y61.515 E0.66115
G1 X139.915 Y61.64 E0.67242
G1 X141.471 Y62.29 E0.72851
G1 X141.788 Y62.429 E0.74002
G1 X143.366 Y63.152 E0.79775
G1 X143.671 Y63.298 E0.809
G1 X145.084 Y64.003 E0.86152
G1 X145.388 Y64.161 E0.87292
G1 X146.889 Y64.974 E0.92969
G1 X147.19 Y65.144 E0.94119
G1 X148.696 Y66.027 E0.99926
G1 X148.987 Y66.204 E1.01058
G1 X150.335 Y67.056 E1.06362
G1 X150.618 Y67.241 E1.07487
G1 X152.05 Y68.214 E1.13245
G1 X152.341 Y68.42 E1.14431
G1 X153.695 Y69.411 E1.20012
G1 X153.96 Y69.612 E1.21118
G1 X155.279 Y70.645 E1.2669
G1 X155.55 Y70.864 E1.27849
G1 X156.818 Y71.929 E1.33357
G1 X157.069 Y72.148 E1.34465
G1 X158.333 Y73.282 E1.40113
G1 X158.59 Y73.52 E1.41278
G1 X159.825 Y74.707 E1.46975
G1 X160.072 Y74.952 E1.48132
G1 X161.211 Y76.124 E1.53568
G1 X161.438 Y76.365 E1.54669
G1 X162.579 Y77.618 E1.60305
G1 X162.811 Y77.882 E1.61474
G1 X163.9 Y79.164 E1.67069
G1 X164.113 Y79.424 E1.68187
G1 X165.148 Y80.727 E1.73722
G1 X165.36 Y81.004 E1.74882
G1 X166.39 Y82.396 E1.80641
G1 X166.59 Y82.675 E1.81783
G1 X167.508 Y84.007 E1.87163
G1 X167.687 Y84.277 E1.88241
G1 X168.594 Y85.687 E1.93817
G1 X168.788 Y86 E1.95042
G1 X169.678 Y87.5 E2.00843
G1 X169.841 Y87.785 E2.01935
G1 X170.613 Y89.187 E2.07258
G1 X170.772 Y89.488 E2.0839
G1 X171.546 Y91.012 E2.14075
G1 X171.7 Y91.327 E2.15242
G1 X172.413 Y92.859 E2.20862
G1 X172.553 Y93.176 E2.22015
G1 X173.335 Y95.029 E2.28704
G1 X173.926 Y96.553 E2.34141
G1 X174.05 Y96.89 E2.35335
G1 X174.617 Y98.52 E2.41075
G1 X174.723 Y98.841 E2.42199
G1 X175.208 Y100.4 E2.4763
G1 X175.303 Y100.727 E2.48762
G1 X175.752 Y102.361 E2.54398
G1 X175.839 Y102.697 E2.55553
G1 X176.231 Y104.34 E2.61171
G1 X176.303 Y104.667 E2.62285
G1 X176.643 Y106.333 E2.6794
G1 X176.707 Y106.679 E2.6911
G1 X176.984 Y108.324 E2.74659
G1 X177.035 Y108.662 E2.75795
G1 X177.259 Y110.332 E2.814
G1 X177.3 Y110.677 E2.82555
G1 X177.466 Y112.344 E2.88127
G1 X177.494 Y112.681 E2.89252
G1 X177.606 Y114.373 E2.94892
G1 X177.623 Y114.719 E2.96044
G1 X177.677 Y116.395 E3.01621
G1 X177.682 Y116.735 E3.02752
G1 X177.68 Y118.399 E3.08287
G1 X177.674 Y118.739 E3.09418
G1 X177.616 Y120.417 E3.15002
G1 X177.598 Y120.761 E3.16148
G1 X177.482 Y122.456 E3.21799
G1 X177.453 Y122.795 E3.2293
G1 X177.284 Y124.452 E3.2847
G1 X177.244 Y124.792 E3.29609
G1 X177.015 Y126.475 E3.35258
G1 X176.963 Y126.815 E3.36402
G1 X176.687 Y128.433 E3.41861
G1 X176.623 Y128.774 E3.43015
G1 X176.279 Y130.446 E3.48693
G1 X176.204 Y130.778 E3.49825
G1 X175.81 Y132.414 E3.55422
G1 X175.724 Y132.748 E3.56569
G1 X175.286 Y134.33 E3.62029
G1 X175.194 Y134.642 E3.6311
G1 X174.707 Y136.205 E3.68555
G1 X174.597 Y136.539 E3.69725
G1 X174.015 Y138.203 E3.75588
G1 X173.893 Y138.533 E3.76758
G1 X173.285 Y140.096 E3.82336
G1 X173.157 Y140.41 E3.83464
G1 X172.508 Y141.927 E3.88952
G1 X172.369 Y142.238 E3.90085
G1 X171.661 Y143.751 E3.95641
G1 X171.511 Y144.058 E3.96778
G1 X170.726 Y145.599 E4.0253
G1 X170.565 Y145.902 E4.03671
G1 X169.782 Y147.319 E4.09056
G1 X169.612 Y147.615 E4.10191
G1 X168.732 Y149.089 E4.15901
G1 X168.549 Y149.384 E4.17055
G1 X167.64 Y150.795 E4.22638
G1 X167.451 Y151.077 E4.23767
G1 X166.499 Y152.452 E4.29329
G1 X166.297 Y152.733 E4.3048
G1 X165.071 Y154.373 E4.37291
G1 X164.018 Y155.693 E4.42907
G1 X163.805 Y155.951 E4.4402
G1 X162.75 Y157.188 E4.49427
G1 X162.516 Y157.453 E4.50603
G1 X161.339 Y158.74 E4.56404
G1 X161.106 Y158.986 E4.57531
G1 X159.98 Y160.138 E4.62888
G1 X159.743 Y160.373 E4.63999
G1 X158.5 Y161.564 E4.69724
G1 X158.238 Y161.806 E4.70911
G1 X156.963 Y162.945 E4.76597
G1 X156.709 Y163.164 E4.77712
G1 X155.479 Y164.192 E4.83044
G1 X155.215 Y164.406 E4.84174
G1 X153.851 Y165.471 E4.8993
G1 X153.579 Y165.676 E4.91063
G1 X152.243 Y166.649 E4.9656
G1 X151.954 Y166.852 E4.97735
G1 X150.535 Y167.812 E5.03433
G1 X150.255 Y167.995 E5.04545
G1 X148.845 Y168.883 E5.10088
G1 X148.544 Y169.065 E5.11258
G1 X147.097 Y169.908 E5.16828
G1 X146.805 Y170.072 E5.17941
G1 X145.326 Y170.87 E5.23531
G1 X145.023 Y171.027 E5.24666
G1 X143.518 Y171.775 E5.30256
G1 X143.207 Y171.923 E5.31401
G1 X141.666 Y172.625 E5.37033
G1 X141.351 Y172.762 E5.38176
G1 X139.811 Y173.402 E5.43723
G1 X139.493 Y173.528 E5.4486
G1 X137.943 Y174.112 E5.5037
G1 X137.621 Y174.227 E5.51507
G1 X135.998 Y174.777 E5.57206
G1 X135.666 Y174.883 E5.58366
G1 X134.096 Y175.356 E5.63819
G1 X133.773 Y175.448 E5.64936
G1 X132.109 Y175.89 E5.70663
G1 X131.776 Y175.972 E5.71803
G1 X130.176 Y176.34 E5.77264
G1 X129.84 Y176.412 E5.78407
G1 X128.171 Y176.737 E5.84062
G1 X127.834 Y176.797 E5.85201
G1 X126.179 Y177.062 E5.90775
G1 X125.836 Y177.111 E5.91928
G1 X124.155 Y177.322 E5.97563
G1 X123.812 Y177.359 E5.9871
G1 X122.157 Y177.51 E6.04237
G1 X121.821 Y177.535 E6.05358
G1 X120.149 Y177.632 E6.10929
G1 X119.806 Y177.646 E6.1207
G1 X118.122 Y177.687 E6.17673
G1 X117.784 Y177.69 E6.18797
G1 X116.08 Y177.675 E6.24465
G1 X115.729 Y177.665 E6.25633
G1 X114.065 Y177.593 E6.31173
G1 X113.721 Y177.573 E6.32319
G1 X112.062 Y177.445 E6.37853
G1 X111.727 Y177.413 E6.38972
G1 X110.053 Y177.228 E6.44574
G1 X109.712 Y177.185 E6.45717
G1 X108.047 Y176.944 E6.51313
G1 X107.716 Y176.89 E6.52428
G1 X106.091 Y176.6 E6.57918
G1 X105.749 Y176.533 E6.59077
G1 X104.071 Y176.174 E6.64785
G1 X103.738 Y176.097 E6.65921
G1 X102.101 Y175.689 E6.71533
G1 X101.763 Y175.599 E6.72696
G1 X100.186 Y175.148 E6.78151
G1 X99.868 Y175.051 E6.79257
G1 X98.245 Y174.529 E6.84928
G1 X97.91 Y174.415 E6.86105
G1 X96.32 Y173.842 E6.91726
G1 X96.005 Y173.723 E6.92846
G1 X94.435 Y173.098 E6.98466
G1 X94.114 Y172.964 E6.99623
G1 X92.594 Y172.298 E7.05143
G1 X92.288 Y172.157 E7.06263
G1 X90.774 Y171.433 E7.11845
G1 X90.465 Y171.279 E7.12993
G1 X88.972 Y170.502 E7.18591
G1 X88.675 Y170.341 E7.19715
G1 X87.207 Y169.514 E7.25319
G1 X86.91 Y169.34 E7.26464
G1 X85.53 Y168.5 E7.31837
G1 X85.248 Y168.322 E7.32946
G1 X83.784 Y167.364 E7.38766
G1 X83.487 Y167.162 E7.3996
G1 X82.12 Y166.197 E7.45526
G1 X81.846 Y165.997 E7.46654
G1 X80.521 Y164.994 E7.52181
G1 X80.255 Y164.785 E7.53306
G1 X78.936 Y163.716 E7.58953
G1 X78.668 Y163.491 E7.60117
G1 X77.371 Y162.364 E7.65832
G1 X77.12 Y162.139 E7.66953
G1 X75.956 Y161.058 E7.72237
G1 X75.714 Y160.826 E7.73352
G1 X74.49 Y159.612 E7.79085
G1 X74.244 Y159.359 E7.80259
G1 X73.068 Y158.109 E7.85967
G1 X72.836 Y157.855 E7.87111
G1 X71.774 Y156.647 E7.92461
G1 X71.559 Y156.393 E7.93568
G1 X70.481 Y155.083 E7.99211
G1 X70.263 Y154.809 E8.00375
G1 X69.24 Y153.475 E8.05967
G1 X69.039 Y153.204 E8.07089
G1 X68.05 Y151.822 E8.12741
G1 X67.851 Y151.533 E8.13908
G1 X66.917 Y150.128 E8.1952
G1 X66.734 Y149.843 E8.20646
G1 X65.849 Y148.411 E8.26245
G1 X65.673 Y148.115 E8.27391
G1 X64.841 Y146.661 E8.32962
G1 X64.674 Y146.358 E8.34113
G1 X63.884 Y144.862 E8.3974
G1 X63.73 Y144.557 E8.40876
G1 X63.007 Y143.069 E8.46379
G1 X62.864 Y142.761 E8.47508
G1 X62.039 Y140.897 E8.54288
G1 X61.413 Y139.354 E8.59826
G1 X61.293 Y139.041 E8.60941
G1 X60.723 Y137.492 E8.66431
G1 X60.606 Y137.158 E8.67608
G1 X60.068 Y135.523 E8.73333
G1 X59.968 Y135.2 E8.74457
G1 X59.496 Y133.587 E8.80047
G1 X59.403 Y133.25 E8.8121
G1 X58.985 Y131.616 E8.8682
G1 X58.907 Y131.286 E8.87948
G1 X58.547 Y129.655 E8.93503
G1 X58.481 Y129.331 E8.94603
G1 X58.18 Y127.721 E9.0005
G1 X58.122 Y127.38 E9.01201
G1 X57.864 Y125.683 E9.0691
G1 X57.817 Y125.33 E9.08094
G1 X57.588 Y123.322 E9.14816
G1 X57.449 Y121.651 E9.20393
G1 X57.426 Y121.307 E9.2154
G1 X57.343 Y119.622 E9.27151
G1 X57.332 Y119.278 E9.28296
G1 X57.306 Y117.604 E9.33864
G1 X57.307 Y117.264 E9.34995
G1 X57.348 Y115.239 E9.41732
G1 X57.434 Y113.569 E9.47293
G1 X57.458 Y113.225 E9.4844
G1 X57.602 Y111.541 E9.54062
G1 X57.637 Y111.2 E9.55202
G1 X57.836 Y109.534 E9.60782
G1 X57.881 Y109.203 E9.61893
G1 X58.136 Y107.535 E9.67506
G1 X58.195 Y107.192 E9.68663
G1 X58.561 Y105.269 E9.75174
G1 X58.928 Y103.616 E9.80806
G1 X59.01 Y103.276 E9.81969
G1 X59.435 Y101.631 E9.8762
G1 X59.526 Y101.302 E9.88755
G1 X59.996 Y99.705 E9.94292
G1 X60.098 Y99.378 E9.95432
G1 X60.63 Y97.772 E10.01059
G1 X60.744 Y97.446 E10.02207
G1 X61.334 Y95.848 E10.07873
G1 X61.462 Y95.52 E10.09044
G1 X62.091 Y93.982 E10.14571
G1 X62.223 Y93.674 E10.15685
G1 X62.906 Y92.149 E10.21243
G1 X63.047 Y91.847 E10.22351
G1 X63.782 Y90.34 E10.27928
G1 X63.94 Y90.03 E10.29085
G1 X64.736 Y88.53 E10.34733
G1 X64.906 Y88.222 E10.35903
G1 X65.754 Y86.749 E10.41556
G1 X65.926 Y86.461 E10.42672
G1 X66.8 Y85.052 E10.48187
G1 X66.988 Y84.761 E10.49339
G1 X67.911 Y83.38 E10.54864
G1 X68.103 Y83.102 E10.55988
G1 X69.106 Y81.704 E10.6171
G1 X69.31 Y81.43 E10.62846
G1 X70.298 Y80.146 E10.68235
G1 X70.516 Y79.873 E10.69397
G1 X71.613 Y78.544 E10.75129
G1 X71.833 Y78.286 E10.76256
G1 X72.919 Y77.056 E10.81714
G1 X73.141 Y76.813 E10.82808
G1 X74.311 Y75.571 E10.88484
G1 X74.567 Y75.308 E10.89704
G1 X75.781 Y74.109 E10.95379
G1 X76.026 Y73.875 E10.96506
G1 X77.241 Y72.752 E11.02009
G1 X77.486 Y72.533 E11.03102
G1 X78.727 Y71.458 E11.08563
G1 X78.993 Y71.236 E11.09715
G1 X80.329 Y70.156 E11.15429
G1 X80.601 Y69.943 E11.16578
G1 X81.938 Y68.935 E11.22147
G1 X82.219 Y68.731 E11.23302
G1 X83.607 Y67.757 E11.28942
G1 X83.892 Y67.564 E11.30087
G1 X85.314 Y66.636 E11.35734
G1 X85.599 Y66.456 E11.36856
G1 X86.994 Y65.61 E11.42282
G1 X87.289 Y65.438 E11.43418
G1 X88.794 Y64.593 E11.49158
G1 X89.106 Y64.425 E11.50337
G1 X90.579 Y63.664 E11.55851
G1 X90.875 Y63.517 E11.56951
G1 X92.391 Y62.795 E11.62535
G1 X92.711 Y62.649 E11.63705
G1 X94.234 Y61.987 E11.69229
G1 X94.541 Y61.86 E11.70334
G1 X96.135 Y61.228 E11.76037
G1 X96.464 Y61.104 E11.77206
G1 X98.038 Y60.542 E11.82765
G1 X98.357 Y60.434 E11.83885
G1 X99.962 Y59.92 E11.89491
G1 X100.296 Y59.819 E11.90651
G1 X101.89 Y59.368 E11.96161
G1 X102.21 Y59.283 E11.97262
G1 X103.858 Y58.874 E12.0291
G1 X104.195 Y58.797 E12.04059
G1 X105.842 Y58.447 E12.0966
G1 X106.191 Y58.379 E12.10842
G1 X107.819 Y58.092 E12.16341
G1 X108.152 Y58.039 E12.17462
G1 X109.83 Y57.8 E12.23099
G1 X110.173 Y57.757 E12.24249
G1 X111.858 Y57.575 E12.29886
G1 X112.189 Y57.545 E12.30992
G1 X113.839 Y57.421 E12.36495
G1 X114.189 Y57.4 E12.37661
G1 X115.889 Y57.331 E12.4332
G1 X116.223 Y57.323 E12.44431
G1 X117.889 Y57.31 E12.49973
G1 X118.237 Y57.314 E12.5113
G1 X120.25 Y57.372 E12.57828
G0 F6000 X120.274 Y56.973
G1 F1200 X121.98 Y57.075 E12.63512
G1 X122.338 Y57.102 E12.64707
G1 X123.968 Y57.255 E12.70152
G1 X124.322 Y57.295 E12.71337
G1 X126.018 Y57.512 E12.77024
G1 X126.368 Y57.562 E12.782
G1 X128.01 Y57.828 E12.83732
G1 X128.361 Y57.891 E12.84918
G1 X130.023 Y58.218 E12.90552
G1 X130.371 Y58.293 E12.91736
G1 X131.997 Y58.67 E12.97288
G1 X132.343 Y58.756 E12.98473
G1 X133.961 Y59.189 E13.04044
G1 X134.306 Y59.288 E13.05238
G1 X135.933 Y59.783 E13.10894
G1 X136.268 Y59.891 E13.12065
G1 X137.855 Y60.432 E13.17642
G1 X138.193 Y60.554 E13.18837
G1 X139.741 Y61.141 E13.24343
G1 X140.069 Y61.271 E13.25517
G1 X141.625 Y61.921 E13.31125
G1 X141.954 Y62.065 E13.3232
G1 X143.532 Y62.788 E13.38093
G1 X143.849 Y62.94 E13.39262
G1 X145.262 Y63.645 E13.44514
G1 X145.578 Y63.809 E13.45699
G1 X147.079 Y64.622 E13.51376
G1 X147.392 Y64.799 E13.52572
G1 X148.898 Y65.682 E13.58379
G1 X149.2 Y65.866 E13.59555
G1 X150.548 Y66.718 E13.64859
G1 X150.842 Y66.91 E13.66027
G1 X152.274 Y67.883 E13.71785
G1 X152.578 Y68.097 E13.73021
G1 X153.932 Y69.088 E13.78602
G1 X154.207 Y69.297 E13.79751
G1 X155.526 Y70.33 E13.85323
G1 X155.807 Y70.558 E13.86527
G1 X157.075 Y71.623 E13.92035
G1 X157.337 Y71.85 E13.93188
G1 X158.601 Y72.984 E13.98836
G1 X158.867 Y73.232 E14.00045
G1 X160.102 Y74.419 E14.05742
G1 X160.359 Y74.673 E14.06944
G1 X161.498 Y75.845 E14.1238
G1 X161.733 Y76.096 E14.13523
G1 X162.874 Y77.349 E14.1916
G1 X163.116 Y77.623 E14.20376
G1 X164.205 Y78.905 E14.25971
G1 X164.426 Y79.175 E14.27131
G1 X165.461 Y80.478 E14.32666
G1 X165.682 Y80.766 E14.33873
G1 X166.712 Y82.158 E14.39633
G1 X166.919 Y82.448 E14.40818
G1 X168.024 Y84.06 E14.47318
G1 X168.931 Y85.47 E14.52894
G1 X169.132 Y85.796 E14.54168
G1 X170.022 Y87.296 E14.59969
G1 X170.191 Y87.592 E14.61103
G1 X170.963 Y88.994 E14.66426
G1 X171.129 Y89.307 E14.67604
G1 X171.903 Y90.831 E14.73289
G1 X172.062 Y91.158 E14.74499
G1 X172.775 Y92.69 E14.80119
G1 X172.922 Y93.019 E14.81317
G1 X173.582 Y94.573 E14.86933
G1 X173.708 Y94.884 E14.88049
G1 X174.299 Y96.408 E14.93486
G1 X174.428 Y96.758 E14.94726
G1 X174.995 Y98.388 E15.00466
G1 X175.105 Y98.722 E15.01636
G1 X175.59 Y100.281 E15.07066
G1 X175.689 Y100.621 E15.08244
G1 X176.138 Y102.255 E15.1388
G1 X176.228 Y102.604 E15.15079
G1 X176.62 Y104.247 E15.20697
G1 X176.695 Y104.587 E15.21855
G1 X177.035 Y106.253 E15.2751
G1 X177.102 Y106.613 E15.28728
G1 X177.379 Y108.258 E15.34277
G1 X177.432 Y108.609 E15.35457
G1 X177.656 Y110.279 E15.41062
G1 X177.698 Y110.638 E15.42264
G1 X177.864 Y112.305 E15.47836
G1 X177.893 Y112.655 E15.49004
G1 X178.005 Y114.347 E15.54644
G1 X178.023 Y114.706 E15.55839
G1 X178.077 Y116.382 E15.61416
G1 X178.082 Y116.736 E15.62594
G1 X178.08 Y118.4 E15.68128
G1 X178.074 Y118.753 E15.69303
G1 X178.016 Y120.431 E15.74887
G1 X177.997 Y120.789 E15.76079
G1 X177.881 Y122.484 E15.8173
G1 X177.851 Y122.836 E15.82905
G1 X177.682 Y124.493 E15.88445
G1 X177.64 Y124.846 E15.89627
G1 X177.411 Y126.529 E15.95277
G1 X177.357 Y126.882 E15.96464
G1 X177.081 Y128.5 E16.01924
G1 X177.015 Y128.854 E16.03121
G1 X176.671 Y130.526 E16.08799
G1 X176.593 Y130.872 E16.09979
G1 X176.199 Y132.508 E16.15576
G1 X176.11 Y132.854 E16.16764
G1 X175.672 Y134.436 E16.22223
G1 X175.576 Y134.761 E16.23351
G1 X175.089 Y136.324 E16.28796
G1 X174.975 Y136.671 E16.3001
G1 X174.393 Y138.335 E16.35874
G1 X174.266 Y138.678 E16.3709
G1 X173.658 Y140.241 E16.42668
G1 X173.525 Y140.567 E16.43839
G1 X172.876 Y142.084 E16.49327
G1 X172.731 Y142.408 E16.50508
G1 X172.023 Y143.921 E16.56064
G1 X171.867 Y144.239 E16.57242
G1 X171.082 Y145.78 E16.62994
G1 X170.915 Y146.096 E16.64183
G1 X170.132 Y147.513 E16.69567
G1 X169.955 Y147.82 E16.70746
G1 X169.075 Y149.294 E16.76456
G1 X168.885 Y149.601 E16.77657
G1 X167.976 Y151.012 E16.83239
G1 X167.78 Y151.305 E16.84412
G1 X166.828 Y152.68 E16.89974
G1 X166.618 Y152.972 E16.9117
G1 X165.602 Y154.338 E16.96833
G1 X165.383 Y154.622 E16.98025
G1 X164.33 Y155.942 E17.03642
G1 X164.109 Y156.211 E17.04799
G1 X163.054 Y157.448 E17.10207
G1 X162.811 Y157.723 E17.11427
G1 X161.634 Y159.01 E17.17228
G1 X161.392 Y159.265 E17.18397
G1 X160.02 Y160.662 E17.2491
G1 X158.777 Y161.853 E17.30636
G1 X158.505 Y162.104 E17.31867
G1 X157.23 Y163.243 E17.37553
G1 X156.966 Y163.471 E17.38713
G1 X155.736 Y164.499 E17.44045
G1 X155.461 Y164.721 E17.4522
G1 X154.097 Y165.786 E17.50976
G1 X153.814 Y165.999 E17.52154
G1 X152.478 Y166.972 E17.57651
G1 X152.178 Y167.184 E17.58873
G1 X150.759 Y168.144 E17.64571
