;FLAVOR:Marlin
;TIME:687
;Filament used: 0.188006m
;Layer height: 0.12
;MINX:100.88
;MINY:104.591
;MINZ:0.12
;MAXX:145.484
;MAXY:142.041
;MAXZ:6
;Generated with Cura_SteamEngine 4.6.1
M140 S60
M105
M190 S60
M104 S200
M105
M109 S200
M82 ;absolute extrusion mode
; Ender 3 Custom Start G-code
G92 E0 ; Reset Extruder
G28 ; Home all axes
G1 Z2.0 F3000 ; Move Z Axis up little to prevent scratching of Heat Bed
G1 X0.1 Y20 Z0.3 F5000.0 ; Move to start position
G1 X0.1 Y200.0 Z0.3 F1500.0 E15 ; Draw the first line
G1 X0.4 Y200.0 Z0.3 F5000.0 ; Move to side a little
G1 X0.4 Y20 Z0.3 F1500.0 E30 ; Draw the second line
G92 E0 ; Reset Extruder
G1 Z2.0 F3000 ; Move Z Axis up little to prevent scratching of Heat Bed
G1 X5 Y20 Z0.3 F5000.0 ; Move over to prevent blob squish
G92 E0
G92 E0
G1 F1500 E-6.5
;LAYER_COUNT:50
;LAYER:0
M107
G0 F6000 X119.169 Y105.482 Z0.12
;TYPE:SKIRT
G1 F1500 E0
G1 F1200 X119.735 Y105.556 E0.01139
G1 X122.389 Y105.867 E0.06472
G1 X124.867 Y106.086 E0.11436
G1 X127.434 Y106.24 E0.16568
G1 X130.139 Y106.325 E0.21969
G1 X130.713 Y106.359 E0.23116
G1 X130.94 Y106.379 E0.23571
G1 X131.644 Y106.466 E0.24987
G1 X131.959 Y106.516 E0.25623
G1 X132.642 Y106.649 E0.27012
G1 X133.156 Y106.767 E0.28064
G1 X133.895 Y106.966 E0.29591
G1 X134.124 Y107.037 E0.3007
G1 X134.723 Y107.243 E0.31334
G1 X135.047 Y107.366 E0.32026
G1 X135.659 Y107.621 E0.33349
G1 X135.966 Y107.761 E0.34022
G1 X136.357 Y107.95 E0.34889
G1 X136.593 Y108.07 E0.35417
G1 X137.304 Y108.468 E0.37043
G1 X137.542 Y108.614 E0.376
G1 X138.215 Y109.064 E0.39216
G1 X138.602 Y109.346 E0.40172
G1 X139.208 Y109.824 E0.41712
G1 X139.41 Y109.996 E0.42241
G1 X139.693 Y110.246 E0.42995
G1 X139.899 Y110.435 E0.43553
G1 X140.596 Y111.14 E0.45531
G1 X140.979 Y111.567 E0.46676
G1 X141.465 Y112.151 E0.48192
G1 X141.613 Y112.343 E0.48676
G1 X142.118 Y113.06 E0.50426
G1 X142.421 Y113.532 E0.51545
G1 X142.852 Y114.27 E0.53251
G1 X143.005 Y114.559 E0.53903
G1 X143.318 Y115.205 E0.55336
G1 X143.433 Y115.465 E0.55903
G1 X143.744 Y116.254 E0.57596
G1 X143.951 Y116.852 E0.58858
G1 X144.208 Y117.718 E0.60661
G1 X144.344 Y118.346 E0.61943
G1 X144.495 Y119.168 E0.63611
G1 X144.639 Y120.306 E0.659
G1 X144.655 Y120.537 E0.66362
G1 X144.673 Y120.89 E0.67068
G1 X144.685 Y121.238 E0.67763
G1 X144.679 Y122.085 E0.69453
G1 X144.665 Y122.373 E0.70028
G1 X144.535 Y123.576 E0.72443
G1 X144.389 Y124.441 E0.74194
G1 X144.199 Y125.324 E0.75996
G1 X144.051 Y125.837 E0.77062
G1 X143.896 Y126.324 E0.78082
G1 X143.575 Y127.193 E0.7993
G1 X143.4 Y127.608 E0.80829
G1 X143.047 Y128.357 E0.82482
G1 X142.885 Y128.668 E0.83181
G1 X142.515 Y129.319 E0.84676
G1 X142.324 Y129.628 E0.85401
G1 X141.877 Y130.292 E0.86998
G1 X141.617 Y130.647 E0.87876
G1 X141.031 Y131.374 E0.89739
G1 X140.689 Y131.761 E0.9077
G1 X139.983 Y132.485 E0.92788
G1 X139.734 Y132.716 E0.93466
G1 X139.419 Y132.996 E0.94307
G1 X139.221 Y133.165 E0.94827
G1 X138.689 Y133.59 E0.96185
G1 X138.388 Y133.814 E0.96934
G1 X137.78 Y134.232 E0.98407
G1 X137.507 Y134.406 E0.99053
G1 X136.772 Y134.833 E1.00749
G1 X136.481 Y134.986 E1.01405
G1 X135.966 Y135.239 E1.0255
G1 X135.659 Y135.379 E1.03223
G1 X135.057 Y135.63 E1.04525
G1 X134.734 Y135.753 E1.05215
G1 X134.113 Y135.967 E1.06526
G1 X133.883 Y136.038 E1.07006
G1 X133.149 Y136.235 E1.08523
G1 X132.16 Y136.459 E1.10546
G1 X129.89 Y136.928 E1.15172
G1 X127.415 Y137.512 E1.20247
G1 X124.98 Y138.159 E1.25275
G1 X122.512 Y138.892 E1.30412
G1 X120.099 Y139.682 E1.35479
G1 X118.394 Y140.287 E1.3909
G1 X117.855 Y140.484 E1.40235
G1 X117.307 Y140.67 E1.4139
G1 X116.438 Y140.916 E1.43192
G1 X115.667 Y141.066 E1.4476
G1 X115.325 Y141.119 E1.4545
G1 X114.427 Y141.217 E1.47253
G1 X113.831 Y141.239 E1.48443
G1 X113.529 Y141.241 E1.49046
G1 X112.626 Y141.207 E1.50849
G1 X111.738 Y141.094 E1.52635
G1 X111.283 Y141.016 E1.53557
G1 X110.4 Y140.824 E1.5536
G1 X109.538 Y140.555 E1.57162
G1 X109.013 Y140.349 E1.58287
G1 X108.785 Y140.252 E1.58782
G1 X107.97 Y139.862 E1.60585
G1 X107.159 Y139.379 E1.62469
G1 X106.906 Y139.212 E1.63074
G1 X106.175 Y138.681 E1.64877
G1 X105.516 Y138.11 E1.66617
G1 X105.35 Y137.953 E1.67073
G1 X104.722 Y137.304 E1.68875
G1 X104.359 Y136.87 E1.70004
G1 X104.219 Y136.693 E1.70454
G1 X103.691 Y135.96 E1.72257
G1 X103.41 Y135.507 E1.73321
G1 X103.302 Y135.322 E1.73749
G1 X102.997 Y134.76 E1.75025
G1 X102.9 Y134.567 E1.75456
G1 X102.514 Y133.7 E1.7735
G1 X102.437 Y133.503 E1.77772
G1 X102.039 Y132.252 E1.80391
G1 X101.99 Y132.055 E1.80797
G1 X101.811 Y131.17 E1.82598
G1 X101.696 Y129.992 E1.8496
G1 X101.68 Y129.583 E1.85777
G1 X101.684 Y128.68 E1.87579
G1 X101.807 Y127.529 E1.89889
G1 X101.857 Y127.225 E1.90504
G1 X102.043 Y126.341 E1.92307
G1 X102.358 Y125.333 E1.94414
G1 X102.824 Y124.083 E1.97077
G1 X103.192 Y123.14 E1.99097
G1 X104.048 Y120.756 E2.04152
G1 X104.836 Y118.346 E2.09212
G1 X105.566 Y115.883 E2.14338
G1 X105.843 Y114.849 E2.16474
G1 X106.057 Y114.095 E2.18038
G1 X106.495 Y112.859 E2.20655
G1 X106.658 Y112.479 E2.21481
G1 X107.05 Y111.666 E2.23282
G1 X107.519 Y110.881 E2.25107
G1 X107.653 Y110.678 E2.25592
G1 X108.184 Y109.947 E2.27395
G1 X108.976 Y109.062 E2.29765
G1 X109.3 Y108.74 E2.30677
G1 X109.968 Y108.133 E2.32478
G1 X110.687 Y107.586 E2.34281
G1 X111.087 Y107.324 E2.35235
G1 X111.388 Y107.136 E2.35943
G1 X112.174 Y106.692 E2.37745
G1 X113.099 Y106.278 E2.39767
G1 X113.439 Y106.146 E2.40495
G1 X114.295 Y105.857 E2.42298
G1 X115.489 Y105.588 E2.4474
G1 X115.912 Y105.519 E2.45596
G1 X116.809 Y105.413 E2.47398
G1 X117.874 Y105.391 E2.49524
G1 X118.161 Y105.4 E2.50097
G1 X119.169 Y105.482 E2.52115
G0 F6000 X119.221 Y105.085
G1 F1200 X119.836 Y105.166 E2.53353
G1 X122.397 Y105.466 E2.58499
G1 X124.928 Y105.689 E2.63569
G1 X127.435 Y105.839 E2.68581
G1 X130.152 Y105.925 E2.74006
G1 X130.748 Y105.961 E2.75198
G1 X130.975 Y105.981 E2.75652
G1 X131.707 Y106.071 E2.77124
G1 X132.022 Y106.121 E2.77761
G1 X132.732 Y106.259 E2.79204
G1 X133.246 Y106.377 E2.80256
G1 X134.013 Y106.583 E2.81841
G1 X134.242 Y106.654 E2.8232
G1 X134.865 Y106.869 E2.83635
G1 X135.189 Y106.992 E2.84327
G1 X135.825 Y107.258 E2.85702
G1 X136.132 Y107.398 E2.86376
G1 X136.538 Y107.593 E2.87274
G1 X136.774 Y107.713 E2.87803
G1 X137.513 Y108.127 E2.89493
G1 X137.751 Y108.273 E2.9005
G1 X138.451 Y108.741 E2.91731
G1 X138.838 Y109.023 E2.92686
G1 X139.467 Y109.519 E2.94285
G1 X139.669 Y109.691 E2.94814
G1 X139.963 Y109.951 E2.95598
G1 X140.169 Y110.14 E2.96155
G1 X140.894 Y110.873 E2.98213
G1 X141.277 Y111.3 E2.99358
G1 X141.781 Y111.907 E3.00932
G1 X141.929 Y112.099 E3.01416
G1 X142.454 Y112.844 E3.03235
G1 X142.757 Y113.316 E3.04354
G1 X143.205 Y114.082 E3.06125
G1 X143.358 Y114.371 E3.06777
G1 X143.684 Y115.043 E3.08268
G1 X143.799 Y115.303 E3.08835
G1 X144.122 Y116.124 E3.10596
G1 X144.329 Y116.722 E3.11859
G1 X144.592 Y117.604 E3.13695
G1 X144.738 Y118.274 E3.15064
G1 X144.889 Y119.096 E3.16732
G1 X145.038 Y120.279 E3.19111
G1 X145.054 Y120.51 E3.19573
G1 X145.073 Y120.877 E3.20307
G1 X145.085 Y121.225 E3.21002
G1 X145.078 Y122.105 E3.22758
G1 X145.064 Y122.393 E3.23333
G1 X144.929 Y123.642 E3.2584
G1 X144.783 Y124.507 E3.27591
G1 X144.591 Y125.407 E3.29427
G1 X144.432 Y125.958 E3.30572
G1 X144.277 Y126.445 E3.31592
G1 X143.943 Y127.349 E3.33515
G1 X143.768 Y127.764 E3.34414
G1 X143.402 Y128.542 E3.36129
G1 X143.24 Y128.853 E3.36829
G1 X142.856 Y129.529 E3.38381
G1 X142.665 Y129.838 E3.39106
G1 X142.2 Y130.528 E3.40766
G1 X141.94 Y130.883 E3.41644
G1 X141.331 Y131.639 E3.43582
G1 X140.989 Y132.026 E3.44612
G1 X140.255 Y132.778 E3.46709
G1 X140.006 Y133.009 E3.47387
G1 X139.679 Y133.3 E3.48261
G1 X139.481 Y133.469 E3.4878
G1 X138.927 Y133.911 E3.50194
G1 X138.626 Y134.135 E3.50943
G1 X137.995 Y134.57 E3.52473
G1 X137.722 Y134.744 E3.53119
G1 X136.958 Y135.187 E3.54881
G1 X136.667 Y135.34 E3.55537
G1 X136.132 Y135.602 E3.56726
G1 X135.825 Y135.742 E3.57399
G1 X135.199 Y136.004 E3.58754
G1 X134.876 Y136.127 E3.59443
G1 X134.231 Y136.349 E3.60805
G1 X134.001 Y136.42 E3.61285
G1 X133.238 Y136.625 E3.62862
G1 X132.241 Y136.851 E3.64902
G1 X129.957 Y137.323 E3.69556
G1 X127.537 Y137.893 E3.74517
G1 X125.05 Y138.555 E3.79653
G1 X122.644 Y139.269 E3.84662
G1 X120.243 Y140.056 E3.89704
G1 X118.485 Y140.679 E3.93426
G1 X117.993 Y140.859 E3.94472
G1 X117.432 Y141.05 E3.95654
G1 X116.547 Y141.301 E3.9749
G1 X115.728 Y141.461 E3.99155
G1 X115.386 Y141.514 E3.99846
G1 X114.471 Y141.615 E4.01683
G1 X113.833 Y141.639 E4.02957
G1 X113.531 Y141.641 E4.0356
G1 X112.611 Y141.607 E4.05397
G1 X111.67 Y141.489 E4.0729
G1 X111.215 Y141.411 E4.08211
G1 X110.315 Y141.216 E4.10049
G1 X109.436 Y140.944 E4.11885
G1 X108.856 Y140.717 E4.13128
G1 X108.628 Y140.62 E4.13622
G1 X107.798 Y140.223 E4.15458
G1 X106.939 Y139.713 E4.17452
G1 X106.686 Y139.546 E4.18057
G1 X105.94 Y139.005 E4.19896
G1 X105.241 Y138.4 E4.21741
G1 X105.075 Y138.243 E4.22197
G1 X104.435 Y137.582 E4.24033
G1 X104.045 Y137.118 E4.25242
G1 X103.905 Y136.941 E4.25693
G1 X103.366 Y136.195 E4.27529
G1 X103.065 Y135.709 E4.2867
G1 X102.957 Y135.524 E4.29098
G1 X102.64 Y134.94 E4.30424
G1 X102.543 Y134.747 E4.30855
G1 X102.141 Y133.846 E4.32824
G1 X102.064 Y133.649 E4.33246
G1 X101.65 Y132.349 E4.35968
G1 X101.601 Y132.152 E4.36374
G1 X101.418 Y131.249 E4.38212
G1 X101.296 Y130.007 E4.40703
G1 X101.28 Y129.598 E4.4152
G1 X101.284 Y128.678 E4.43355
G1 X101.413 Y127.464 E4.45792
G1 X101.463 Y127.16 E4.46407
G1 X101.651 Y126.259 E4.48243
G1 X101.983 Y125.194 E4.5047
G1 X102.451 Y123.937 E4.53146
G1 X102.819 Y122.996 E4.55163
G1 X103.674 Y120.612 E4.60217
G1 X104.451 Y118.236 E4.65206
G1 X105.178 Y115.781 E4.70315
G1 X105.458 Y114.74 E4.72466
G1 X105.672 Y113.986 E4.7403
G1 X106.127 Y112.701 E4.76751
G1 X106.29 Y112.321 E4.77576
G1 X106.69 Y111.492 E4.79413
G1 X107.186 Y110.66 E4.81346
G1 X107.32 Y110.457 E4.81831
G1 X107.86 Y109.712 E4.83667
G1 X108.694 Y108.778 E4.86166
G1 X109.018 Y108.456 E4.87078
G1 X109.698 Y107.836 E4.88914
G1 X110.43 Y107.278 E4.90751
G1 X110.875 Y106.985 E4.91814
G1 X111.176 Y106.797 E4.92523
G1 X111.977 Y106.343 E4.9436
G1 X112.955 Y105.906 E4.96498
G1 X113.295 Y105.774 E4.97225
G1 X114.167 Y105.478 E4.99063
G1 X115.424 Y105.193 E5.01635
G1 X115.847 Y105.124 E5.02491
G1 X116.762 Y105.016 E5.04329
G1 X117.886 Y104.991 E5.06573
G1 X118.173 Y105 E5.07146
G1 X119.221 Y105.085 E5.09244
G0 F6000 X119.273 Y104.689
G1 F1200 X119.859 Y104.766 E5.10424
G1 X122.446 Y105.069 E5.15622
G1 X124.951 Y105.29 E5.2064
G1 X127.437 Y105.439 E5.2561
G1 X130.164 Y105.525 E5.31055
G1 X130.783 Y105.562 E5.32292
G1 X131.01 Y105.582 E5.32747
G1 X131.769 Y105.676 E5.34273
G1 X132.084 Y105.726 E5.3491
G1 X132.821 Y105.869 E5.36408
G1 X133.335 Y105.987 E5.3746
G1 X134.132 Y106.201 E5.39107
G1 X134.361 Y106.272 E5.39586
G1 X135.007 Y106.495 E5.40949
G1 X135.331 Y106.618 E5.41641
G1 X135.991 Y106.894 E5.43069
G1 X136.298 Y107.034 E5.43742
G1 X136.72 Y107.237 E5.44676
G1 X136.956 Y107.357 E5.45205
G1 X137.722 Y107.786 E5.46957
G1 X137.96 Y107.932 E5.47514
G1 X138.686 Y108.418 E5.49258
G1 X139.073 Y108.7 E5.50213
G1 X139.726 Y109.215 E5.51873
G1 X139.928 Y109.387 E5.52402
G1 X140.234 Y109.657 E5.53217
G1 X140.44 Y109.846 E5.53774
G1 X141.192 Y110.606 E5.55908
G1 X141.575 Y111.033 E5.57053
G1 X142.098 Y111.662 E5.58685
G1 X142.246 Y111.854 E5.59169
G1 X142.791 Y112.628 E5.61058
G1 X143.094 Y113.1 E5.62177
G1 X143.559 Y113.895 E5.64015
G1 X143.712 Y114.184 E5.64668
G1 X144.05 Y114.881 E5.66214
G1 X144.165 Y115.141 E5.66781
G1 X144.5 Y115.993 E5.68608
G1 X144.707 Y116.591 E5.69871
G1 X144.976 Y117.489 E5.71742
G1 X145.131 Y118.202 E5.73198
G1 X145.282 Y119.024 E5.74866
G1 X145.437 Y120.251 E5.77334
G1 X145.453 Y120.482 E5.77796
G1 X145.472 Y120.863 E5.78557
G1 X145.484 Y121.211 E5.79252
G1 X145.478 Y122.124 E5.81074
G1 X145.464 Y122.412 E5.81649
G1 X145.324 Y123.709 E5.84253
G1 X145.178 Y124.574 E5.86003
G1 X144.982 Y125.491 E5.87875
G1 X144.813 Y126.079 E5.89096
G1 X144.658 Y126.566 E5.90116
G1 X144.312 Y127.504 E5.92111
G1 X144.137 Y127.919 E5.93009
G1 X143.757 Y128.727 E5.94791
G1 X143.595 Y129.038 E5.95491
G1 X143.196 Y129.74 E5.97103
G1 X143.005 Y130.049 E5.97827
G1 X142.522 Y130.765 E5.99551
G1 X142.262 Y131.12 E6.00429
G1 X141.631 Y131.904 E6.02438
G1 X141.289 Y132.291 E6.03468
G1 X140.527 Y133.071 E6.05644
G1 X140.278 Y133.302 E6.06322
G1 X139.938 Y133.605 E6.07231
G1 X139.74 Y133.774 E6.0775
G1 X139.166 Y134.232 E6.09216
G1 X138.865 Y134.456 E6.09965
G1 X138.21 Y134.907 E6.11552
G1 X137.937 Y135.081 E6.12198
G1 X137.144 Y135.541 E6.14027
G1 X136.853 Y135.694 E6.14683
G1 X136.298 Y135.966 E6.15917
G1 X135.991 Y136.106 E6.1659
G1 X135.342 Y136.378 E6.17994
G1 X135.019 Y136.501 E6.18684
G1 X134.349 Y136.732 E6.20098
G1 X134.119 Y136.803 E6.20579
G1 X133.327 Y137.015 E6.22215
G1 X132.322 Y137.242 E6.24271
G1 X130.092 Y137.703 E6.28815
G1 X127.594 Y138.292 E6.33937
G1 X125.194 Y138.93 E6.38893
G1 X122.746 Y139.657 E6.43989
G1 X120.362 Y140.438 E6.48995
G1 X118.655 Y141.043 E6.52609
G1 X118.13 Y141.235 E6.53725
G1 X117.558 Y141.43 E6.54931
G1 X116.656 Y141.686 E6.56802
G1 X115.79 Y141.856 E6.58563
G1 X115.448 Y141.909 E6.59254
G1 X114.515 Y142.013 E6.61127
G1 X113.836 Y142.039 E6.62483
G1 X113.534 Y142.041 E6.63086
G1 X112.597 Y142.007 E6.64957
G1 X111.602 Y141.883 E6.66958
G1 X111.147 Y141.805 E6.67879
G1 X110.231 Y141.607 E6.6975
G1 X109.334 Y141.332 E6.71622
G1 X108.7 Y141.085 E6.7298
G1 X108.472 Y140.988 E6.73474
G1 X107.625 Y140.584 E6.75347
G1 X106.718 Y140.046 E6.77451
G1 X106.465 Y139.879 E6.78056
G1 X105.705 Y139.33 E6.79927
G1 X104.966 Y138.691 E6.81877
G1 X104.8 Y138.534 E6.82333
G1 X104.147 Y137.861 E6.84204
G1 X103.732 Y137.366 E6.85493
G1 X103.592 Y137.189 E6.85944
G1 X103.042 Y136.429 E6.87816
G1 X102.719 Y135.911 E6.89034
G1 X102.611 Y135.726 E6.89462
G1 X102.283 Y135.12 E6.90837
G1 X102.186 Y134.927 E6.91268
G1 X101.769 Y133.991 E6.93313
G1 X101.692 Y133.794 E6.93735
G1 X101.388 Y132.907 E6.95606
G1 X101.213 Y132.248 E6.96967
G1 X101.026 Y131.329 E6.98838
G1 X100.896 Y130.023 E7.01457
G1 X100.88 Y129.614 E7.02274
G1 X100.884 Y128.676 E7.04146
G1 X101.018 Y127.399 E7.06708
G1 X101.068 Y127.095 E7.07323
G1 X101.259 Y126.177 E7.09194
G1 X101.608 Y125.055 E7.11539
G1 X102.079 Y123.792 E7.14229
G1 X102.442 Y122.864 E7.16218
G1 X103.296 Y120.482 E7.21268
G1 X104.071 Y118.113 E7.26242
G1 X104.792 Y115.679 E7.31308
G1 X105.073 Y114.631 E7.33473
G1 X105.287 Y113.877 E7.35037
G1 X105.581 Y112.986 E7.36909
G1 X105.76 Y112.544 E7.37861
G1 X105.923 Y112.164 E7.38686
G1 X106.329 Y111.318 E7.40559
G1 X106.852 Y110.44 E7.42598
G1 X106.986 Y110.237 E7.43084
G1 X107.535 Y109.477 E7.44955
G1 X108.412 Y108.495 E7.47582
G1 X108.736 Y108.173 E7.48494
G1 X109.429 Y107.541 E7.50365
G1 X110.173 Y106.97 E7.52237
G1 X110.663 Y106.645 E7.5341
G1 X110.964 Y106.457 E7.54119
G1 X111.78 Y105.995 E7.5599
G1 X112.81 Y105.533 E7.58243
G1 X113.15 Y105.401 E7.58971
G1 X114.038 Y105.099 E7.60842
G1 X115.36 Y104.798 E7.63548
G1 X115.783 Y104.729 E7.64403
G1 X116.714 Y104.618 E7.66274
G1 X117.899 Y104.591 E7.6864
G1 X118.186 Y104.6 E7.69213
G1 X119.273 Y104.689 E7.71389
G1 F1500 E1.21389
;MESH:4x0.5 Screw.stl
G0 F6000 X117.972 Y114.933
G0 X117.801 Y116.003
G0 X118.245 Y117.372
G0 X118.13 Y117.711
G0 X117.784 Y118.186
;TYPE:WALL-INNER
G1 F1500 E7.71389
G1 F1200 X117.681 Y118.2 E7.71597
G1 X117.62 Y118.201 E7.71719
G1 X117.391 Y118.167 E7.72181
G1 X117.286 Y118.14 E7.72397
G1 X117.115 Y118.058 E7.72775
G1 X117.016 Y117.97 E7.7304
G1 X116.953 Y117.897 E7.73232
G1 X116.899 Y117.808 E7.7344
G1 X116.866 Y117.732 E7.73605
G1 X116.798 Y117.45 E7.74184
G1 X116.793 Y117.398 E7.74288
G1 X116.795 Y117.296 E7.74492
G1 X116.819 Y117.164 E7.7476
G1 X116.832 Y117.122 E7.74847
G1 X116.894 Y116.991 E7.75137
G1 X116.975 Y116.874 E7.75421
G1 X117.092 Y116.763 E7.75742
G1 X117.179 Y116.702 E7.75955
G1 X117.287 Y116.645 E7.76198
G1 X117.357 Y116.621 E7.76346
G1 X117.5 Y116.588 E7.76639
G1 X117.591 Y116.578 E7.76821
G1 X117.746 Y116.583 E7.77131
G1 X117.828 Y116.598 E7.77297
G1 X117.949 Y116.648 E7.77559
G1 X117.978 Y116.665 E7.77626
G1 X118.016 Y116.691 E7.77718
G1 X118.129 Y116.771 E7.77994
