;FLAVOR:Marlin
;TIME:4224
;Filament used: 3.12312m
;Layer height: 0.2
;MINX:86.5
;MINY:91.5
;MINZ:0.2
;MAXX:148.499
;MAXY:143.5
;MAXZ:20
;Generated with Cura_SteamEngine 4.6.1
M140 S60
M105
M190 S60
M104 S200
M105
M109 S200
M82 ;absolute extrusion mode
; Ender 3 Custom Start G-code
G92 E0 ; Reset Extruder
G28 ; Home all axes
G1 Z2.0 F3000 ; Move Z Axis up little to prevent scratching of Heat Bed
G1 X0.1 Y20 Z0.3 F5000.0 ; Move to start position
G1 X0.1 Y200.0 Z0.3 F1500.0 E15 ; Draw the first line
G1 X0.4 Y200.0 Z0.3 F5000.0 ; Move to side a little
G1 X0.4 Y20 Z0.3 F1500.0 E30 ; Draw the second line
G92 E0 ; Reset Extruder
G1 Z2.0 F3000 ; Move Z Axis up little to prevent scratching of Heat Bed
G1 X5 Y20 Z0.3 F5000.0 ; Move over to prevent blob squish
G92 E0
G92 E0
G1 F1500 E-6.5
;LAYER_COUNT:100
;LAYER:0
M107
G0 F6000 X134.643 Y92.311 Z0.2
;TYPE:SKIRT
G1 F1500 E0
G1 F1200 X135.212 Y92.335 E0.01894
G1 X135.626 Y92.364 E0.03275
G1 X136.959 Y92.546 E0.07749
G1 X137.213 Y92.598 E0.08612
G1 X138.111 Y92.825 E0.11692
G1 X138.509 Y92.945 E0.13075
G1 X139.362 Y93.244 E0.16081
G1 X139.907 Y93.481 E0.18058
G1 X140.313 Y93.672 E0.1955
G1 X141.112 Y94.093 E0.22554
G1 X141.606 Y94.4 E0.24489
G1 X141.956 Y94.632 E0.25885
G1 X142.686 Y95.164 E0.28889
G1 X143.074 Y95.489 E0.30573
G1 X143.374 Y95.754 E0.31904
G1 X144.023 Y96.382 E0.34908
G1 X144.341 Y96.732 E0.36481
G1 X144.607 Y97.04 E0.37834
G1 X145.166 Y97.749 E0.40837
G1 X145.529 Y98.288 E0.42999
G1 X145.798 Y98.717 E0.44683
G1 X146.243 Y99.503 E0.47687
G1 X146.519 Y100.089 E0.49841
G1 X146.669 Y100.436 E0.51099
G1 X147.115 Y101.687 E0.55516
G1 X147.231 Y102.094 E0.56924
G1 X147.44 Y102.973 E0.59929
G1 X147.527 Y103.5 E0.61705
G1 X147.583 Y103.907 E0.63072
G1 X147.671 Y104.91 E0.66421
G1 X147.692 Y105.463 E0.68261
G1 X147.699 Y105.85 E0.69549
G1 X147.699 Y128.936 E1.46333
G1 X147.689 Y129.639 E1.48671
G1 X147.665 Y130.205 E1.50555
G1 X147.636 Y130.62 E1.51939
G1 X147.46 Y131.924 E1.56316
G1 X147.408 Y132.182 E1.57191
G1 X147.175 Y133.111 E1.60377
G1 X147.055 Y133.509 E1.61759
G1 X146.756 Y134.362 E1.64765
G1 X146.519 Y134.907 E1.66742
G1 X146.328 Y135.313 E1.68234
G1 X145.907 Y136.112 E1.71238
G1 X145.604 Y136.6 E1.73149
G1 X145.377 Y136.943 E1.74517
G1 X144.846 Y137.674 E1.77522
G1 X144.521 Y138.06 E1.792
G1 X144.245 Y138.373 E1.80588
G1 X143.619 Y139.023 E1.8359
G1 X143.237 Y139.368 E1.85302
G1 X142.927 Y139.634 E1.8666
G1 X142.216 Y140.191 E1.89664
G1 X141.682 Y140.548 E1.91801
G1 X141.257 Y140.813 E1.93467
G1 X140.47 Y141.257 E1.96472
G1 X139.901 Y141.523 E1.98561
G1 X139.558 Y141.671 E1.99804
G1 X138.319 Y142.114 E2.0418
G1 X137.913 Y142.23 E2.05584
G1 X137.035 Y142.439 E2.08586
G1 X136.487 Y142.529 E2.10433
G1 X136.083 Y142.584 E2.11789
G1 X134.962 Y142.674 E2.1553
G1 X133.789 Y142.7 E2.19432
G1 X98.061 Y142.699 E3.38264
G1 X97.363 Y142.689 E3.40586
G1 X96.461 Y142.636 E3.43591
G1 X95.568 Y142.504 E3.46594
G1 X94.69 Y142.293 E3.49597
G1 X93.834 Y142.005 E3.52601
G1 X93.007 Y141.643 E3.55603
G1 X92.215 Y141.208 E3.58609
G1 X91.464 Y140.706 E3.61613
G1 X90.761 Y140.139 E3.64617
G1 X90.111 Y139.512 E3.67621
G1 X89.519 Y138.83 E3.70625
G1 X88.989 Y138.099 E3.73628
G1 X88.527 Y137.323 E3.76632
G1 X88.134 Y136.51 E3.79635
G1 X87.816 Y135.665 E3.82638
G1 X87.573 Y134.795 E3.85642
G1 X87.408 Y133.907 E3.88646
G1 X87.313 Y132.766 E3.92454
G1 X87.3 Y132.158 E3.94477
G1 X87.301 Y103.065 E4.91241
G1 X87.31 Y102.376 E4.93533
G1 X87.362 Y101.474 E4.96538
G1 X87.493 Y100.581 E4.9954
G1 X87.703 Y99.702 E5.02545
G1 X87.989 Y98.846 E5.05547
G1 X88.351 Y98.018 E5.08553
G1 X88.784 Y97.226 E5.11555
G1 X89.285 Y96.475 E5.14558
G1 X89.851 Y95.771 E5.17562
G1 X90.477 Y95.12 E5.20566
G1 X91.159 Y94.527 E5.23572
G1 X91.89 Y93.997 E5.26575
G1 X92.664 Y93.533 E5.29576
G1 X93.477 Y93.14 E5.3258
G1 X94.322 Y92.82 E5.35585
G1 X95.192 Y92.576 E5.3859
G1 X96.079 Y92.41 E5.41592
G1 X97.223 Y92.313 E5.4541
G1 X97.83 Y92.3 E5.4743
G1 X133.937 Y92.301 E6.67522
G1 X134.643 Y92.311 E6.69871
G0 F6000 X134.649 Y91.911
G1 F1200 X135.24 Y91.936 E6.71838
G1 X135.654 Y91.965 E6.73218
G1 X136.568 Y92.069 E6.76278
G1 X137.039 Y92.154 E6.7787
G1 X137.293 Y92.206 E6.78732
G1 X138.227 Y92.442 E6.81936
G1 X138.625 Y92.562 E6.83319
G1 X139.494 Y92.866 E6.86381
G1 X140.077 Y93.119 E6.88495
G1 X140.483 Y93.31 E6.89987
G1 X141.299 Y93.738 E6.93052
G1 X141.827 Y94.067 E6.95121
G1 X142.177 Y94.299 E6.96518
G1 X142.922 Y94.84 E6.9958
G1 X143.339 Y95.19 E7.01391
G1 X143.639 Y95.455 E7.02722
G1 X144.301 Y96.093 E7.0578
G1 X144.643 Y96.471 E7.07475
G1 X144.909 Y96.779 E7.08829
G1 X145.48 Y97.501 E7.1189
G1 X145.868 Y98.076 E7.14198
G1 X146.137 Y98.505 E7.15882
G1 X146.591 Y99.305 E7.18941
G1 X146.886 Y99.93 E7.2124
G1 X147.036 Y100.277 E7.22497
G1 X147.364 Y101.137 E7.25559
G1 X147.5 Y101.578 E7.27093
G1 X147.616 Y101.985 E7.28501
G1 X147.83 Y102.88 E7.31562
G1 X147.923 Y103.445 E7.33466
G1 X147.979 Y103.852 E7.34833
G1 X148.07 Y104.895 E7.38315
G1 X148.091 Y105.448 E7.40155
G1 X148.099 Y105.85 E7.41493
G1 X148.099 Y128.942 E8.18297
G1 X148.089 Y129.645 E8.20636
G1 X148.064 Y130.233 E8.22593
G1 X148.035 Y130.648 E8.23977
G1 X147.852 Y132.003 E8.28524
G1 X147.8 Y132.261 E8.294
G1 X147.558 Y133.227 E8.32712
G1 X147.438 Y133.625 E8.34095
G1 X147.134 Y134.494 E8.37157
G1 X146.881 Y135.077 E8.3927
G1 X146.69 Y135.483 E8.40763
G1 X146.262 Y136.299 E8.43827
G1 X145.938 Y136.821 E8.45871
G1 X145.711 Y137.164 E8.47239
G1 X145.17 Y137.909 E8.50301
G1 X144.822 Y138.325 E8.52105
G1 X144.546 Y138.638 E8.53493
G1 X143.907 Y139.301 E8.56556
G1 X143.498 Y139.671 E8.5839
G1 X143.188 Y139.937 E8.59749
G1 X142.464 Y140.506 E8.62811
G1 X141.893 Y140.888 E8.65096
G1 X141.468 Y141.153 E8.66762
G1 X140.667 Y141.605 E8.69821
G1 X140.06 Y141.891 E8.72053
G1 X139.717 Y142.039 E8.73295
G1 X138.429 Y142.498 E8.77843
G1 X138.023 Y142.614 E8.79248
G1 X137.128 Y142.828 E8.82308
G1 X136.541 Y142.925 E8.84287
G1 X136.137 Y142.98 E8.85643
G1 X134.972 Y143.074 E8.89531
G1 X133.789 Y143.1 E8.93466
G1 X98.055 Y143.099 E10.12318
G1 X97.357 Y143.089 E10.1464
G1 X96.438 Y143.036 E10.17702
G1 X95.527 Y142.903 E10.20764
G1 X94.631 Y142.692 E10.23825
G1 X93.757 Y142.404 E10.26886
G1 X92.91 Y142.041 E10.29951
G1 X92.099 Y141.606 E10.33012
G1 X91.329 Y141.102 E10.36073
G1 X90.605 Y140.533 E10.39135
G1 X89.933 Y139.903 E10.42199
G1 X89.318 Y139.218 E10.45261
G1 X88.765 Y138.482 E10.48323
G1 X88.278 Y137.701 E10.51384
G1 X87.861 Y136.88 E10.54447
G1 X87.516 Y136.026 E10.5751
G1 X87.247 Y135.146 E10.60571
G1 X87.055 Y134.245 E10.63635
G1 X86.942 Y133.332 E10.66695
G1 X86.913 Y132.777 E10.68543
G1 X86.9 Y132.158 E10.70602
G1 X86.901 Y103.06 E11.67383
G1 X86.91 Y102.371 E11.69675
G1 X86.962 Y101.451 E11.72739
G1 X87.093 Y100.54 E11.75801
G1 X87.304 Y99.644 E11.78862
G1 X87.591 Y98.769 E11.81925
G1 X87.953 Y97.923 E11.84986
G1 X88.387 Y97.111 E11.88048
G1 X88.889 Y96.339 E11.91111
G1 X89.457 Y95.615 E11.94171
G1 X90.086 Y94.942 E11.97235
G1 X90.771 Y94.327 E12.00297
G1 X91.506 Y93.773 E12.03358
G1 X92.287 Y93.285 E12.06421
G1 X93.107 Y92.866 E12.09484
G1 X93.96 Y92.521 E12.12544
G1 X94.84 Y92.25 E12.15607
G1 X95.74 Y92.058 E12.18668
G1 X96.654 Y91.944 E12.21731
G1 X97.212 Y91.913 E12.2359
G1 X97.83 Y91.9 E12.25646
G1 X133.943 Y91.901 E13.45758
G1 X134.649 Y91.911 E13.48107
G0 F6000 X134.655 Y91.511
G1 F1200 X135.268 Y91.537 E13.50147
G1 X135.682 Y91.566 E13.51528
G1 X136.614 Y91.671 E13.54647
G1 X137.119 Y91.763 E13.56354
G1 X137.373 Y91.815 E13.57217
G1 X138.342 Y92.059 E13.6054
G1 X138.74 Y92.179 E13.61923
G1 X139.626 Y92.488 E13.65044
G1 X140.248 Y92.757 E13.67298
G1 X140.654 Y92.948 E13.6879
G1 X141.484 Y93.383 E13.71907
G1 X142.048 Y93.733 E13.74115
G1 X142.398 Y93.965 E13.75511
G1 X143.157 Y94.516 E13.78631
G1 X143.603 Y94.89 E13.80567
G1 X143.903 Y95.155 E13.81898
G1 X144.579 Y95.805 E13.85017
G1 X144.946 Y96.209 E13.86832
G1 X145.212 Y96.517 E13.88186
G1 X145.794 Y97.252 E13.91304
G1 X146.206 Y97.863 E13.93755
G1 X146.475 Y98.292 E13.95439
G1 X146.939 Y99.107 E13.98559
G1 X147.253 Y99.771 E14.01002
G1 X147.403 Y100.118 E14.02259
G1 X147.738 Y100.994 E14.05378
G1 X147.885 Y101.468 E14.07029
G1 X148.001 Y101.875 E14.08437
G1 X148.219 Y102.787 E14.11555
G1 X148.319 Y103.391 E14.13592
G1 X148.375 Y103.798 E14.14958
G1 X148.47 Y104.88 E14.18571
G1 X148.491 Y105.433 E14.20411
G1 X148.499 Y105.85 E14.21798
G1 X148.499 Y128.947 E14.98619
G1 X148.489 Y129.65 E15.00958
G1 X148.463 Y130.261 E15.02992
G1 X148.434 Y130.676 E15.04376
G1 X148.329 Y131.608 E15.07495
G1 X148.244 Y132.082 E15.09097
G1 X148.192 Y132.34 E15.09972
G1 X147.941 Y133.342 E15.13408
G1 X147.821 Y133.74 E15.1479
G1 X147.512 Y134.626 E15.17911
G1 X147.243 Y135.248 E15.20165
G1 X147.052 Y135.654 E15.21657
G1 X146.617 Y136.484 E15.24774
G1 X146.271 Y137.042 E15.26958
G1 X146.044 Y137.385 E15.28326
G1 X145.494 Y138.144 E15.31444
G1 X145.122 Y138.589 E15.33373
G1 X144.846 Y138.902 E15.34761
G1 X144.196 Y139.579 E15.37882
G1 X143.758 Y139.975 E15.39846
G1 X143.448 Y140.241 E15.41205
G1 X142.711 Y140.821 E15.44324
G1 X142.105 Y141.227 E15.4675
G1 X141.68 Y141.492 E15.48416
G1 X140.864 Y141.954 E15.51535
G1 X140.218 Y142.258 E15.53909
G1 X139.875 Y142.406 E15.55152
G1 X138.999 Y142.74 E15.5827
G1 X138.539 Y142.883 E15.59872
G1 X138.133 Y142.999 E15.61277
G1 X137.221 Y143.218 E15.64396
G1 X136.595 Y143.321 E15.66506
G1 X136.191 Y143.376 E15.67862
G1 X134.983 Y143.474 E15.71893
G1 X133.789 Y143.5 E15.75866
G1 X98.049 Y143.499 E16.94737
G1 X97.351 Y143.489 E16.97059
G1 X96.415 Y143.435 E17.00178
G1 X95.487 Y143.303 E17.03295
G1 X94.573 Y143.091 E17.06416
G1 X93.681 Y142.802 E17.09534
G1 X92.816 Y142.439 E17.12654
G1 X91.986 Y142.003 E17.15773
G1 X91.195 Y141.498 E17.18894
G1 X90.451 Y140.927 E17.22013
G1 X89.758 Y140.295 E17.25133
G1 X89.121 Y139.607 E17.28251
G1 X88.546 Y138.866 E17.31371
G1 X88.035 Y138.08 E17.34489
G1 X87.593 Y137.252 E17.37611
G1 X87.224 Y136.39 E17.4073
G1 X86.929 Y135.5 E17.43848
G1 X86.711 Y134.588 E17.46967
G1 X86.571 Y133.66 E17.50088
G1 X86.513 Y132.788 E17.52995
G1 X86.5 Y132.158 E17.55091
G1 X86.501 Y103.054 E18.51891
G1 X86.51 Y102.365 E18.54183
G1 X86.562 Y101.429 E18.57301
G1 X86.694 Y100.5 E18.60422
G1 X86.904 Y99.586 E18.63541
G1 X87.192 Y98.694 E18.66659
G1 X87.554 Y97.829 E18.69777
G1 X87.989 Y96.998 E18.72897
G1 X88.493 Y96.207 E18.76017
G1 X89.063 Y95.462 E18.79137
G1 X89.694 Y94.768 E18.82256
G1 X90.382 Y94.13 E18.85377
G1 X91.121 Y93.554 E18.88493
G1 X91.907 Y93.042 E18.91613
G1 X92.734 Y92.599 E18.94734
G1 X93.596 Y92.229 E18.97854
G1 X94.486 Y91.933 E19.00973
G1 X95.398 Y91.714 E19.04093
G1 X96.325 Y91.573 E19.07212
G1 X97.201 Y91.513 E19.10132
G1 X97.83 Y91.5 E19.12225
G1 X133.949 Y91.501 E20.32357
G1 X134.655 Y91.511 E20.34705
G1 F1500 E13.84705
;MESH:Servo 2 Arm Test 1.stl
G0 F6000 X134.498 Y101.835
G0 X134.498 Y102.92
G0 X98.282 Y103.282
G0 X98.1 Y131.9
;TYPE:WALL-INNER
G1 F1500 E20.34705
G1 F1200 X98.1 Y103.1 E21.30494
G1 X134.485 Y103.1 E22.51511
G1 X134.839 Y103.126 E22.52692
G1 X135.178 Y103.199 E22.53845
G1 X135.491 Y103.315 E22.54956
G1 X135.8 Y103.485 E22.56129
G1 X136.073 Y103.689 E22.57262
G1 X136.311 Y103.927 E22.58382
G1 X136.515 Y104.2 E22.59515
G1 X136.685 Y104.509 E22.60688
G1 X136.801 Y104.822 E22.61798
G1 X136.874 Y105.161 E22.62952
G1 X136.899 Y105.508 E22.64109
G1 X136.9 Y129.485 E23.43857
G1 X136.874 Y129.839 E23.45037
G1 X136.801 Y130.178 E23.46191
G1 X136.685 Y130.491 E23.47301
G1 X136.515 Y130.8 E23.48474
G1 X136.311 Y131.073 E23.49607
G1 X136.073 Y131.311 E23.50727
G1 X135.8 Y131.515 E23.5186
G1 X135.491 Y131.685 E23.53033
G1 X135.178 Y131.801 E23.54144
G1 X134.839 Y131.874 E23.55297
G1 X134.49 Y131.899 E23.56461
G1 X134.349 Y131.9 E23.5693
G1 X98.1 Y131.9 E24.77494
G0 F6000 X97.7 Y132.3
;TYPE:WALL-OUTER
G1 F1200 X97.7 Y102.7 E25.75944
G1 X134.5 Y102.7 E26.98342
G1 X134.897 Y102.729 E26.99666
G1 X135.289 Y102.814 E27.01
G1 X135.658 Y102.951 E27.02309
G1 X136.016 Y103.147 E27.03666
G1 X136.337 Y103.387 E27.04999
G1 X136.613 Y103.663 E27.06298
G1 X136.853 Y103.984 E27.07631
G1 X137.049 Y104.342 E27.08988
G1 X137.186 Y104.711 E27.10297
G1 X137.271 Y105.103 E27.11631
G1 X137.299 Y105.493 E27.12932
G1 X137.3 Y129.5 E27.92779
G1 X137.271 Y129.897 E27.94103
G1 X137.186 Y130.289 E27.95438
G1 X137.049 Y130.658 E27.96747
G1 X136.853 Y131.016 E27.98104
G1 X136.613 Y131.337 E27.99437
G1 X136.337 Y131.613 E28.00735
G1 X136.016 Y131.853 E28.02069
G1 X135.658 Y132.049 E28.03426
G1 X135.289 Y132.186 E28.04735
G1 X134.897 Y132.271 E28.06069
G1 X134.506 Y132.299 E28.07373
G1 X134.352 Y132.3 E28.07885
G1 X97.7 Y132.3 E29.2979
G0 F6000 X97.97 Y132.03
G0 X98.21 Y131.51
G0 X98.49 Y131.51
;TYPE:SKIN
G1 F1200 X98.49 Y103.49 E30.22985
G1 X134.483 Y103.49 E31.42698
G1 X134.772 Y103.512 E31.43662
G1 X135.071 Y103.576 E31.44679
G1 X135.335 Y103.673 E31.45615
G1 X135.585 Y103.811 E31.46565
G1 X135.823 Y103.989 E31.47553
G1 X136.011 Y104.177 E31.48437
G1 X136.189 Y104.415 E31.49426
G1 X136.327 Y104.665 E31.50376
G1 X136.424 Y104.929 E31.51311
G1 X136.488 Y105.222 E31.52309
G1 X136.509 Y105.521 E31.53306
G1 X136.51 Y129.485 E32.3301
G1 X136.488 Y129.771 E32.33964
G1 X136.424 Y130.071 E32.34984
G1 X136.327 Y130.335 E32.3592
G1 X136.189 Y130.585 E32.3687
G1 X136.011 Y130.823 E32.37858
G1 X135.823 Y131.011 E32.38743
G1 X135.585 Y131.189 E32.39731
G1 X135.335 Y131.327 E32.40681
G1 X135.071 Y131.424 E32.41616
G1 X134.778 Y131.488 E32.42614
G1 X134.476 Y131.509 E32.43621
G1 X134.347 Y131.51 E32.4405
G1 X98.49 Y131.51 E33.63311
G0 F6000 X99.105 Y131.349
G1 F1200 X98.649 Y130.893 E33.65455
G0 F6000 X98.649 Y130.328
G1 F1200 X99.67 Y131.349 E33.70258
G0 F6000 X100.236 Y131.349
G1 F1200 X98.649 Y129.762 E33.77723
G0 F6000 X98.649 Y129.196
G1 F1200 X100.802 Y131.349 E33.8785
G0 F6000 X101.367 Y131.349
G1 F1200 X98.649 Y128.631 E34.00634
G0 F6000 X98.649 Y128.065
G1 F1200 X101.933 Y131.349 E34.16081
G0 F6000 X102.499 Y131.349
G1 F1200 X98.649 Y127.499 E34.34191
G0 F6000 X98.649 Y126.934
G1 F1200 X103.065 Y131.349 E34.5496
G0 F6000 X103.63 Y131.349
G1 F1200 X98.649 Y126.368 E34.78389
G0 F6000 X98.649 Y125.802
G1 F1200 X104.196 Y131.349 E35.0448
G0 F6000 X104.762 Y131.349
G1 F1200 X98.649 Y125.237 E35.33231
G0 F6000 X98.649 Y124.671
G1 F1200 X105.327 Y131.349 E35.64643
G0 F6000 X105.893 Y131.349
G1 F1200 X98.649 Y124.105 E35.98716
G0 F6000 X98.649 Y123.54
G1 F1200 X106.459 Y131.349 E36.3545
G0 F6000 X107.024 Y131.349
G1 F1200 X98.649 Y122.974 E36.74843
G0 F6000 X98.649 Y122.408
G1 F1200 X107.59 Y131.349 E37.16899
G0 F6000 X108.156 Y131.349
G1 F1200 X98.649 Y121.842 E37.61617
G0 F6000 X98.649 Y121.277
G1 F1200 X108.721 Y131.349 E38.08993
G0 F6000 X109.287 Y131.349
G1 F1200 X98.649 Y120.711 E38.5903
G0 F6000 X98.649 Y120.145
G1 F1200 X109.853 Y131.349 E39.11731
G0 F6000 X110.418 Y131.349
G1 F1200 X98.649 Y119.58 E39.67088
G0 F6000 X98.649 Y119.014
G1 F1200 X110.984 Y131.349 E40.25108
G0 F6000 X111.55 Y131.349
G1 F1200 X98.649 Y118.448 E40.85791
G0 F6000 X98.649 Y117.883
G1 F1200 X112.116 Y131.349 E41.49133
G0 F6000 X112.681 Y131.349
G1 F1200 X98.649 Y117.317 E42.15135
G0 F6000 X98.649 Y116.751
G1 F1200 X113.247 Y131.349 E42.838
G0 F6000 X113.813 Y131.349
G1 F1200 X98.649 Y116.186 E43.55124
G0 F6000 X98.649 Y115.62
G1 F1200 X114.378 Y131.349 E44.29109
G0 F6000 X114.944 Y131.349
G1 F1200 X98.649 Y115.054 E45.05755
G0 F6000 X98.649 Y114.489
G1 F1200 X115.51 Y131.349 E45.85062
G0 F6000 X116.075 Y131.349
G1 F1200 X98.649 Y113.923 E46.67029
G0 F6000 X98.649 Y113.357
G1 F1200 X116.641 Y131.349 E47.51657
G0 F6000 X117.207 Y131.349
G1 F1200 X98.649 Y112.792 E48.38946
G0 F6000 X98.649 Y112.226
G1 F1200 X117.772 Y131.349 E49.28895
G0 F6000 X118.338 Y131.349
G1 F1200 X98.649 Y111.66 E50.21506
G0 F6000 X98.649 Y111.094
G1 F1200 X118.904 Y131.349 E51.16779
G0 F6000 X119.469 Y131.349
G1 F1200 X98.649 Y110.529 E52.1471
G0 F6000 X98.649 Y109.963
G1 F1200 X120.035 Y131.349 E53.15303
G0 F6000 X120.601 Y131.349
G1 F1200 X98.649 Y109.397 E54.18559
G0 F6000 X98.649 Y108.832
G1 F1200 X121.166 Y131.349 E55.24472
G0 F6000 X121.732 Y131.349
G1 F1200 X98.649 Y108.266 E56.33047
G0 F6000 X98.649 Y107.7
