;FLAVOR:Marlin
;TIME:853
;Filament used: 0.157643m
;Layer height: 0.12
;MINX:104.443
;MINY:104.222
;MINZ:0.12
;MAXX:130.828
;MAXY:130.625
;MAXZ:34.92
;Generated with Cura_SteamEngine 4.6.1
M140 S60
M105
M190 S60
M104 S200
M105
M109 S200
M82 ;absolute extrusion mode
; Ender 3 Custom Start G-code
G92 E0 ; Reset Extruder
G28 ; Home all axes
G1 Z2.0 F3000 ; Move Z Axis up little to prevent scratching of Heat Bed
G1 X0.1 Y20 Z0.3 F5000.0 ; Move to start position
G1 X0.1 Y200.0 Z0.3 F1500.0 E15 ; Draw the first line
G1 X0.4 Y200.0 Z0.3 F5000.0 ; Move to side a little
G1 X0.4 Y20 Z0.3 F1500.0 E30 ; Draw the second line
G92 E0 ; Reset Extruder
G1 Z2.0 F3000 ; Move Z Axis up little to prevent scratching of Heat Bed
G1 X5 Y20 Z0.3 F5000.0 ; Move over to prevent blob squish
G92 E0
G92 E0
G1 F1500 E-6.5
;LAYER_COUNT:291
;LAYER:0
M107
G0 F6000 X118.994 Y105.504 Z0.12
;TYPE:SKIRT
G1 F1500 E0
G1 F1200 X119.887 Y105.639 E0.01802
G1 X120.356 Y105.742 E0.02761
G1 X120.661 Y105.817 E0.03387
G1 X121.827 Y106.179 E0.05824
G1 X122.076 Y106.273 E0.06355
G1 X122.906 Y106.629 E0.08157
G1 X123.702 Y107.057 E0.09961
G1 X124.361 Y107.486 E0.1153
G1 X124.685 Y107.715 E0.12322
G1 X125.399 Y108.269 E0.14125
G1 X126.143 Y108.967 E0.16161
G1 X126.355 Y109.187 E0.16771
G1 X126.952 Y109.865 E0.18574
G1 X127.305 Y110.33 E0.19739
G1 X127.471 Y110.562 E0.20308
G1 X127.964 Y111.319 E0.22111
G1 X128.522 Y112.411 E0.24558
G1 X128.71 Y112.841 E0.25495
G1 X129.035 Y113.684 E0.27298
G1 X129.259 Y114.453 E0.28896
G1 X129.321 Y114.701 E0.29406
G1 X129.501 Y115.586 E0.31208
G1 X129.603 Y116.484 E0.33012
G1 X129.626 Y117.124 E0.3429
G1 X129.628 Y117.523 E0.35086
G1 X129.592 Y118.425 E0.36888
G1 X129.43 Y119.574 E0.39203
G1 X129.359 Y119.929 E0.39926
G1 X129.143 Y120.806 E0.41728
G1 X128.852 Y121.654 E0.43517
G1 X128.75 Y121.914 E0.44075
G1 X128.231 Y123.034 E0.46538
G1 X128.136 Y123.21 E0.46937
G1 X127.672 Y123.985 E0.4874
G1 X127.411 Y124.362 E0.49655
G1 X127.27 Y124.556 E0.50133
G1 X126.707 Y125.262 E0.51935
G1 X126.283 Y125.719 E0.5318
G1 X126.077 Y125.928 E0.53765
G1 X125.416 Y126.543 E0.55567
G1 X124.938 Y126.924 E0.56787
G1 X124.677 Y127.12 E0.57438
G1 X123.932 Y127.63 E0.5924
G1 X123.162 Y128.063 E0.61003
G1 X122.939 Y128.176 E0.61502
G1 X121.83 Y128.658 E0.63915
G1 X121.622 Y128.734 E0.64357
G1 X120.76 Y129.006 E0.66161
G1 X120.037 Y129.171 E0.6764
G1 X119.671 Y129.241 E0.68384
G1 X118.777 Y129.372 E0.70187
G1 X117.891 Y129.422 E0.71958
G1 X117.666 Y129.425 E0.72407
G1 X116.763 Y129.397 E0.7421
G1 X115.727 Y129.265 E0.76294
G1 X115.354 Y129.198 E0.77051
G1 X114.473 Y128.999 E0.78853
G1 X113.484 Y128.675 E0.8093
G1 X113.212 Y128.57 E0.81512
G1 X112.401 Y128.215 E0.83278
G1 X112.211 Y128.122 E0.83701
G1 X111.418 Y127.69 E0.85503
G1 X110.673 Y127.194 E0.87289
G1 X110.349 Y126.957 E0.8809
G1 X109.644 Y126.392 E0.89893
G1 X109.086 Y125.863 E0.91427
G1 X108.94 Y125.714 E0.91843
G1 X108.337 Y125.041 E0.93647
G1 X107.783 Y124.299 E0.95495
G1 X107.604 Y124.035 E0.96131
G1 X107.13 Y123.266 E0.97934
G1 X106.806 Y122.631 E0.99357
G1 X106.691 Y122.385 E0.99898
G1 X106.345 Y121.55 E1.01702
G1 X106.075 Y120.69 E1.03501
G1 X106.014 Y120.461 E1.03974
G1 X105.82 Y119.579 E1.05776
G1 X105.748 Y119.096 E1.06751
G1 X105.718 Y118.855 E1.07235
G1 X105.646 Y117.955 E1.09037
G1 X105.643 Y117.361 E1.10223
G1 X105.652 Y116.968 E1.11007
G1 X105.763 Y115.679 E1.13589
G1 X105.8 Y115.434 E1.14083
G1 X105.975 Y114.548 E1.15886
G1 X106.345 Y113.349 E1.1839
G1 X106.48 Y112.992 E1.19151
G1 X106.837 Y112.162 E1.20954
G1 X107.355 Y111.22 E1.231
G1 X107.486 Y111.009 E1.23595
G1 X108.2 Y110.001 E1.2606
G1 X108.343 Y109.823 E1.26516
G1 X108.939 Y109.144 E1.28319
G1 X109.571 Y108.541 E1.30062
G1 X109.863 Y108.285 E1.30837
G1 X110.568 Y107.721 E1.32639
G1 X111.023 Y107.406 E1.33743
G1 X111.192 Y107.296 E1.34146
G1 X111.97 Y106.838 E1.35947
G1 X112.532 Y106.561 E1.37198
G1 X112.776 Y106.45 E1.37733
G1 X113.614 Y106.112 E1.39536
G1 X114.744 Y105.787 E1.41882
G1 X115.132 Y105.699 E1.42676
G1 X116.021 Y105.538 E1.44479
G1 X116.564 Y105.479 E1.45569
G1 X116.86 Y105.455 E1.46162
G1 X117.762 Y105.422 E1.47963
G1 X118.758 Y105.479 E1.49954
G1 X118.994 Y105.504 E1.50428
G0 F6000 X119.037 Y105.106
G1 F1200 X119.947 Y105.243 E1.52264
G1 X120.451 Y105.354 E1.53294
G1 X120.756 Y105.429 E1.53921
G1 X121.969 Y105.805 E1.56455
G1 X122.218 Y105.899 E1.56986
G1 X123.064 Y106.261 E1.58823
G1 X123.876 Y106.696 E1.60661
G1 X124.592 Y107.16 E1.62364
G1 X124.916 Y107.389 E1.63155
G1 X125.644 Y107.952 E1.64992
G1 X126.431 Y108.69 E1.67145
G1 X126.643 Y108.91 E1.67755
G1 X127.252 Y109.6 E1.69591
G1 X127.631 Y110.097 E1.70839
G1 X127.797 Y110.329 E1.71408
G1 X128.299 Y111.1 E1.73244
G1 X128.888 Y112.251 E1.75824
G1 X129.076 Y112.681 E1.76761
G1 X129.408 Y113.539 E1.78597
G1 X129.648 Y114.356 E1.80296
G1 X129.71 Y114.604 E1.80806
G1 X129.894 Y115.506 E1.82643
G1 X129.999 Y116.421 E1.84481
G1 X130.026 Y117.122 E1.85881
G1 X130.028 Y117.521 E1.86677
G1 X129.992 Y118.441 E1.88515
G1 X129.822 Y119.653 E1.90957
G1 X129.751 Y120.008 E1.91679
G1 X129.532 Y120.902 E1.93516
G1 X129.225 Y121.8 E1.9541
G1 X129.123 Y122.06 E1.95968
G1 X128.583 Y123.224 E1.98528
G1 X128.488 Y123.4 E1.98927
G1 X128.016 Y124.19 E2.00764
G1 X127.735 Y124.597 E2.01751
G1 X127.594 Y124.791 E2.02229
G1 X127.02 Y125.512 E2.04069
G1 X126.568 Y126 E2.05396
G1 X126.362 Y126.209 E2.05982
G1 X125.688 Y126.836 E2.07819
G1 X125.178 Y127.244 E2.09122
G1 X124.917 Y127.44 E2.09773
G1 X124.158 Y127.96 E2.11609
G1 X123.343 Y128.419 E2.13476
G1 X123.12 Y128.532 E2.13975
G1 X121.967 Y129.033 E2.16484
G1 X121.759 Y129.109 E2.16926
G1 X120.881 Y129.387 E2.18763
G1 X120.112 Y129.564 E2.20338
G1 X119.746 Y129.634 E2.21082
G1 X118.835 Y129.768 E2.22919
G1 X117.896 Y129.822 E2.24796
G1 X117.671 Y129.825 E2.25245
G1 X116.751 Y129.797 E2.27082
G1 X115.656 Y129.659 E2.29285
G1 X115.283 Y129.592 E2.30041
G1 X114.385 Y129.39 E2.31878
G1 X113.34 Y129.048 E2.34072
G1 X113.068 Y128.943 E2.34654
G1 X112.225 Y128.575 E2.3649
G1 X112.035 Y128.482 E2.36912
G1 X111.226 Y128.041 E2.3875
G1 X110.437 Y127.516 E2.40642
G1 X110.113 Y127.279 E2.41443
G1 X109.394 Y126.704 E2.4328
G1 X108.8 Y126.143 E2.4491
G1 X108.654 Y125.994 E2.45327
G1 X108.039 Y125.309 E2.47164
G1 X107.452 Y124.524 E2.4912
G1 X107.273 Y124.26 E2.49757
G1 X106.789 Y123.476 E2.51595
G1 X106.443 Y122.8 E2.53111
G1 X106.328 Y122.554 E2.53653
G1 X105.975 Y121.704 E2.55489
G1 X105.688 Y120.793 E2.57395
G1 X105.627 Y120.564 E2.57868
G1 X105.429 Y119.665 E2.59705
G1 X105.351 Y119.145 E2.60755
G1 X105.321 Y118.904 E2.61239
G1 X105.247 Y117.987 E2.63075
G1 X105.243 Y117.352 E2.64343
G1 X105.252 Y116.959 E2.65127
G1 X105.368 Y115.619 E2.67811
G1 X105.405 Y115.374 E2.68306
G1 X105.582 Y114.471 E2.70142
G1 X105.971 Y113.208 E2.72779
G1 X106.106 Y112.851 E2.73541
G1 X106.469 Y112.005 E2.75378
G1 X107.015 Y111.009 E2.77645
G1 X107.146 Y110.798 E2.7814
G1 X107.888 Y109.75 E2.80703
G1 X108.031 Y109.572 E2.81158
G1 X108.639 Y108.88 E2.82997
G1 X109.307 Y108.24 E2.84843
G1 X109.599 Y107.984 E2.85618
G1 X110.317 Y107.408 E2.87455
G1 X110.805 Y107.071 E2.88638
G1 X110.974 Y106.961 E2.89041
G1 X111.766 Y106.493 E2.90877
G1 X112.367 Y106.196 E2.92214
G1 X112.611 Y106.085 E2.92749
G1 X113.464 Y105.741 E2.94585
G1 X114.655 Y105.397 E2.97059
G1 X115.043 Y105.309 E2.97853
G1 X115.949 Y105.144 E2.9969
G1 X116.531 Y105.081 E3.00859
G1 X116.827 Y105.057 E3.01451
G1 X117.747 Y105.022 E3.03289
G1 X118.801 Y105.081 E3.05395
G1 X119.037 Y105.106 E3.05869
G0 F6000 X119.079 Y104.708
G1 F1200 X120.006 Y104.847 E3.07739
G1 X120.547 Y104.965 E3.08844
G1 X120.852 Y105.04 E3.09471
G1 X122.11 Y105.431 E3.121
G1 X122.359 Y105.525 E3.12631
G1 X123.222 Y105.893 E3.14504
G1 X124.05 Y106.334 E3.16376
G1 X124.823 Y106.833 E3.18212
G1 X125.147 Y107.062 E3.19004
G1 X125.889 Y107.636 E3.20876
G1 X126.719 Y108.412 E3.23143
G1 X126.931 Y108.632 E3.23753
G1 X127.552 Y109.335 E3.25625
G1 X127.956 Y109.864 E3.26953
G1 X128.122 Y110.096 E3.27522
G1 X128.635 Y110.881 E3.29394
G1 X129.255 Y112.09 E3.32105
G1 X129.443 Y112.52 E3.33042
G1 X129.782 Y113.395 E3.34914
G1 X130.036 Y114.259 E3.36712
G1 X130.098 Y114.507 E3.37222
G1 X130.286 Y115.426 E3.39094
G1 X130.396 Y116.357 E3.40964
G1 X130.426 Y117.12 E3.42488
G1 X130.428 Y117.519 E3.43285
G1 X130.393 Y118.456 E3.45156
G1 X130.214 Y119.731 E3.47725
G1 X130.143 Y120.086 E3.48448
G1 X129.92 Y120.997 E3.50319
G1 X129.597 Y121.946 E3.5232
G1 X129.495 Y122.206 E3.52877
G1 X128.935 Y123.414 E3.55534
G1 X128.84 Y123.59 E3.55933
G1 X128.36 Y124.396 E3.57805
G1 X128.058 Y124.832 E3.58864
G1 X127.917 Y125.026 E3.59342
G1 X127.334 Y125.761 E3.61215
G1 X126.853 Y126.281 E3.62628
G1 X126.647 Y126.49 E3.63214
G1 X125.961 Y127.129 E3.65085
G1 X125.418 Y127.564 E3.66473
G1 X125.157 Y127.76 E3.67125
G1 X124.384 Y128.291 E3.68996
G1 X123.524 Y128.776 E3.70966
G1 X123.301 Y128.889 E3.71465
G1 X122.104 Y129.409 E3.7407
G1 X121.896 Y129.485 E3.74512
G1 X121.002 Y129.769 E3.76384
G1 X120.187 Y129.957 E3.78053
G1 X119.821 Y130.027 E3.78796
G1 X118.894 Y130.164 E3.80666
G1 X117.902 Y130.222 E3.82649
G1 X117.677 Y130.225 E3.83098
G1 X116.739 Y130.198 E3.84971
G1 X115.585 Y130.053 E3.87292
G1 X115.212 Y129.986 E3.88048
G1 X114.297 Y129.781 E3.8992
G1 X113.196 Y129.421 E3.92231
G1 X112.924 Y129.316 E3.92813
G1 X112.049 Y128.934 E3.94718
G1 X111.859 Y128.841 E3.95141
G1 X111.035 Y128.393 E3.97012
G1 X110.201 Y127.839 E3.9901
G1 X109.877 Y127.602 E3.99811
G1 X109.144 Y127.017 E4.01683
G1 X108.514 Y126.423 E4.03411
G1 X108.368 Y126.274 E4.03827
G1 X107.741 Y125.576 E4.057
G1 X107.12 Y124.748 E4.07765
G1 X106.941 Y124.484 E4.08402
G1 X106.449 Y123.686 E4.10272
G1 X106.081 Y122.969 E4.11881
G1 X105.966 Y122.723 E4.12423
G1 X105.605 Y121.858 E4.14293
G1 X105.302 Y120.896 E4.16306
G1 X105.241 Y120.667 E4.16779
G1 X105.038 Y119.752 E4.18649
G1 X104.954 Y119.195 E4.19773
G1 X104.924 Y118.954 E4.20258
G1 X104.848 Y118.019 E4.2213
G1 X104.843 Y117.343 E4.23479
G1 X104.852 Y116.95 E4.24264
G1 X104.972 Y115.559 E4.2705
G1 X105.009 Y115.314 E4.27544
G1 X105.189 Y114.394 E4.29415
G1 X105.597 Y113.066 E4.32187
G1 X105.732 Y112.709 E4.32949
G1 X106.101 Y111.847 E4.3482
G1 X106.676 Y110.798 E4.37208
G1 X106.807 Y110.587 E4.37703
G1 X107.577 Y109.5 E4.40362
G1 X107.72 Y109.322 E4.40817
G1 X108.338 Y108.616 E4.4269
G1 X109.043 Y107.94 E4.44639
G1 X109.335 Y107.684 E4.45414
G1 X110.066 Y107.096 E4.47286
G1 X110.586 Y106.736 E4.48548
G1 X110.755 Y106.626 E4.4895
G1 X111.563 Y106.148 E4.50824
G1 X112.201 Y105.832 E4.52245
G1 X112.445 Y105.721 E4.5278
G1 X113.315 Y105.37 E4.54652
G1 X114.567 Y105.006 E4.57254
G1 X114.955 Y104.918 E4.58048
G1 X115.878 Y104.75 E4.5992
G1 X116.499 Y104.682 E4.61167
G1 X116.795 Y104.658 E4.61759
G1 X117.732 Y104.622 E4.63631
G1 X118.843 Y104.683 E4.65851
G1 X119.079 Y104.708 E4.66325
G0 F6000 X119.121 Y104.31
G1 F1200 X120.065 Y104.451 E4.68229
G1 X120.642 Y104.577 E4.69408
G1 X120.947 Y104.652 E4.70035
G1 X122.251 Y105.057 E4.7276
G1 X122.5 Y105.151 E4.73291
G1 X123.379 Y105.525 E4.75197
G1 X124.223 Y105.971 E4.77102
G1 X125.054 Y106.507 E4.79076
G1 X125.378 Y106.736 E4.79867
G1 X126.134 Y107.319 E4.81772
G1 X127.007 Y108.135 E4.84157
G1 X127.219 Y108.355 E4.84767
G1 X127.852 Y109.069 E4.86671
G1 X128.281 Y109.631 E4.88082
G1 X128.447 Y109.863 E4.88651
G1 X128.97 Y110.662 E4.90557
G1 X129.621 Y111.93 E4.93401
G1 X129.809 Y112.36 E4.94338
G1 X130.155 Y113.25 E4.96244
G1 X130.424 Y114.162 E4.98141
G1 X130.486 Y114.41 E4.98651
G1 X130.678 Y115.345 E5.00556
G1 X130.792 Y116.293 E5.02462
G1 X130.826 Y117.118 E5.04109
G1 X130.828 Y117.517 E5.04906
G1 X130.793 Y118.471 E5.06811
G1 X130.607 Y119.81 E5.09508
G1 X130.536 Y120.165 E5.10231
G1 X130.309 Y121.092 E5.12135
G1 X129.97 Y122.092 E5.14243
G1 X129.868 Y122.352 E5.148
G1 X129.287 Y123.604 E5.17554
G1 X129.192 Y123.78 E5.17954
G1 X128.704 Y124.6 E5.19858
G1 X128.382 Y125.067 E5.2099
G1 X128.241 Y125.261 E5.21468
G1 X127.647 Y126.009 E5.23375
G1 X127.138 Y126.562 E5.24874
G1 X126.932 Y126.771 E5.2546
G1 X126.234 Y127.422 E5.27365
G1 X125.659 Y127.884 E5.28837
G1 X125.398 Y128.08 E5.29488
G1 X124.611 Y128.621 E5.31394
G1 X123.705 Y129.133 E5.33471
G1 X123.482 Y129.246 E5.3397
G1 X122.241 Y129.785 E5.3667
G1 X122.033 Y129.861 E5.37112
G1 X121.124 Y130.15 E5.39015
G1 X120.263 Y130.35 E5.40779
G1 X119.897 Y130.42 E5.41523
G1 X118.952 Y130.56 E5.43429
G1 X117.907 Y130.622 E5.45518
G1 X117.682 Y130.625 E5.45967
G1 X116.728 Y130.598 E5.47872
G1 X115.515 Y130.446 E5.50311
G1 X115.142 Y130.379 E5.51068
G1 X114.21 Y130.171 E5.52973
G1 X113.052 Y129.794 E5.55404
G1 X112.78 Y129.689 E5.55986
G1 X111.873 Y129.293 E5.57961
G1 X111.683 Y129.2 E5.58383
G1 X110.844 Y128.745 E5.60287
G1 X109.965 Y128.162 E5.62392
G1 X109.641 Y127.925 E5.63193
G1 X108.894 Y127.33 E5.65099
G1 X108.228 Y126.703 E5.66925
G1 X108.082 Y126.554 E5.67341
G1 X107.443 Y125.844 E5.69247
G1 X106.789 Y124.973 E5.71421
G1 X106.61 Y124.709 E5.72057
G1 X106.108 Y123.897 E5.73962
G1 X105.719 Y123.139 E5.75663
G1 X105.604 Y122.893 E5.76204
G1 X105.236 Y122.012 E5.7811
G1 X104.915 Y120.999 E5.8023
G1 X104.854 Y120.77 E5.80703
G1 X104.647 Y119.838 E5.82609
G1 X104.557 Y119.244 E5.83808
G1 X104.527 Y119.003 E5.84292
G1 X104.449 Y118.052 E5.86196
G1 X104.443 Y117.334 E5.87629
G1 X104.452 Y116.941 E5.88414
G1 X104.514 Y115.988 E5.9032
G1 X104.577 Y115.5 E5.91302
G1 X104.614 Y115.255 E5.91796
G1 X104.796 Y114.317 E5.93703
G1 X105.056 Y113.399 E5.95607
G1 X105.223 Y112.925 E5.9661
G1 X105.358 Y112.568 E5.97371
G1 X105.733 Y111.69 E5.99277
G1 X106.336 Y110.587 E6.01785
G1 X106.467 Y110.376 E6.02281
G1 X107.265 Y109.249 E6.05037
G1 X107.408 Y109.071 E6.05492
G1 X108.036 Y108.353 E6.07396
G1 X108.78 Y107.639 E6.09454
G1 X109.072 Y107.383 E6.10229
G1 X109.815 Y106.784 E6.12133
G1 X110.368 Y106.401 E6.13476
G1 X110.537 Y106.291 E6.13878
G1 X111.358 Y105.804 E6.15783
G1 X112.035 Y105.468 E6.17291
G1 X112.279 Y105.357 E6.17826
G1 X113.164 Y104.999 E6.19731
G1 X114.478 Y104.616 E6.22463
G1 X114.866 Y104.528 E6.23257
G1 X115.806 Y104.356 E6.25164
G1 X116.467 Y104.283 E6.26491
G1 X116.763 Y104.259 E6.27083
G1 X117.717 Y104.222 E6.28989
G1 X118.885 Y104.285 E6.31323
G1 X119.121 Y104.31 E6.31797
G1 F1500 E-0.18203
;MESH:Servo 2 Arm Connector Test 1.stl
G0 F6000 X117.992 Y114.974
G0 X117.887 Y116.051
G0 X118.281 Y117.387
G0 X118.137 Y117.783
G0 X117.594 Y118.238
;TYPE:WALL-INNER
G1 F1500 E6.31797
G1 F1200 X117.493 Y118.223 E6.32
G1 X117.378 Y118.189 E6.3224
G1 X117.105 Y118.05 E6.32851
G1 X117.06 Y118.012 E6.32969
G1 X116.951 Y117.895 E6.33288
G1 X116.891 Y117.792 E6.33526
G1 X116.853 Y117.697 E6.3373
G1 X116.828 Y117.566 E6.33996
G1 X116.824 Y117.442 E6.34243
G1 X116.83 Y117.311 E6.34505
G1 X116.84 Y117.231 E6.34666
G1 X116.881 Y117.092 E6.34955
G1 X116.912 Y117.029 E6.35095
G1 X116.969 Y116.94 E6.35306
G1 X117.037 Y116.86 E6.35516
G1 X117.073 Y116.826 E6.35615
G1 X117.168 Y116.752 E6.35855
G1 X117.246 Y116.707 E6.36035
G1 X117.368 Y116.655 E6.36299
G1 X117.447 Y116.633 E6.36463
G1 X117.608 Y116.611 E6.36787
G1 X117.65 Y116.612 E6.36871
G1 X117.852 Y116.638 E6.37277
G1 X117.963 Y116.671 E6.37509
G1 X118.053 Y116.714 E6.37708
G1 X118.132 Y116.776 E6.37908
G1 X118.262 Y116.911 E6.38282
G1 X118.325 Y117.002 E6.38503
G1 X118.365 Y117.078 E6.38674
G1 X118.394 Y117.145 E6.3882
G1 X118.431 Y117.257 E6.39055
G1 X118.446 Y117.322 E6.39189
G1 X118.453 Y117.383 E6.39311
G1 X118.44 Y117.521 E6.39588
G1 X118.412 Y117.637 E6.39826
G1 X118.373 Y117.739 E6.40044
G1 X118.3 Y117.872 E6.40346
G1 X118.249 Y117.94 E6.40516
G1 X118.14 Y118.046 E6.4082
G1 X117.995 Y118.147 E6.41172
G1 X117.883 Y118.197 E6.41417
G1 X117.726 Y118.232 E6.41738
G1 X117.594 Y118.238 E6.42002
G0 F6000 X117.554 Y118.636
G1 F1200 X117.409 Y118.614 E6.42294
G1 X117.279 Y118.579 E6.42563
G1 X117.216 Y118.555 E6.42698
G1 X116.93 Y118.414 E6.43334
G1 X116.871 Y118.375 E6.43475
G1 X116.792 Y118.31 E6.43679
G1 X116.667 Y118.182 E6.44036
G1 X116.613 Y118.111 E6.44214
G1 X116.533 Y117.972 E6.44534
G1 X116.478 Y117.841 E6.44818
G1 X116.463 Y117.788 E6.44928
G1 X116.434 Y117.649 E6.45211
