;FLAVOR:Marlin
;TIME:438
;Filament used: 0.137214m
;Layer height: 0.2
;MINX:104.442
;MINY:104.288
;MINZ:0.2
;MAXX:130.853
;MAXY:130.693
;MAXZ:35
;Generated with Cura_SteamEngine 4.6.1
M140 S60
M105
M190 S60
M104 S200
M105
M109 S200
M82 ;absolute extrusion mode
; Ender 3 Custom Start G-code
G92 E0 ; Reset Extruder
G28 ; Home all axes
G1 Z2.0 F3000 ; Move Z Axis up little to prevent scratching of Heat Bed
G1 X0.1 Y20 Z0.3 F5000.0 ; Move to start position
G1 X0.1 Y200.0 Z0.3 F1500.0 E15 ; Draw the first line
G1 X0.4 Y200.0 Z0.3 F5000.0 ; Move to side a little
G1 X0.4 Y20 Z0.3 F1500.0 E30 ; Draw the second line
G92 E0 ; Reset Extruder
G1 Z2.0 F3000 ; Move Z Axis up little to prevent scratching of Heat Bed
G1 X5 Y20 Z0.3 F5000.0 ; Move over to prevent blob squish
G92 E0
G92 E0
G1 F1500 E-6.5
;LAYER_COUNT:175
;LAYER:0
M107
G0 F6000 X118.985 Y105.575 Z0.2
;TYPE:SKIRT
G1 F1500 E0
G1 F1200 X119.879 Y105.708 E0.03006
G1 X120.572 Y105.869 E0.05372
G1 X120.967 Y105.975 E0.06733
G1 X121.828 Y106.247 E0.09736
G1 X122.661 Y106.595 E0.12739
G1 X123.201 Y106.868 E0.14751
G1 X123.594 Y107.082 E0.16239
G1 X124.367 Y107.549 E0.19243
G1 X125.096 Y108.082 E0.22247
G1 X125.617 Y108.529 E0.2453
G1 X125.949 Y108.834 E0.2603
G1 X126.586 Y109.473 E0.2903
G1 X127.081 Y110.059 E0.31582
G1 X127.225 Y110.243 E0.32359
G1 X127.749 Y110.978 E0.35361
G1 X128.207 Y111.756 E0.38364
G1 X128.524 Y112.412 E0.40787
G1 X128.674 Y112.752 E0.42023
G1 X129.002 Y113.593 E0.45026
G1 X129.257 Y114.475 E0.48079
G1 X129.349 Y114.856 E0.49383
G1 X129.522 Y115.742 E0.52385
G1 X129.585 Y116.255 E0.54104
G1 X129.605 Y116.459 E0.54786
G1 X129.654 Y117.361 E0.57791
G1 X129.648 Y117.816 E0.59304
G1 X129.64 Y118.041 E0.60053
G1 X129.568 Y118.942 E0.63059
G1 X129.495 Y119.425 E0.64684
G1 X129.446 Y119.707 E0.65636
G1 X129.253 Y120.589 E0.68639
G1 X129.063 Y121.226 E0.7085
G1 X128.754 Y122.074 E0.73852
G1 X128.371 Y122.892 E0.76856
G1 X128.204 Y123.211 E0.78053
G1 X127.75 Y123.992 E0.81058
G1 X127.176 Y124.796 E0.84344
G1 X127.023 Y124.99 E0.85166
G1 X126.433 Y125.674 E0.8817
G1 X125.983 Y126.122 E0.90282
G1 X125.75 Y126.34 E0.91343
G1 X125.064 Y126.927 E0.94346
G1 X124.432 Y127.383 E0.96938
G1 X124.145 Y127.574 E0.98085
G1 X123.372 Y128.041 E1.01089
G1 X122.439 Y128.489 E1.04531
G1 X122.191 Y128.593 E1.05425
G1 X120.933 Y129.027 E1.09852
G1 X120.662 Y129.101 E1.10786
G1 X119.781 Y129.3 E1.1379
G1 X118.927 Y129.416 E1.16656
G1 X118.575 Y129.449 E1.17832
G1 X117.673 Y129.494 E1.20836
G1 X116.99 Y129.474 E1.23109
G1 X116.765 Y129.46 E1.23859
G1 X115.867 Y129.364 E1.26862
G1 X114.886 Y129.166 E1.30191
G1 X114.516 Y129.072 E1.31461
G1 X113.652 Y128.811 E1.34463
G1 X112.48 Y128.316 E1.38694
G1 X112.203 Y128.178 E1.39723
G1 X111.163 Y127.581 E1.43712
G1 X110.966 Y127.452 E1.44495
G1 X110.233 Y126.925 E1.47498
G1 X109.573 Y126.356 E1.50396
G1 X109.328 Y126.126 E1.51514
G1 X108.697 Y125.479 E1.5452
G1 X108.157 Y124.819 E1.57356
G1 X107.966 Y124.565 E1.58413
G1 X107.292 Y123.547 E1.62474
G1 X107.186 Y123.364 E1.63177
G1 X106.768 Y122.564 E1.66179
G1 X106.547 Y122.055 E1.68025
G1 X106.457 Y121.831 E1.68828
G1 X106.158 Y120.979 E1.71831
G1 X105.979 Y120.302 E1.7416
G1 X105.901 Y119.961 E1.75324
G1 X105.739 Y119.073 E1.78326
G1 X105.646 Y117.887 E1.82283
G1 X105.642 Y117.683 E1.82961
G1 X105.675 Y116.633 E1.86455
G1 X105.698 Y116.358 E1.87373
G1 X105.814 Y115.462 E1.90378
G1 X106.07 Y114.354 E1.9416
G1 X106.179 Y113.98 E1.95456
G1 X106.47 Y113.125 E1.9846
G1 X106.988 Y112.004 E2.02567
G1 X107.138 Y111.725 E2.03621
G1 X107.747 Y110.733 E2.07492
G1 X107.877 Y110.546 E2.0825
G1 X108.564 Y109.665 E2.11966
G1 X108.7 Y109.509 E2.12654
G1 X109.323 Y108.855 E2.15658
G1 X109.757 Y108.462 E2.17606
G1 X109.951 Y108.296 E2.18455
G1 X110.662 Y107.74 E2.21457
G1 X111.348 Y107.291 E2.24184
G1 X111.716 Y107.071 E2.2561
G1 X112.511 Y106.643 E2.28613
G1 X113.7 Y106.158 E2.32884
G1 X113.938 Y106.078 E2.33719
G1 X115.206 Y105.74 E2.38083
G1 X115.413 Y105.699 E2.38785
G1 X116.63 Y105.534 E2.4287
G1 X116.856 Y105.517 E2.43624
G1 X117.759 Y105.489 E2.46629
G1 X118.678 Y105.543 E2.49691
G1 X118.985 Y105.575 E2.50717
G0 F6000 X119.027 Y105.177
G1 F1200 X119.938 Y105.312 E2.5378
G1 X120.675 Y105.482 E2.56296
G1 X121.07 Y105.588 E2.57656
G1 X121.948 Y105.865 E2.60718
G1 X122.799 Y106.217 E2.63781
G1 X123.392 Y106.517 E2.65992
G1 X123.785 Y106.731 E2.6748
G1 X124.574 Y107.206 E2.70543
G1 X125.318 Y107.747 E2.73603
G1 X125.887 Y108.234 E2.76094
G1 X126.219 Y108.539 E2.77593
G1 X126.869 Y109.191 E2.80655
G1 X127.396 Y109.812 E2.83364
G1 X127.54 Y109.996 E2.84141
G1 X128.075 Y110.745 E2.87203
G1 X128.543 Y111.538 E2.90265
G1 X128.89 Y112.25 E2.929
G1 X129.04 Y112.59 E2.94136
G1 X129.375 Y113.448 E2.97199
G1 X129.646 Y114.381 E3.00431
G1 X129.738 Y114.762 E3.01734
G1 X129.915 Y115.665 E3.04795
G1 X129.983 Y116.216 E3.06642
G1 X130.003 Y116.42 E3.07323
G1 X130.053 Y117.339 E3.10384
G1 X130.047 Y117.831 E3.12021
G1 X130.039 Y118.056 E3.1277
G1 X129.967 Y118.973 E3.15829
G1 X129.89 Y119.494 E3.17581
G1 X129.841 Y119.776 E3.18533
G1 X129.644 Y120.675 E3.21594
G1 X129.444 Y121.346 E3.23923
G1 X129.13 Y122.211 E3.26983
G1 X128.725 Y123.077 E3.30163
G1 X128.558 Y123.396 E3.31361
G1 X128.096 Y124.193 E3.34425
G1 X127.49 Y125.044 E3.37899
G1 X127.337 Y125.238 E3.38721
G1 X126.736 Y125.936 E3.41785
G1 X126.256 Y126.414 E3.44038
G1 X126.023 Y126.632 E3.45099
G1 X125.324 Y127.232 E3.48163
G1 X124.654 Y127.716 E3.50912
G1 X124.367 Y127.907 E3.52059
G1 X123.579 Y128.384 E3.55122
G1 X122.593 Y128.858 E3.58761
G1 X122.345 Y128.962 E3.59655
G1 X121.482 Y129.281 E3.62716
G1 X121.038 Y129.413 E3.64256
G1 X120.767 Y129.487 E3.65191
G1 X119.869 Y129.69 E3.68253
G1 X118.964 Y129.815 E3.71291
G1 X118.612 Y129.848 E3.72467
G1 X117.693 Y129.894 E3.75528
G1 X116.965 Y129.874 E3.7795
G1 X116.74 Y129.86 E3.787
G1 X115.824 Y129.763 E3.81763
G1 X114.788 Y129.554 E3.85279
G1 X114.418 Y129.46 E3.86548
G1 X113.536 Y129.194 E3.89612
G1 X112.301 Y128.674 E3.94069
G1 X112.024 Y128.536 E3.95099
G1 X110.944 Y127.916 E3.9924
G1 X110.747 Y127.787 E4.00024
G1 X110 Y127.25 E4.03084
G1 X109.299 Y126.647 E4.06159
G1 X109.054 Y126.417 E4.07277
G1 X108.411 Y125.758 E4.10339
G1 X107.837 Y125.06 E4.13345
G1 X107.646 Y124.806 E4.14402
G1 X106.946 Y123.748 E4.18621
G1 X106.84 Y123.565 E4.19325
G1 X106.413 Y122.749 E4.22388
G1 X106.176 Y122.204 E4.24364
G1 X106.086 Y121.98 E4.25167
G1 X105.78 Y121.112 E4.28228
G1 X105.589 Y120.392 E4.30706
G1 X105.511 Y120.051 E4.31869
G1 X105.345 Y119.145 E4.34933
G1 X105.246 Y117.895 E4.39104
G1 X105.242 Y117.691 E4.39782
G1 X105.277 Y116.6 E4.43413
G1 X105.3 Y116.325 E4.44331
G1 X105.416 Y115.411 E4.47395
G1 X105.686 Y114.242 E4.51385
G1 X105.795 Y113.868 E4.52681
G1 X106.091 Y112.996 E4.55744
G1 X106.636 Y111.815 E4.6007
G1 X106.786 Y111.536 E4.61124
G1 X107.419 Y110.504 E4.6515
G1 X107.549 Y110.317 E4.65908
G1 X108.262 Y109.402 E4.69766
G1 X108.398 Y109.246 E4.70454
G1 X109.033 Y108.579 E4.73517
G1 X109.496 Y108.158 E4.75599
G1 X109.69 Y107.992 E4.76448
G1 X110.415 Y107.424 E4.79511
G1 X111.143 Y106.948 E4.82404
G1 X111.511 Y106.728 E4.8383
G1 X112.321 Y106.29 E4.86893
G1 X113.573 Y105.778 E4.91392
G1 X113.811 Y105.698 E4.92227
G1 X115.128 Y105.348 E4.96759
G1 X115.335 Y105.307 E4.97461
G1 X116.6 Y105.135 E5.01707
G1 X116.826 Y105.118 E5.02461
G1 X117.746 Y105.089 E5.05523
G1 X118.72 Y105.145 E5.08767
G1 X119.027 Y105.177 E5.09794
G0 F6000 X119.068 Y104.779
G1 F1200 X119.996 Y104.916 E5.12914
G1 X120.779 Y105.096 E5.15586
G1 X121.174 Y105.202 E5.16946
G1 X122.069 Y105.483 E5.20067
G1 X122.936 Y105.84 E5.23185
G1 X123.583 Y106.165 E5.25593
G1 X123.976 Y106.379 E5.27082
G1 X124.78 Y106.863 E5.30203
G1 X125.54 Y107.413 E5.33323
G1 X126.158 Y107.939 E5.36022
G1 X126.49 Y108.244 E5.37522
G1 X127.153 Y108.908 E5.40643
G1 X127.711 Y109.566 E5.43512
G1 X127.855 Y109.75 E5.44289
G1 X128.401 Y110.512 E5.47407
G1 X128.88 Y111.318 E5.50526
G1 X129.256 Y112.089 E5.53379
G1 X129.406 Y112.429 E5.54615
G1 X129.748 Y113.302 E5.57733
G1 X130.035 Y114.287 E5.61146
G1 X130.127 Y114.668 E5.62449
G1 X130.308 Y115.588 E5.65568
G1 X130.382 Y116.177 E5.67542
G1 X130.402 Y116.381 E5.68224
G1 X130.453 Y117.317 E5.71342
G1 X130.447 Y117.845 E5.73098
G1 X130.439 Y118.07 E5.73847
G1 X130.366 Y119.005 E5.76966
G1 X130.284 Y119.562 E5.78839
G1 X130.235 Y119.844 E5.79791
G1 X130.035 Y120.76 E5.82909
G1 X129.889 Y121.266 E5.84661
G1 X129.826 Y121.466 E5.85358
G1 X129.506 Y122.348 E5.88479
G1 X129.079 Y123.263 E5.91837
G1 X128.912 Y123.582 E5.93035
G1 X128.442 Y124.393 E5.96152
G1 X127.804 Y125.292 E5.99819
G1 X127.651 Y125.486 E6.00641
G1 X127.039 Y126.197 E6.03761
G1 X126.529 Y126.706 E6.06157
G1 X126.296 Y126.924 E6.07219
G1 X125.585 Y127.535 E6.10337
G1 X124.875 Y128.049 E6.13252
G1 X124.588 Y128.24 E6.14399
G1 X123.786 Y128.726 E6.17518
G1 X122.748 Y129.227 E6.21351
G1 X122.5 Y129.331 E6.22246
G1 X121.62 Y129.657 E6.25367
G1 X121.144 Y129.798 E6.27018
G1 X120.873 Y129.872 E6.27952
G1 X119.958 Y130.081 E6.31074
G1 X119.002 Y130.213 E6.34284
G1 X118.65 Y130.246 E6.3546
G1 X117.713 Y130.294 E6.3858
G1 X116.94 Y130.273 E6.41152
G1 X116.715 Y130.259 E6.41902
G1 X115.782 Y130.161 E6.45022
G1 X114.689 Y129.941 E6.48731
G1 X114.319 Y129.847 E6.5
G1 X113.421 Y129.578 E6.53118
G1 X112.549 Y129.233 E6.56237
G1 X112.123 Y129.032 E6.57804
G1 X111.846 Y128.894 E6.58833
G1 X110.725 Y128.251 E6.63131
G1 X110.528 Y128.122 E6.63915
G1 X109.766 Y127.575 E6.67034
G1 X109.025 Y126.939 E6.70282
G1 X108.78 Y126.709 E6.714
G1 X108.124 Y126.038 E6.74521
G1 X107.517 Y125.3 E6.77699
G1 X107.326 Y125.046 E6.78756
G1 X106.599 Y123.948 E6.83136
G1 X106.493 Y123.765 E6.8384
G1 X106.058 Y122.935 E6.86956
G1 X105.805 Y122.353 E6.89067
G1 X105.715 Y122.129 E6.8987
G1 X105.403 Y121.245 E6.92988
G1 X105.199 Y120.481 E6.95618
G1 X105.121 Y120.14 E6.96782
G1 X104.951 Y119.217 E6.99903
G1 X104.846 Y117.903 E7.04287
G1 X104.842 Y117.699 E7.04966
G1 X104.878 Y116.566 E7.08736
G1 X104.901 Y116.291 E7.09654
G1 X105.019 Y115.361 E7.12772
G1 X105.302 Y114.13 E7.16973
G1 X105.411 Y113.756 E7.18269
G1 X105.712 Y112.868 E7.21388
G1 X106.283 Y111.625 E7.25937
G1 X106.433 Y111.346 E7.26991
G1 X107.09 Y110.276 E7.31167
G1 X107.22 Y110.089 E7.31924
G1 X107.96 Y109.14 E7.35927
G1 X108.096 Y108.984 E7.36615
G1 X108.742 Y108.303 E7.39737
G1 X109.236 Y107.854 E7.41958
G1 X109.43 Y107.688 E7.42807
G1 X110.168 Y107.109 E7.45927
G1 X110.938 Y106.605 E7.48988
G1 X111.306 Y106.385 E7.50414
G1 X112.13 Y105.938 E7.53531
G1 X112.99 Y105.563 E7.56652
G1 X113.445 Y105.399 E7.58261
G1 X113.683 Y105.319 E7.59096
G1 X114.584 Y105.059 E7.62215
G1 X115.258 Y104.915 E7.64507
G1 X116.57 Y104.736 E7.68911
G1 X116.796 Y104.719 E7.69665
G1 X117.733 Y104.689 E7.72783
G1 X118.761 Y104.747 E7.76208
G1 X119.068 Y104.779 E7.77234
G0 F6000 X119.11 Y104.381
G1 F1200 X120.055 Y104.52 E7.80411
G1 X120.883 Y104.71 E7.83237
G1 X121.278 Y104.816 E7.84597
G1 X122.189 Y105.101 E7.87772
G1 X123.073 Y105.463 E7.90949
G1 X123.775 Y105.814 E7.93559
G1 X124.168 Y106.028 E7.95048
G1 X124.986 Y106.519 E7.98221
G1 X125.761 Y107.078 E8.01399
G1 X126.428 Y107.645 E8.04311
G1 X126.76 Y107.95 E8.0581
G1 X127.436 Y108.625 E8.08988
G1 X128.026 Y109.319 E8.12017
G1 X128.17 Y109.503 E8.12794
G1 X128.726 Y110.279 E8.1597
G1 X129.216 Y111.099 E8.19147
G1 X129.622 Y111.928 E8.22217
G1 X129.772 Y112.268 E8.23453
G1 X130.121 Y113.156 E8.26626
G1 X130.424 Y114.193 E8.3022
G1 X130.516 Y114.574 E8.31523
G1 X130.701 Y115.511 E8.347
G1 X130.78 Y116.138 E8.36802
G1 X130.8 Y116.342 E8.37484
G1 X130.853 Y117.295 E8.40658
G1 X130.847 Y117.859 E8.42534
G1 X130.839 Y118.084 E8.43283
G1 X130.765 Y119.036 E8.46459
G1 X130.678 Y119.631 E8.48459
G1 X130.629 Y119.913 E8.49411
G1 X130.426 Y120.846 E8.52587
G1 X130.27 Y121.386 E8.54456
G1 X130.207 Y121.586 E8.55154
G1 X129.883 Y122.484 E8.58329
G1 X129.434 Y123.448 E8.61866
G1 X129.267 Y123.767 E8.63063
G1 X128.789 Y124.594 E8.6624
G1 X128.118 Y125.539 E8.70095
G1 X127.965 Y125.733 E8.70917
G1 X127.343 Y126.458 E8.74094
G1 X126.803 Y126.999 E8.76637
G1 X126.57 Y127.217 E8.77698
G1 X125.846 Y127.839 E8.80872
G1 X125.097 Y128.382 E8.83949
G1 X124.81 Y128.573 E8.85096
G1 X123.994 Y129.069 E8.88272
G1 X122.903 Y129.596 E8.92302
G1 X122.655 Y129.7 E8.93196
G1 X121.76 Y130.032 E8.96371
G1 X121.249 Y130.184 E8.98145
G1 X120.978 Y130.258 E8.99079
G1 X120.047 Y130.471 E9.02255
G1 X119.039 Y130.611 E9.0564
G1 X118.687 Y130.644 E9.06816
G1 X117.734 Y130.693 E9.0999
G1 X116.915 Y130.672 E9.12715
G1 X116.69 Y130.658 E9.13465
G1 X115.74 Y130.559 E9.16642
G1 X114.591 Y130.329 E9.20539
G1 X114.221 Y130.235 E9.21809
G1 X113.306 Y129.961 E9.24985
G1 X112.418 Y129.612 E9.28159
G1 X111.945 Y129.39 E9.29897
G1 X111.668 Y129.252 E9.30926
G1 X110.506 Y128.585 E9.35382
G1 X110.309 Y128.456 E9.36166
G1 X109.533 Y127.9 E9.39341
G1 X108.751 Y127.23 E9.42766
G1 X108.506 Y127 E9.43883
G1 X107.838 Y126.318 E9.47059
G1 X107.198 Y125.54 E9.50409
G1 X107.007 Y125.286 E9.51466
G1 X106.253 Y124.149 E9.56004
G1 X106.147 Y123.966 E9.56707
G1 X105.704 Y123.12 E9.59883
G1 X105.434 Y122.502 E9.62127
G1 X105.344 Y122.278 E9.62929
G1 X105.025 Y121.378 E9.66105
G1 X104.809 Y120.57 E9.68887
G1 X104.731 Y120.229 E9.70051
G1 X104.557 Y119.29 E9.73227
G1 X104.446 Y117.91 E9.77832
G1 X104.442 Y117.706 E9.7851
G1 X104.48 Y116.533 E9.82414
G1 X104.503 Y116.258 E9.83332
G1 X104.622 Y115.311 E9.86506
G1 X104.918 Y114.018 E9.90918
G1 X105.027 Y113.644 E9.92214
G1 X105.333 Y112.74 E9.95388
G1 X105.713 Y111.864 E9.98564
G1 X105.931 Y111.436 E10.00161
G1 X106.081 Y111.157 E10.01215
G1 X106.762 Y110.048 E10.05543
G1 X106.892 Y109.861 E10.06301
G1 X107.659 Y108.877 E10.1045
G1 X107.795 Y108.721 E10.11139
G1 X108.452 Y108.028 E10.14315
G1 X108.976 Y107.55 E10.16674
G1 X109.17 Y107.384 E10.17523
G1 X109.921 Y106.794 E10.207
G1 X110.732 Y106.261 E10.23927
G1 X111.1 Y106.041 E10.25353
G1 X111.94 Y105.586 E10.28531
G1 X112.814 Y105.203 E10.31705
G1 X113.318 Y105.02 E10.33488
G1 X113.556 Y104.94 E10.34323
G1 X114.473 Y104.674 E10.37499
G1 X115.18 Y104.522 E10.39904
G1 X116.54 Y104.337 E10.44469
G1 X116.766 Y104.32 E10.45223
G1 X117.72 Y104.288 E10.48398
G1 X118.803 Y104.349 E10.52005
G1 X119.11 Y104.381 E10.53032
G1 F1500 E4.03032
;MESH:Servo 2 Arm Connector Test 1.stl
G0 F6000 X117.912 Y115.035
G0 X117.768 Y116.109
G0 X118.552 Y116.943
G0 X118.69 Y117.454
G0 X118.571 Y118.007
G0 X118.264 Y118.308
G0 X117.583 Y118.705
;TYPE:WALL-INNER
G1 F1500 E10.53032
G1 F1200 X117.483 Y118.697 E10.53366
G1 X117.411 Y118.686 E10.53608
G1 X117.274 Y118.649 E10.5408
G1 X117.129 Y118.592 E10.54598
G1 X117.062 Y118.559 E10.54847
G1 X116.948 Y118.485 E10.55299
G1 X116.845 Y118.398 E10.55747
G1 X116.742 Y118.287 E10.56251
G1 X116.606 Y118.102 E10.57014
G1 X116.513 Y117.931 E10.57662
G1 X116.466 Y117.803 E10.58115
G1 X116.452 Y117.746 E10.58311
G1 X116.43 Y117.616 E10.58749
G1 X116.423 Y117.458 E10.59275
G1 X116.435 Y117.334 E10.59689
G1 X116.481 Y117.147 E10.6033
G1 X116.51 Y117.074 E10.60591
G1 X116.542 Y117.008 E10.60835
G1 X116.703 Y116.74 E10.61875
G1 X116.742 Y116.691 E10.62083
G1 X116.835 Y116.593 E10.62533
G1 X116.95 Y116.497 E10.63031
G1 X117.008 Y116.458 E10.63263
G1 X117.129 Y116.392 E10.63722
G1 X117.321 Y116.321 E10.64403
G1 X117.48 Y116.289 E10.64942
G1 X117.618 Y116.279 E10.65402
G1 X117.739 Y116.286 E10.65805
G1 X117.899 Y116.309 E10.66343
G1 X117.98 Y116.329 E10.66621
G1 X118.111 Y116.375 E10.67082
G1 X118.264 Y116.45 E10.67649
G1 X118.325 Y116.488 E10.67888
G1 X118.465 Y116.594 E10.68472
G1 X118.587 Y116.713 E10.69039
G1 X118.64 Y116.776 E10.69313
G1 X118.701 Y116.859 E10.69655
G1 X118.755 Y116.969 E10.70063
G1 X118.802 Y117.097 E10.70517
G1 X118.839 Y117.244 E10.71021
G1 X118.861 Y117.441 E10.7168
G1 X118.862 Y117.574 E10.72122
G1 X118.857 Y117.64 E10.72343
G1 X118.845 Y117.727 E10.72635
G1 X118.805 Y117.896 E10.73212
G1 X118.745 Y118.045 E10.73747
G1 X118.713 Y118.101 E10.73961
G1 X118.619 Y118.231 E10.74495
G1 X118.569 Y118.287 E10.74744
G1 X118.396 Y118.446 E10.75526
G1 X118.278 Y118.527 E10.76002
G1 X118.065 Y118.63 E10.76789
G1 X117.895 Y118.679 E10.77377
