;FLAVOR:Marlin
;TIME:6554
;Filament used: 4.73964m
;Layer height: 0.2
;MINX:86.5
;MINY:65
;MINZ:0.2
;MAXX:148.5
;MAXY:170
;MAXZ:24.4
;Generated with Cura_SteamEngine 4.6.1
M140 S60
M105
M190 S60
M104 S200
M105
M109 S200
M82 ;absolute extrusion mode
; Ender 3 Custom Start G-code
G92 E0 ; Reset Extruder
G28 ; Home all axes
G1 Z2.0 F3000 ; Move Z Axis up little to prevent scratching of Heat Bed
G1 X0.1 Y20 Z0.3 F5000.0 ; Move to start position
G1 X0.1 Y200.0 Z0.3 F1500.0 E15 ; Draw the first line
G1 X0.4 Y200.0 Z0.3 F5000.0 ; Move to side a little
G1 X0.4 Y20 Z0.3 F1500.0 E30 ; Draw the second line
G92 E0 ; Reset Extruder
G1 Z2.0 F3000 ; Move Z Axis up little to prevent scratching of Heat Bed
G1 X5 Y20 Z0.3 F5000.0 ; Move over to prevent blob squish
G92 E0
G92 E0
G1 F1500 E-6.5
;LAYER_COUNT:122
;LAYER:0
M107
G0 F6000 X132.754 Y65.813 Z0.2
;TYPE:SKIRT
G1 F1500 E0
G1 F1200 X133.26 Y65.833 E0.01684
G1 X133.667 Y65.859 E0.03041
G1 X134.553 Y65.954 E0.06004
G1 X135.052 Y66.03 E0.07683
G1 X136.096 Y66.246 E0.11229
G1 X136.597 Y66.377 E0.12952
G1 X137.645 Y66.712 E0.16611
G1 X138.139 Y66.9 E0.18369
G1 X139.133 Y67.34 E0.21984
G1 X139.617 Y67.586 E0.2379
G1 X140.547 Y68.122 E0.2736
G1 X140.977 Y68.401 E0.29065
G1 X141.814 Y69.007 E0.32502
G1 X142.216 Y69.33 E0.34217
G1 X143.021 Y70.05 E0.37809
G1 X143.409 Y70.436 E0.3963
G1 X144.166 Y71.278 E0.43396
G1 X144.481 Y71.67 E0.45068
G1 X145.075 Y72.489 E0.48433
G1 X145.369 Y72.94 E0.50224
G1 X145.918 Y73.891 E0.53876
G1 X146.143 Y74.334 E0.55529
G1 X146.556 Y75.258 E0.58895
G1 X146.748 Y75.752 E0.60658
G1 X147.078 Y76.752 E0.6416
G1 X147.218 Y77.263 E0.65922
G1 X147.459 Y78.385 E0.69739
G1 X147.538 Y78.891 E0.71443
G1 X147.645 Y79.906 E0.74837
G1 X147.679 Y80.527 E0.76906
G1 X147.693 Y80.963 E0.78357
G1 X147.7 Y81.587 E0.80432
G1 X147.699 Y90.416 E1.09798
G1 X147.689 Y91.133 E1.12183
G1 X147.636 Y92.035 E1.15188
G1 X147.504 Y92.928 E1.1819
G1 X147.364 Y93.549 E1.20308
G1 X146.696 Y96.129 E1.29172
G1 X146.122 Y98.627 E1.37697
G1 X145.629 Y101.092 E1.46058
G1 X145.195 Y103.632 E1.54628
G1 X144.842 Y106.119 E1.62983
G1 X144.556 Y108.647 E1.71445
G1 X144.343 Y111.152 E1.79806
G1 X144.199 Y113.715 E1.88344
G1 X144.128 Y116.245 E1.96763
G1 X144.13 Y118.78 E2.05194
G1 X144.203 Y121.348 E2.13739
G1 X144.347 Y123.855 E2.22091
G1 X144.562 Y126.385 E2.30536
G1 X144.851 Y128.918 E2.39015
G1 X145.207 Y131.412 E2.47394
G1 X145.645 Y133.961 E2.55997
G1 X146.138 Y136.416 E2.64325
G1 X146.709 Y138.894 E2.72783
G1 X147.053 Y140.25 E2.77436
G1 X147.355 Y141.406 E2.8141
G1 X147.545 Y142.289 E2.84414
G1 X147.68 Y143.601 E2.88801
G1 X147.693 Y143.945 E2.89946
G1 X147.7 Y144.33 E2.91226
G1 X147.699 Y153.391 E3.21363
G1 X147.687 Y154.267 E3.24277
G1 X147.667 Y154.78 E3.25985
G1 X147.643 Y155.154 E3.27231
G1 X147.549 Y156.028 E3.30155
G1 X147.471 Y156.543 E3.31887
G1 X147.305 Y157.393 E3.34768
G1 X147.253 Y157.61 E3.3551
G1 X147.161 Y157.967 E3.36736
G1 X147.082 Y158.251 E3.37717
G1 X146.788 Y159.145 E3.40847
G1 X146.6 Y159.639 E3.42605
G1 X146.156 Y160.64 E3.46247
G1 X145.91 Y161.123 E3.4805
G1 X145.397 Y162.016 E3.51475
G1 X145.115 Y162.454 E3.53208
G1 X144.465 Y163.353 E3.56898
G1 X144.145 Y163.748 E3.58588
G1 X143.45 Y164.521 E3.62046
G1 X143.063 Y164.91 E3.63871
G1 X142.209 Y165.677 E3.67689
G1 X141.812 Y165.995 E3.6938
G1 X141.004 Y166.58 E3.72698
G1 X140.559 Y166.87 E3.74465
G1 X139.601 Y167.422 E3.78142
G1 X139.157 Y167.647 E3.79798
G1 X138.248 Y168.054 E3.8311
G1 X137.755 Y168.246 E3.8487
G1 X136.743 Y168.58 E3.88415
G1 X136.231 Y168.72 E3.9018
G1 X135.121 Y168.958 E3.93956
G1 X134.617 Y169.037 E3.95653
G1 X133.512 Y169.149 E3.99347
G1 X132.74 Y169.185 E4.01917
G1 X132.376 Y169.195 E4.03128
G1 X131.896 Y169.2 E4.04725
G1 X103.068 Y169.199 E5.00607
G1 X102.259 Y169.188 E5.03298
G1 X101.752 Y169.169 E5.04986
G1 X101.342 Y169.143 E5.06352
G1 X100.448 Y169.046 E5.09343
G1 X99.944 Y168.969 E5.11039
G1 X99.107 Y168.805 E5.13875
G1 X98.89 Y168.753 E5.14618
G1 X98.533 Y168.661 E5.15844
G1 X98.249 Y168.582 E5.16824
G1 X97.347 Y168.285 E5.19983
G1 X96.849 Y168.095 E5.21756
G1 X95.848 Y167.65 E5.25399
G1 X95.368 Y167.405 E5.27192
G1 X94.488 Y166.899 E5.30568
G1 X94.051 Y166.618 E5.32296
G1 X93.147 Y165.965 E5.36005
G1 X92.752 Y165.645 E5.37696
G1 X91.979 Y164.95 E5.41153
G1 X91.586 Y164.559 E5.42997
G1 X90.813 Y163.697 E5.46848
G1 X90.498 Y163.303 E5.48526
G1 X89.919 Y162.503 E5.5181
G1 X89.629 Y162.058 E5.53577
G1 X89.072 Y161.09 E5.57291
G1 X88.84 Y160.631 E5.59002
G1 X88.428 Y159.706 E5.6237
G1 X88.241 Y159.222 E5.64096
G1 X87.912 Y158.217 E5.67613
G1 X87.775 Y157.712 E5.69353
G1 X87.541 Y156.617 E5.73077
G1 X87.46 Y156.099 E5.74821
G1 X87.352 Y155.059 E5.78299
G1 X87.32 Y154.451 E5.80324
G1 X87.307 Y154.037 E5.81702
G1 X87.3 Y153.413 E5.83777
G1 X87.301 Y144.561 E6.13219
G1 X87.311 Y143.864 E6.15537
G1 X87.364 Y142.962 E6.18543
G1 X87.496 Y142.069 E6.21545
G1 X87.636 Y141.453 E6.23646
G1 X88.304 Y138.873 E6.3251
G1 X88.869 Y136.411 E6.40912
G1 X89.381 Y133.86 E6.49566
G1 X89.803 Y131.384 E6.5792
G1 X90.157 Y128.89 E6.66298
G1 X90.441 Y126.386 E6.7468
G1 X90.659 Y123.813 E6.83268
G1 X90.801 Y121.286 E6.91686
G1 X90.872 Y118.755 E7.00108
G1 X90.87 Y116.221 E7.08536
G1 X90.797 Y113.651 E7.17087
G1 X90.653 Y111.144 E7.25439
G1 X90.438 Y108.614 E7.33884
G1 X90.149 Y106.081 E7.42364
G1 X89.793 Y103.587 E7.50743
G1 X89.36 Y101.065 E7.59254
G1 X88.863 Y98.588 E7.67656
G1 X88.282 Y96.072 E7.76245
G1 X87.965 Y94.821 E7.80537
G1 X87.641 Y93.581 E7.848
G1 X87.452 Y92.698 E7.87803
G1 X87.341 Y91.801 E7.9081
G1 X87.315 Y91.309 E7.92448
G1 X87.3 Y90.67 E7.94574
G1 X87.301 Y81.609 E8.24711
G1 X87.313 Y80.733 E8.27625
G1 X87.334 Y80.206 E8.29379
G1 X87.36 Y79.809 E8.30703
G1 X87.459 Y78.911 E8.33707
G1 X87.536 Y78.415 E8.35377
G1 X87.695 Y77.605 E8.38122
G1 X87.746 Y77.392 E8.38851
G1 X87.839 Y77.033 E8.40084
G1 X87.918 Y76.749 E8.41065
G1 X88.217 Y75.843 E8.44238
G1 X88.413 Y75.33 E8.46064
G1 X88.861 Y74.324 E8.49727
G1 X89.102 Y73.853 E8.51487
G1 X89.632 Y72.937 E8.55007
G1 X89.913 Y72.505 E8.56721
G1 X90.533 Y71.651 E8.60231
G1 X90.855 Y71.253 E8.61934
G1 X91.554 Y70.475 E8.65412
G1 X91.939 Y70.088 E8.67228
G1 X92.796 Y69.319 E8.71058
G1 X93.192 Y69.002 E8.72745
G1 X94.002 Y68.416 E8.7607
G1 X94.446 Y68.127 E8.77832
G1 X95.391 Y67.582 E8.8146
G1 X95.836 Y67.356 E8.8312
G1 X96.77 Y66.939 E8.86522
G1 X97.263 Y66.748 E8.88281
G1 X98.271 Y66.417 E8.9181
G1 X98.782 Y66.278 E8.93571
G1 X99.86 Y66.046 E8.97238
G1 X100.364 Y65.966 E8.98936
G1 X101.408 Y65.855 E9.02428
G1 X102.032 Y65.821 E9.04506
G1 X102.465 Y65.807 E9.05947
G1 X103.087 Y65.8 E9.08016
G1 X131.906 Y65.801 E10.03868
G1 X132.754 Y65.813 E10.06689
G0 F6000 X132.76 Y65.413
G1 F1200 X133.286 Y65.434 E10.0844
G1 X133.693 Y65.46 E10.09796
G1 X134.613 Y65.559 E10.12874
G1 X135.112 Y65.635 E10.14553
G1 X136.198 Y65.859 E10.18241
G1 X136.699 Y65.99 E10.19963
G1 X137.787 Y66.338 E10.23763
G1 X138.281 Y66.526 E10.25521
G1 X139.314 Y66.984 E10.29279
G1 X139.798 Y67.23 E10.31085
G1 X140.765 Y67.787 E10.34796
G1 X141.195 Y68.066 E10.36501
G1 X142.064 Y68.695 E10.40069
G1 X142.466 Y69.018 E10.41784
G1 X143.303 Y69.766 E10.45518
G1 X143.691 Y70.152 E10.47338
G1 X144.478 Y71.027 E10.51253
G1 X144.793 Y71.419 E10.52925
G1 X145.41 Y72.27 E10.56421
G1 X145.704 Y72.721 E10.58212
G1 X146.275 Y73.71 E10.6201
G1 X146.5 Y74.153 E10.63663
G1 X146.929 Y75.113 E10.6716
G1 X147.121 Y75.607 E10.68923
G1 X147.464 Y76.646 E10.72562
G1 X147.604 Y77.157 E10.74324
G1 X147.854 Y78.323 E10.7829
G1 X147.933 Y78.829 E10.79994
G1 X148.044 Y79.885 E10.83525
G1 X148.078 Y80.506 E10.85594
G1 X148.093 Y80.958 E10.87098
G1 X148.1 Y81.587 E10.8919
G1 X148.099 Y90.422 E11.18576
G1 X148.089 Y91.139 E11.20961
G1 X148.036 Y92.058 E11.24022
G1 X147.904 Y92.969 E11.27084
G1 X147.751 Y93.649 E11.29402
G1 X147.089 Y96.205 E11.38184
G1 X146.51 Y98.723 E11.46777
G1 X146.02 Y101.172 E11.55084
G1 X145.592 Y103.684 E11.6356
G1 X145.241 Y106.149 E11.71841
G1 X144.954 Y108.689 E11.80343
G1 X144.74 Y111.208 E11.88751
G1 X144.599 Y113.714 E11.97099
G1 X144.528 Y116.256 E12.05557
G1 X144.53 Y118.768 E12.13912
G1 X144.603 Y121.314 E12.22384
G1 X144.747 Y123.834 E12.30779
G1 X144.96 Y126.343 E12.39154
G1 X145.25 Y128.884 E12.4766
G1 X145.603 Y131.359 E12.55976
G1 X146.032 Y133.851 E12.64386
G1 X146.534 Y136.353 E12.72873
G1 X147.099 Y138.803 E12.81236
G1 X147.441 Y140.152 E12.85865
G1 X147.742 Y141.305 E12.89828
G1 X147.936 Y142.205 E12.9289
G1 X148.051 Y143.119 E12.95954
G1 X148.079 Y143.586 E12.9751
G1 X148.092 Y143.93 E12.98655
G1 X148.1 Y144.33 E12.99986
G1 X148.099 Y153.396 E13.3014
G1 X148.087 Y154.272 E13.33054
G1 X148.066 Y154.806 E13.34831
G1 X148.042 Y155.18 E13.36077
G1 X147.944 Y156.088 E13.39115
G1 X147.866 Y156.603 E13.40847
G1 X147.694 Y157.486 E13.4384
G1 X147.642 Y157.703 E13.44582
G1 X147.546 Y158.074 E13.45856
G1 X147.467 Y158.358 E13.46837
G1 X147.162 Y159.287 E13.50089
G1 X146.974 Y159.781 E13.51847
G1 X146.512 Y160.822 E13.55635
G1 X146.266 Y161.305 E13.57438
G1 X145.734 Y162.232 E13.60993
G1 X145.452 Y162.67 E13.62725
G1 X144.775 Y163.604 E13.66562
G1 X144.455 Y163.999 E13.68253
G1 X143.734 Y164.803 E13.71845
G1 X143.347 Y165.192 E13.7367
G1 X142.459 Y165.989 E13.77638
G1 X142.062 Y166.307 E13.7933
G1 X141.222 Y166.915 E13.82779
G1 X140.777 Y167.205 E13.84546
G1 X139.782 Y167.779 E13.88366
G1 X139.338 Y168.004 E13.90022
G1 X138.393 Y168.426 E13.93464
G1 X137.9 Y168.618 E13.95224
G1 X136.849 Y168.966 E13.98906
G1 X136.337 Y169.106 E14.00671
G1 X135.182 Y169.353 E14.046
G1 X134.678 Y169.432 E14.06297
G1 X133.531 Y169.548 E14.10131
G1 X132.759 Y169.584 E14.12701
G1 X132.38 Y169.595 E14.13963
G1 X131.896 Y169.6 E14.15572
G1 X103.063 Y169.599 E15.11471
G1 X102.254 Y169.588 E15.14162
G1 X101.727 Y169.568 E15.15916
G1 X101.317 Y169.542 E15.17283
G1 X100.387 Y169.441 E15.20394
G1 X99.883 Y169.364 E15.2209
G1 X99.014 Y169.194 E15.25035
G1 X98.797 Y169.142 E15.25777
G1 X98.426 Y169.046 E15.27052
G1 X98.142 Y168.967 E15.28032
G1 X97.204 Y168.659 E15.31316
G1 X96.706 Y168.469 E15.33089
G1 X95.666 Y168.006 E15.36875
G1 X95.186 Y167.761 E15.38668
G1 X94.272 Y167.236 E15.42173
G1 X93.835 Y166.955 E15.43901
G1 X92.896 Y166.275 E15.47757
G1 X92.501 Y165.955 E15.49448
G1 X91.697 Y165.233 E15.53042
G1 X91.304 Y164.842 E15.54886
G1 X90.501 Y163.947 E15.58885
G1 X90.186 Y163.553 E15.60563
G1 X89.584 Y162.721 E15.63979
G1 X89.294 Y162.276 E15.65746
G1 X88.715 Y161.271 E15.69603
G1 X88.483 Y160.812 E15.71314
G1 X88.055 Y159.85 E15.74816
G1 X87.868 Y159.366 E15.76542
G1 X87.526 Y158.321 E15.80199
G1 X87.389 Y157.816 E15.81939
G1 X87.146 Y156.679 E15.85806
G1 X87.065 Y156.161 E15.8755
G1 X86.953 Y155.08 E15.91165
G1 X86.921 Y154.472 E15.9319
G1 X86.907 Y154.042 E15.94621
G1 X86.9 Y153.413 E15.96713
G1 X86.901 Y144.555 E16.26175
G1 X86.911 Y143.858 E16.28493
G1 X86.964 Y142.939 E16.31555
G1 X87.097 Y142.028 E16.34617
G1 X87.248 Y141.353 E16.36917
G1 X87.921 Y138.756 E16.4584
G1 X88.481 Y136.314 E16.54173
G1 X88.988 Y133.787 E16.62746
G1 X89.399 Y131.373 E16.7089
G1 X89.762 Y128.821 E16.79464
G1 X90.046 Y126.308 E16.87875
G1 X90.26 Y123.792 E16.96274
G1 X90.401 Y121.287 E17.04618
G1 X90.472 Y118.744 E17.1308
G1 X90.47 Y116.232 E17.21435
G1 X90.397 Y113.686 E17.29906
G1 X90.253 Y111.165 E17.38305
G1 X90.04 Y108.656 E17.4668
G1 X89.75 Y106.115 E17.55186
G1 X89.397 Y103.64 E17.63501
G1 X88.967 Y101.14 E17.71938
G1 X88.473 Y98.677 E17.80293
G1 X87.895 Y96.174 E17.88838
G1 X87.559 Y94.848 E17.93387
G1 X87.254 Y93.682 E17.97396
G1 X87.06 Y92.782 E18.00458
G1 X86.945 Y91.868 E18.03522
G1 X86.915 Y91.321 E18.05344
G1 X86.9 Y90.67 E18.0751
G1 X86.901 Y81.604 E18.37663
G1 X86.913 Y80.728 E18.40577
G1 X86.935 Y80.18 E18.42401
G1 X86.961 Y79.783 E18.43725
G1 X87.063 Y78.85 E18.46846
G1 X87.14 Y78.354 E18.48516
G1 X87.306 Y77.512 E18.5137
G1 X87.357 Y77.299 E18.52099
G1 X87.533 Y76.642 E18.54361
G1 X87.843 Y75.7 E18.57659
G1 X88.039 Y75.187 E18.59486
G1 X88.505 Y74.142 E18.63291
G1 X88.746 Y73.671 E18.65051
G1 X89.296 Y72.719 E18.68708
G1 X89.577 Y72.287 E18.70422
G1 X90.222 Y71.4 E18.7407
G1 X90.544 Y71.002 E18.75772
G1 X91.27 Y70.193 E18.79388
G1 X91.655 Y69.806 E18.81203
G1 X92.546 Y69.007 E18.85184
G1 X92.942 Y68.69 E18.86871
G1 X93.783 Y68.081 E18.90325
G1 X94.227 Y67.792 E18.92087
G1 X95.21 Y67.225 E18.95861
G1 X95.655 Y66.999 E18.97521
G1 X96.626 Y66.566 E19.01057
G1 X97.119 Y66.375 E19.02816
G1 X98.166 Y66.031 E19.06481
G1 X98.677 Y65.892 E19.08243
G1 X99.797 Y65.651 E19.12053
G1 X100.301 Y65.571 E19.1375
G1 X101.386 Y65.456 E19.17379
G1 X102.01 Y65.422 E19.19458
G1 X102.46 Y65.407 E19.20955
G1 X103.087 Y65.4 E19.23041
G1 X131.912 Y65.401 E20.18913
G1 X132.76 Y65.413 E20.21734
G0 F6000 X132.766 Y65.013
G1 F1200 X133.311 Y65.034 E20.23548
G1 X133.718 Y65.06 E20.24904
G1 X134.673 Y65.163 E20.28099
G1 X135.172 Y65.239 E20.29778
G1 X136.299 Y65.472 E20.33606
G1 X136.8 Y65.603 E20.35328
G1 X137.929 Y65.964 E20.3927
G1 X138.423 Y66.152 E20.41028
G1 X139.495 Y66.627 E20.44928
G1 X139.979 Y66.873 E20.46734
G1 X140.982 Y67.451 E20.50584
G1 X141.412 Y67.73 E20.52289
G1 X142.315 Y68.383 E20.55995
G1 X142.717 Y68.706 E20.57711
G1 X143.585 Y69.483 E20.61585
G1 X143.973 Y69.869 E20.63406
G1 X144.79 Y70.777 E20.67468
G1 X145.105 Y71.169 E20.69141
G1 X145.745 Y72.052 E20.72768
G1 X146.039 Y72.503 E20.74559
G1 X146.632 Y73.529 E20.785
G1 X146.857 Y73.972 E20.80153
G1 X147.302 Y74.968 E20.83781
G1 X147.494 Y75.462 E20.85544
G1 X147.85 Y76.54 E20.8932
G1 X147.99 Y77.051 E20.91082
G1 X148.249 Y78.261 E20.95198
G1 X148.328 Y78.767 E20.96901
G1 X148.444 Y79.863 E21.00567
G1 X148.478 Y80.484 E21.02635
G1 X148.493 Y80.954 E21.04199
G1 X148.5 Y81.587 E21.06305
G1 X148.499 Y90.427 E21.35707
G1 X148.489 Y91.144 E21.38092
G1 X148.436 Y92.081 E21.41213
G1 X148.303 Y93.009 E21.44331
G1 X148.139 Y93.749 E21.46852
G1 X147.472 Y96.323 E21.55696
G1 X146.899 Y98.819 E21.64214
G1 X146.414 Y101.24 E21.72426
G1 X145.988 Y103.737 E21.80851
G1 X145.635 Y106.218 E21.89186
G1 X145.355 Y108.697 E21.97484
G1 X145.14 Y111.231 E22.05942
G1 X144.999 Y113.747 E22.14323
G1 X144.928 Y116.267 E22.22708
G1 X144.93 Y118.792 E22.31106
G1 X145.001 Y121.279 E22.39382
G1 X145.146 Y123.814 E22.47827
G1 X145.357 Y126.3 E22.56125
G1 X145.645 Y128.818 E22.64554
G1 X145.999 Y131.301 E22.72896
G1 X146.424 Y133.776 E22.81249
G1 X146.922 Y136.256 E22.89662
G1 X147.499 Y138.755 E22.98192
G1 X147.808 Y139.976 E23.02381
G1 X148.129 Y141.204 E23.06603
G1 X148.328 Y142.121 E23.09724
G1 X148.447 Y143.051 E23.12842
G1 X148.479 Y143.571 E23.14575
G1 X148.492 Y143.915 E23.1572
G1 X148.5 Y144.33 E23.17101
G1 X148.499 Y153.402 E23.47274
G1 X148.487 Y154.278 E23.50188
G1 X148.465 Y154.831 E23.52029
G1 X148.441 Y155.205 E23.53275
G1 X148.34 Y156.148 E23.5643
G1 X148.262 Y156.663 E23.58162
G1 X148.083 Y157.579 E23.61266
G1 X148.031 Y157.796 E23.62009
G1 X147.932 Y158.181 E23.63331
G1 X147.853 Y158.465 E23.64311
G1 X147.536 Y159.429 E23.67686
G1 X147.348 Y159.923 E23.69444
G1 X146.869 Y161.003 E23.73374
G1 X146.623 Y161.486 E23.75177
G1 X146.07 Y162.449 E23.7887
G1 X145.788 Y162.887 E23.80603
G1 X145.086 Y163.856 E23.84583
G1 X144.766 Y164.251 E23.86274
G1 X144.017 Y165.085 E23.90002
G1 X143.63 Y165.474 E23.91827
G1 X142.709 Y166.301 E23.95944
G1 X142.312 Y166.619 E23.97636
G1 X141.441 Y167.25 E24.01213
G1 X140.996 Y167.54 E24.0298
G1 X139.962 Y168.136 E24.06949
G1 X139.518 Y168.361 E24.08605
G1 X138.538 Y168.799 E24.12175
G1 X138.045 Y168.991 E24.13935
G1 X136.954 Y169.351 E24.17756
G1 X136.442 Y169.491 E24.19521
G1 X135.244 Y169.748 E24.23596
G1 X134.74 Y169.827 E24.25293
G1 X133.549 Y169.948 E24.29275
G1 X132.777 Y169.984 E24.31845
G1 X132.384 Y169.995 E24.33153
G1 X131.896 Y170 E24.34776
G1 X103.057 Y169.999 E25.30695
G1 X102.248 Y169.988 E25.33386
G1 X101.702 Y169.967 E25.35203
G1 X101.292 Y169.941 E25.3657
G1 X100.327 Y169.837 E25.39798
G1 X99.823 Y169.76 E25.41494
G1 X98.921 Y169.583 E25.44551
G1 X98.704 Y169.531 E25.45293
G1 X98.319 Y169.432 E25.46615
G1 X98.035 Y169.353 E25.47596
G1 X97.062 Y169.032 E25.51004
G1 X96.564 Y168.842 E25.52776
G1 X95.484 Y168.363 E25.56706
