;FLAVOR:Marlin
;TIME:11388
;Filament used: 8.00246m
;Layer height: 0.2
;MINX:74.84
;MINY:67
;MINZ:0.2
;MAXX:149.81
;MAXY:172
;MAXZ:35
;Generated with Cura_SteamEngine 4.6.1
M140 S60
M105
M190 S60
M104 S200
M105
M109 S200
M82 ;absolute extrusion mode
; Ender 3 Custom Start G-code
G92 E0 ; Reset Extruder
G28 ; Home all axes
G1 Z2.0 F3000 ; Move Z Axis up little to prevent scratching of Heat Bed
G1 X0.1 Y20 Z0.3 F5000.0 ; Move to start position
G1 X0.1 Y200.0 Z0.3 F1500.0 E15 ; Draw the first line
G1 X0.4 Y200.0 Z0.3 F5000.0 ; Move to side a little
G1 X0.4 Y20 Z0.3 F1500.0 E30 ; Draw the second line
G92 E0 ; Reset Extruder
G1 Z2.0 F3000 ; Move Z Axis up little to prevent scratching of Heat Bed
G1 X5 Y20 Z0.3 F5000.0 ; Move over to prevent blob squish
G92 E0
G92 E0
G1 F1500 E-6.5
;LAYER_COUNT:175
;LAYER:0
M107
G0 F6000 X134.089 Y67.813 Z0.2
;TYPE:SKIRT
G1 F1500 E0
G1 F1200 X134.694 Y67.839 E0.02014
G1 X135.034 Y67.864 E0.03148
G1 X135.71 Y67.937 E0.05409
G1 X136.178 Y68.003 E0.06981
G1 X137.269 Y68.218 E0.1068
G1 X137.831 Y68.361 E0.12609
G1 X138.586 Y68.584 E0.15227
G1 X138.781 Y68.65 E0.15912
G1 X139.408 Y68.886 E0.1814
G1 X139.812 Y69.053 E0.19594
G1 X140.778 Y69.513 E0.23153
G1 X141.298 Y69.795 E0.2512
G1 X142.022 Y70.227 E0.27924
G1 X142.274 Y70.392 E0.28926
G1 X142.819 Y70.775 E0.31142
G1 X143.029 Y70.933 E0.32016
G1 X143.489 Y71.301 E0.33975
G1 X143.77 Y71.539 E0.352
G1 X144.28 Y72.001 E0.37489
G1 X144.481 Y72.196 E0.3842
G1 X144.907 Y72.635 E0.40455
G1 X145.12 Y72.868 E0.41505
G1 X145.548 Y73.367 E0.43691
G1 X145.767 Y73.64 E0.44855
G1 X146.12 Y74.107 E0.46802
G1 X146.251 Y74.291 E0.47553
G1 X146.651 Y74.898 E0.49971
G1 X146.879 Y75.272 E0.51428
G1 X147.16 Y75.763 E0.5331
G1 X147.257 Y75.944 E0.53993
G1 X147.555 Y76.546 E0.56227
G1 X147.688 Y76.839 E0.57297
G1 X147.931 Y77.423 E0.59401
G1 X148.08 Y77.814 E0.60793
G1 X148.416 Y78.862 E0.64453
G1 X148.576 Y79.473 E0.66554
G1 X148.831 Y80.796 E0.71035
G1 X148.905 Y81.39 E0.73026
G1 X148.971 Y82.163 E0.75606
G1 X148.986 Y82.476 E0.76649
G1 X148.997 Y82.816 E0.7778
G1 X149.009 Y83.72 E0.80787
G1 X149.009 Y92.445 E1.09807
G1 X148.999 Y93.138 E1.12112
G1 X148.946 Y94.04 E1.15117
G1 X148.878 Y94.561 E1.16864
G1 X148.81 Y94.995 E1.18326
G1 X148.43 Y97.661 E1.27282
G1 X148.143 Y100.172 E1.35688
G1 X147.927 Y102.699 E1.44124
G1 X147.783 Y105.249 E1.52619
G1 X147.709 Y107.814 E1.61153
G1 X147.699 Y109.168 E1.65657
G1 X147.697 Y130.657 E2.3713
G1 X147.756 Y133.19 E2.45557
G1 X147.889 Y135.777 E2.54173
G1 X148.087 Y138.248 E2.62417
G1 X148.365 Y140.807 E2.70979
G1 X148.716 Y143.37 E2.79583
G1 X148.826 Y144.056 E2.81894
G1 X148.897 Y144.551 E2.83557
G1 X148.995 Y145.691 E2.87363
G1 X149.01 Y146.33 E2.89488
G1 X149.009 Y155.426 E3.19742
G1 X148.998 Y156.242 E3.22456
G1 X148.971 Y156.858 E3.24507
G1 X148.942 Y157.25 E3.25814
G1 X148.87 Y157.921 E3.28059
G1 X148.807 Y158.368 E3.2956
G1 X148.592 Y159.459 E3.33259
G1 X148.449 Y160.021 E3.35188
G1 X148.231 Y160.762 E3.37757
G1 X148.166 Y160.955 E3.38434
G1 X147.925 Y161.596 E3.40712
G1 X147.765 Y161.983 E3.42104
G1 X147.504 Y162.563 E3.4422
G1 X147.376 Y162.825 E3.4519
G1 X147.058 Y163.424 E3.47445
G1 X146.949 Y163.614 E3.48174
G1 X146.64 Y164.119 E3.50143
G1 X146.404 Y164.48 E3.51578
G1 X146.047 Y164.991 E3.53651
G1 X145.907 Y165.179 E3.5443
G1 X145.509 Y165.679 E3.56556
G1 X145.271 Y165.96 E3.57781
G1 X144.809 Y166.47 E3.6007
G1 X144.614 Y166.671 E3.61001
G1 X144.171 Y167.102 E3.63057
G1 X143.941 Y167.312 E3.64093
G1 X143.456 Y167.727 E3.66216
G1 X143.18 Y167.949 E3.67394
G1 X142.689 Y168.32 E3.69441
G1 X142.479 Y168.469 E3.70297
G1 X141.913 Y168.843 E3.72553
G1 X141.654 Y169.002 E3.73564
G1 X141.105 Y169.316 E3.75668
G1 X140.723 Y169.519 E3.77106
G1 X139.693 Y169.995 E3.8088
G1 X139.12 Y170.222 E3.8293
G1 X137.951 Y170.605 E3.87022
G1 X137.341 Y170.765 E3.89119
G1 X136.02 Y171.02 E3.93594
G1 X135.453 Y171.091 E3.95495
G1 X134.657 Y171.159 E3.98152
G1 X134.203 Y171.18 E3.99663
G1 X133.87 Y171.19 E4.00771
G1 X133.067 Y171.2 E4.03442
G1 X104.442 Y171.199 E4.9865
G1 X103.416 Y171.183 E5.02063
G1 X102.752 Y171.151 E5.04274
G1 X102.542 Y171.134 E5.04974
G1 X101.939 Y171.067 E5.06992
G1 X101.415 Y170.993 E5.08752
G1 X100.259 Y170.761 E5.12674
G1 X99.701 Y170.615 E5.14592
G1 X98.569 Y170.247 E5.18551
G1 X97.991 Y170.021 E5.20615
G1 X96.842 Y169.487 E5.2483
G1 X96.322 Y169.205 E5.26797
G1 X95.581 Y168.762 E5.29669
G1 X95.327 Y168.595 E5.3068
G1 X94.805 Y168.227 E5.32804
G1 X94.596 Y168.07 E5.33673
G1 X94.13 Y167.698 E5.35656
G1 X93.849 Y167.46 E5.36881
G1 X93.355 Y167.014 E5.39095
G1 X93.15 Y166.816 E5.40043
G1 X92.702 Y166.355 E5.42181
G1 X92.493 Y166.126 E5.43212
G1 X92.056 Y165.615 E5.45448
G1 X91.838 Y165.342 E5.4661
G1 X91.482 Y164.868 E5.48582
G1 X91.332 Y164.656 E5.49446
G1 X90.976 Y164.116 E5.51597
G1 X90.817 Y163.858 E5.52605
G1 X90.488 Y163.285 E5.54803
G1 X90.286 Y162.904 E5.56237
G1 X89.812 Y161.875 E5.60005
G1 X89.582 Y161.293 E5.62086
G1 X89.323 Y160.556 E5.64685
G1 X89.212 Y160.197 E5.65934
G1 X88.392 Y157.672 E5.74764
G1 X87.554 Y155.317 E5.83078
G1 X86.625 Y152.923 E5.91619
G1 X85.636 Y150.576 E6.0009
G1 X84.579 Y148.253 E6.08579
G1 X83.47 Y145.986 E6.16973
G1 X82.307 Y143.772 E6.25291
G1 X81.043 Y141.523 E6.33871
G1 X79.751 Y139.368 E6.42228
G1 X78.021 Y136.678 E6.52866
G1 X77.625 Y136.084 E6.5524
G1 X77.2 Y135.387 E6.57955
G1 X77.083 Y135.177 E6.58755
G1 X76.678 Y134.37 E6.61758
G1 X76.33 Y133.48 E6.64937
G1 X76.212 Y133.131 E6.66162
G1 X75.961 Y132.264 E6.69164
G1 X75.788 Y131.377 E6.7217
G1 X75.718 Y130.8 E6.74103
G1 X75.683 Y130.42 E6.75372
G1 X75.64 Y129.517 E6.78379
G1 X75.675 Y128.637 E6.81308
G1 X75.698 Y128.361 E6.82229
G1 X75.813 Y127.465 E6.85234
G1 X76.07 Y126.354 E6.89027
G1 X76.179 Y125.98 E6.90322
G1 X76.47 Y125.125 E6.93326
G1 X77.006 Y123.97 E6.97561
G1 X78.271 Y121.638 E7.06385
G1 X79.431 Y119.362 E7.14882
G1 X80.518 Y117.074 E7.23307
G1 X81.548 Y114.735 E7.31807
G1 X82.511 Y112.375 E7.40285
G1 X83.392 Y110.021 E7.48645
G1 X84.214 Y107.623 E7.57076
G1 X84.976 Y105.177 E7.65597
G1 X85.658 Y102.747 E7.73992
G1 X86.286 Y100.239 E7.82591
G1 X86.819 Y97.816 E7.90842
G1 X87.305 Y95.276 E7.99444
G1 X87.703 Y92.812 E8.07745
G1 X88.041 Y90.272 E8.16268
G1 X88.302 Y87.763 E8.24658
G1 X88.498 Y85.174 E8.33294
G1 X88.584 Y83.524 E8.38789
G1 X88.63 Y82.454 E8.42351
G1 X88.65 Y82.127 E8.43441
G1 X88.68 Y81.728 E8.44771
G1 X88.752 Y81.06 E8.47006
G1 X88.814 Y80.623 E8.48474
G1 X89.028 Y79.541 E8.52143
G1 X89.171 Y78.979 E8.54071
G1 X89.389 Y78.238 E8.5664
G1 X89.454 Y78.045 E8.57318
G1 X89.696 Y77.401 E8.59606
G1 X89.864 Y76.995 E8.61067
G1 X90.323 Y76.032 E8.64616
G1 X90.605 Y75.512 E8.66583
G1 X91.032 Y74.796 E8.69356
G1 X91.196 Y74.545 E8.70353
G1 X91.589 Y73.985 E8.72628
G1 X91.748 Y73.774 E8.73507
G1 X92.111 Y73.321 E8.75438
G1 X92.349 Y73.04 E8.76663
G1 X92.811 Y72.53 E8.78952
G1 X93.006 Y72.329 E8.79883
G1 X93.445 Y71.903 E8.81918
G1 X93.678 Y71.69 E8.82968
G1 X94.177 Y71.262 E8.85154
G1 X94.45 Y71.043 E8.86318
G1 X94.931 Y70.68 E8.88322
G1 X95.141 Y70.531 E8.89179
G1 X95.707 Y70.157 E8.91435
G1 X95.966 Y69.998 E8.92446
G1 X96.515 Y69.684 E8.9455
G1 X96.897 Y69.481 E8.95988
G1 X97.919 Y69.008 E8.99734
G1 X98.493 Y68.78 E9.01788
G1 X99.71 Y68.383 E9.06046
G1 X100.334 Y68.222 E9.08189
G1 X101.612 Y67.978 E9.12517
G1 X102.17 Y67.908 E9.14387
G1 X102.967 Y67.84 E9.17048
G1 X103.398 Y67.82 E9.18483
G1 X103.733 Y67.81 E9.19597
G1 X104.535 Y67.8 E9.22265
G1 X133.231 Y67.801 E10.17708
G1 X134.089 Y67.813 E10.20562
G0 F6000 X134.094 Y67.413
G1 F1200 X134.723 Y67.441 E10.22656
G1 X135.063 Y67.466 E10.2379
G1 X135.766 Y67.541 E10.26142
G1 X136.234 Y67.607 E10.27714
G1 X137.368 Y67.83 E10.31558
G1 X137.93 Y67.973 E10.33486
G1 X138.714 Y68.206 E10.36207
G1 X138.909 Y68.272 E10.36892
G1 X139.56 Y68.516 E10.39204
G1 X139.964 Y68.683 E10.40658
G1 X140.968 Y69.161 E10.44356
G1 X141.488 Y69.443 E10.46324
G1 X142.242 Y69.893 E10.49244
G1 X142.494 Y70.058 E10.50246
G1 X143.06 Y70.456 E10.52547
G1 X143.27 Y70.614 E10.53422
G1 X143.748 Y70.995 E10.55455
G1 X144.029 Y71.233 E10.56679
G1 X144.559 Y71.714 E10.5906
G1 X144.76 Y71.909 E10.59991
G1 X145.203 Y72.365 E10.62106
G1 X145.416 Y72.598 E10.63156
G1 X145.86 Y73.117 E10.65428
G1 X146.079 Y73.39 E10.66592
G1 X146.446 Y73.875 E10.68614
G1 X146.577 Y74.059 E10.69366
G1 X146.993 Y74.689 E10.71877
G1 X147.221 Y75.063 E10.73334
G1 X147.513 Y75.574 E10.75291
G1 X147.61 Y75.755 E10.75974
G1 X147.919 Y76.381 E10.78296
G1 X148.052 Y76.674 E10.79366
G1 X148.305 Y77.28 E10.8155
G1 X148.454 Y77.671 E10.82942
G1 X148.803 Y78.761 E10.86749
G1 X148.963 Y79.372 E10.88849
G1 X149.158 Y80.272 E10.91912
G1 X149.228 Y80.747 E10.93509
G1 X149.302 Y81.341 E10.955
G1 X149.371 Y82.144 E10.98181
G1 X149.386 Y82.457 E10.99223
G1 X149.397 Y82.81 E11.00398
G1 X149.409 Y83.72 E11.03425
G1 X149.409 Y92.451 E11.32464
G1 X149.399 Y93.144 E11.34769
G1 X149.346 Y94.063 E11.37831
G1 X149.274 Y94.622 E11.39706
G1 X149.193 Y95.14 E11.41449
G1 X148.83 Y97.687 E11.50006
G1 X148.538 Y100.251 E11.58589
G1 X148.326 Y102.725 E11.66848
G1 X148.183 Y105.246 E11.75246
G1 X148.109 Y107.83 E11.83844
G1 X148.099 Y109.171 E11.88305
G1 X148.097 Y130.648 E12.59737
G1 X148.157 Y133.196 E12.68214
G1 X148.286 Y135.723 E12.7663
G1 X148.488 Y138.245 E12.85045
G1 X148.76 Y140.746 E12.93413
G1 X149.109 Y143.292 E13.0196
G1 X149.222 Y143.999 E13.04341
G1 X149.293 Y144.494 E13.06004
G1 X149.395 Y145.679 E13.0996
G1 X149.41 Y146.33 E13.12126
G1 X149.409 Y155.432 E13.424
G1 X149.398 Y156.248 E13.45114
G1 X149.37 Y156.887 E13.47241
G1 X149.341 Y157.279 E13.48549
G1 X149.266 Y157.976 E13.5088
G1 X149.203 Y158.423 E13.52382
G1 X148.98 Y159.558 E13.56229
G1 X148.837 Y160.12 E13.58158
G1 X148.61 Y160.889 E13.60824
G1 X148.545 Y161.082 E13.61502
G1 X148.295 Y161.749 E13.63871
G1 X148.135 Y162.136 E13.65264
G1 X147.863 Y162.739 E13.67464
G1 X147.735 Y163.001 E13.68434
G1 X147.405 Y163.623 E13.70776
G1 X147.296 Y163.813 E13.71504
G1 X146.974 Y164.338 E13.73553
G1 X146.738 Y164.699 E13.74987
G1 X146.368 Y165.23 E13.7714
G1 X146.228 Y165.418 E13.77919
G1 X145.815 Y165.938 E13.80128
G1 X145.577 Y166.219 E13.81353
G1 X145.096 Y166.749 E13.83733
G1 X144.901 Y166.95 E13.84665
G1 X144.44 Y167.397 E13.868
G1 X144.21 Y167.607 E13.87836
G1 X143.707 Y168.039 E13.90042
G1 X143.431 Y168.261 E13.9122
G1 X142.921 Y168.646 E13.93345
G1 X142.711 Y168.795 E13.94202
G1 X142.123 Y169.184 E13.96546
G1 X141.864 Y169.343 E13.97557
G1 X141.292 Y169.669 E13.99747
G1 X140.91 Y169.872 E14.01186
G1 X139.84 Y170.367 E14.05107
G1 X139.267 Y170.594 E14.07157
G1 X138.052 Y170.992 E14.11409
G1 X137.442 Y171.152 E14.13507
G1 X136.543 Y171.347 E14.16566
G1 X136.07 Y171.417 E14.18157
G1 X135.503 Y171.488 E14.20057
G1 X134.676 Y171.559 E14.22818
G1 X134.222 Y171.58 E14.2433
G1 X133.875 Y171.59 E14.25484
G1 X133.067 Y171.6 E14.28172
G1 X104.436 Y171.599 E15.23399
G1 X103.41 Y171.583 E15.26812
G1 X102.72 Y171.549 E15.2911
G1 X102.51 Y171.532 E15.2981
G1 X101.883 Y171.463 E15.31908
G1 X101.359 Y171.389 E15.33669
G1 X100.158 Y171.148 E15.37743
G1 X99.6 Y171.002 E15.39661
G1 X98.423 Y170.619 E15.43778
G1 X97.845 Y170.393 E15.45842
G1 X96.652 Y169.839 E15.50217
G1 X96.132 Y169.557 E15.52184
G1 X95.362 Y169.096 E15.55169
G1 X95.108 Y168.929 E15.5618
G1 X94.565 Y168.547 E15.58389
G1 X94.356 Y168.39 E15.59258
G1 X93.871 Y168.004 E15.6132
G1 X93.59 Y167.766 E15.62544
G1 X93.077 Y167.301 E15.64847
G1 X92.872 Y167.103 E15.65795
G1 X92.407 Y166.625 E15.68013
G1 X92.198 Y166.396 E15.69044
G1 X91.744 Y165.864 E15.71371
G1 X91.526 Y165.591 E15.72533
G1 X91.156 Y165.099 E15.7458
G1 X91.006 Y164.887 E15.75444
G1 X90.635 Y164.326 E15.77681
G1 X90.476 Y164.068 E15.78689
G1 X90.135 Y163.472 E15.80973
G1 X89.933 Y163.091 E15.82407
G1 X89.44 Y162.022 E15.86322
G1 X89.21 Y161.44 E15.88404
G1 X88.941 Y160.674 E15.91104
G1 X88.823 Y160.291 E15.92437
G1 X88.022 Y157.824 E16.01064
G1 X87.165 Y155.417 E16.09562
G1 X86.26 Y153.087 E16.17876
G1 X85.28 Y150.761 E16.26271
G1 X84.227 Y148.445 E16.34732
G1 X83.113 Y146.169 E16.4316
G1 X81.931 Y143.919 E16.51614
G1 X80.71 Y141.745 E16.59907
G1 X79.4 Y139.561 E16.68377
G1 X77.712 Y136.935 E16.7876
G1 X77.292 Y136.306 E16.81276
G1 X76.85 Y135.582 E16.84097
G1 X76.733 Y135.372 E16.84897
G1 X76.32 Y134.549 E16.87959
G1 X75.951 Y133.608 E16.91321
G1 X75.833 Y133.259 E16.92547
G1 X75.577 Y132.375 E16.95608
G1 X75.398 Y131.472 E16.98669
G1 X75.32 Y130.836 E17.00801
G1 X75.285 Y130.456 E17.0207
G1 X75.24 Y129.537 E17.0513
G1 X75.277 Y128.604 E17.08236
G1 X75.3 Y128.328 E17.09157
G1 X75.416 Y127.414 E17.12221
G1 X75.686 Y126.242 E17.16221
G1 X75.795 Y125.868 E17.17517
G1 X76.091 Y124.996 E17.2058
G1 X76.655 Y123.779 E17.25041
G1 X77.913 Y121.46 E17.33816
G1 X79.072 Y119.187 E17.42302
G1 X80.155 Y116.906 E17.50701
G1 X81.184 Y114.571 E17.59187
G1 X82.13 Y112.25 E17.67524
G1 X83.015 Y109.888 E17.75913
G1 X83.847 Y107.458 E17.84456
G1 X84.585 Y105.088 E17.92712
G1 X85.27 Y102.647 E18.01144
G1 X85.894 Y100.161 E18.09669
G1 X86.429 Y97.727 E18.17958
G1 X86.914 Y95.187 E18.26559
G1 X87.309 Y92.738 E18.34809
G1 X87.641 Y90.245 E18.43174
G1 X87.903 Y87.727 E18.51595
G1 X88.098 Y85.166 E18.60137
G1 X88.189 Y83.411 E18.65982
G1 X88.231 Y82.437 E18.69225
G1 X88.251 Y82.097 E18.70357
G1 X88.281 Y81.698 E18.71688
G1 X88.356 Y81.004 E18.7401
G1 X88.418 Y80.567 E18.75478
G1 X88.64 Y79.442 E18.79292
G1 X88.783 Y78.88 E18.81221
G1 X89.01 Y78.111 E18.83888
G1 X89.075 Y77.918 E18.84565
G1 X89.326 Y77.248 E18.86945
G1 X89.494 Y76.842 E18.88406
G1 X89.971 Y75.842 E18.92091
G1 X90.253 Y75.322 E18.94058
G1 X90.697 Y74.577 E18.96943
G1 X90.861 Y74.326 E18.9794
G1 X91.269 Y73.745 E19.00302
G1 X91.428 Y73.534 E19.0118
G1 X91.805 Y73.062 E19.03189
G1 X92.043 Y72.781 E19.04414
G1 X92.524 Y72.251 E19.06795
G1 X92.719 Y72.05 E19.07726
G1 X93.175 Y71.607 E19.09841
G1 X93.408 Y71.394 E19.10891
G1 X93.927 Y70.95 E19.13162
G1 X94.2 Y70.731 E19.14326
G1 X94.699 Y70.354 E19.16407
G1 X94.909 Y70.205 E19.17263
G1 X95.497 Y69.816 E19.19608
G1 X95.756 Y69.657 E19.20619
G1 X96.328 Y69.331 E19.22808
G1 X96.71 Y69.128 E19.24247
G1 X97.771 Y68.637 E19.28136
G1 X98.345 Y68.409 E19.3019
G1 X99.61 Y67.996 E19.34616
G1 X100.234 Y67.835 E19.36759
G1 X101.563 Y67.581 E19.4126
G1 X102.121 Y67.511 E19.4313
G1 X102.949 Y67.44 E19.45894
G1 X103.38 Y67.42 E19.47329
G1 X103.727 Y67.41 E19.48484
G1 X104.535 Y67.4 E19.51171
G1 X133.236 Y67.401 E20.46631
G1 X134.094 Y67.413 E20.49485
G0 F6000 X134.1 Y67.013
G1 F1200 X134.753 Y67.042 E20.51659
G1 X135.093 Y67.067 E20.52793
G1 X135.822 Y67.145 E20.55232
G1 X136.29 Y67.211 E20.56804
G1 X137.467 Y67.443 E20.60794
G1 X138.029 Y67.586 E20.62723
G1 X138.843 Y67.827 E20.65546
G1 X139.038 Y67.893 E20.66231
G1 X139.713 Y68.146 E20.68628
G1 X140.117 Y68.313 E20.70082
G1 X141.159 Y68.809 E20.73921
G1 X141.679 Y69.091 E20.75888
G1 X142.461 Y69.558 E20.78918
G1 X142.713 Y69.723 E20.79919
G1 X143.3 Y70.136 E20.82307
G1 X143.51 Y70.294 E20.83181
G1 X144.006 Y70.69 E20.85292
G1 X144.287 Y70.928 E20.86516
G1 X144.837 Y71.427 E20.88986
G1 X145.038 Y71.622 E20.89918
G1 X145.498 Y72.095 E20.92112
G1 X145.711 Y72.328 E20.93162
G1 X146.172 Y72.867 E20.95521
G1 X146.391 Y73.14 E20.96685
G1 X146.772 Y73.643 E20.98784
G1 X146.903 Y73.827 E20.99535
G1 X147.334 Y74.481 E21.0214
G1 X147.562 Y74.855 E21.03597
G1 X147.865 Y75.385 E21.05628
G1 X147.962 Y75.566 E21.06311
G1 X148.283 Y76.215 E21.08719
G1 X148.416 Y76.508 E21.09789
G1 X148.679 Y77.138 E21.1206
G1 X148.828 Y77.529 E21.13452
G1 X149.19 Y78.659 E21.17398
G1 X149.35 Y79.27 E21.19499
G1 X149.549 Y80.187 E21.2262
G1 X149.625 Y80.697 E21.24335
G1 X149.699 Y81.291 E21.26326
G1 X149.77 Y82.124 E21.29106
G1 X149.785 Y82.437 E21.30149
G1 X149.797 Y82.804 E21.3137
G1 X149.809 Y83.72 E21.34417
G1 X149.809 Y92.457 E21.63476
G1 X149.799 Y93.15 E21.65781
G1 X149.745 Y94.086 E21.689
G1 X149.669 Y94.684 E21.70905
G1 X149.592 Y95.181 E21.72577
G1 X149.225 Y97.757 E21.81232
G1 X148.939 Y100.259 E21.89608
G1 X148.723 Y102.78 E21.98023
G1 X148.582 Y105.281 E22.06355
G1 X148.509 Y107.796 E22.14723
G1 X148.499 Y109.174 E22.19307
