;FLAVOR:Marlin
;TIME:11361
;Filament used: 8.00555m
;Layer height: 0.2
;MINX:74.556
;MINY:67
;MINZ:0.2
;MAXX:148.318
;MAXY:172
;MAXZ:35
;Generated with Cura_SteamEngine 4.6.1
M140 S60
M105
M190 S60
M104 S200
M105
M109 S200
M82 ;absolute extrusion mode
; Ender 3 Custom Start G-code
G92 E0 ; Reset Extruder
G28 ; Home all axes
G1 Z2.0 F3000 ; Move Z Axis up little to prevent scratching of Heat Bed
G1 X0.1 Y20 Z0.3 F5000.0 ; Move to start position
G1 X0.1 Y200.0 Z0.3 F1500.0 E15 ; Draw the first line
G1 X0.4 Y200.0 Z0.3 F5000.0 ; Move to side a little
G1 X0.4 Y20 Z0.3 F1500.0 E30 ; Draw the second line
G92 E0 ; Reset Extruder
G1 Z2.0 F3000 ; Move Z Axis up little to prevent scratching of Heat Bed
G1 X5 Y20 Z0.3 F5000.0 ; Move over to prevent blob squish
G92 E0
G92 E0
G1 F1500 E-6.5
;LAYER_COUNT:175
;LAYER:0
M107
G0 F6000 X132.192 Y67.813 Z0.2
;TYPE:SKIRT
G1 F1500 E0
G1 F1200 X132.698 Y67.833 E0.01684
G1 X133.105 Y67.859 E0.03041
G1 X133.991 Y67.954 E0.06004
G1 X134.49 Y68.03 E0.07683
G1 X135.534 Y68.246 E0.11229
G1 X136.035 Y68.377 E0.12952
G1 X137.083 Y68.712 E0.16611
G1 X137.577 Y68.9 E0.18369
G1 X138.571 Y69.34 E0.21984
G1 X139.055 Y69.586 E0.2379
G1 X139.985 Y70.122 E0.2736
G1 X140.415 Y70.401 E0.29065
G1 X141.252 Y71.007 E0.32502
G1 X141.654 Y71.33 E0.34217
G1 X142.459 Y72.05 E0.37809
G1 X142.847 Y72.436 E0.3963
G1 X143.604 Y73.278 E0.43396
G1 X143.919 Y73.67 E0.45068
G1 X144.513 Y74.489 E0.48433
G1 X144.807 Y74.94 E0.50224
G1 X145.356 Y75.891 E0.53876
G1 X145.581 Y76.334 E0.55529
G1 X145.994 Y77.258 E0.58895
G1 X146.186 Y77.752 E0.60658
G1 X146.516 Y78.752 E0.6416
G1 X146.656 Y79.263 E0.65922
G1 X146.897 Y80.385 E0.69739
G1 X146.976 Y80.891 E0.71443
G1 X147.083 Y81.906 E0.74837
G1 X147.117 Y82.527 E0.76906
G1 X147.131 Y82.963 E0.78357
G1 X147.138 Y83.587 E0.80432
G1 X147.137 Y92.441 E1.09881
G1 X147.111 Y93.603 E1.13747
G1 X147.035 Y96.249 E1.22551
G1 X147.035 Y98.784 E1.30982
G1 X147.106 Y101.318 E1.39414
G1 X147.252 Y103.908 E1.48042
G1 X147.35 Y105.173 E1.52262
G1 X147.456 Y106.415 E1.56408
G1 X147.491 Y107.074 E1.58603
G1 X147.518 Y108.508 E1.63373
G1 X147.513 Y131.296 E2.39166
G1 X147.502 Y131.659 E2.40374
G1 X147.46 Y132.51 E2.43208
G1 X147.436 Y132.867 E2.44398
G1 X147.356 Y133.806 E2.47533
G1 X147.172 Y136.416 E2.56235
G1 X147.067 Y138.939 E2.64634
G1 X147.032 Y141.481 E2.73089
G1 X147.069 Y144.023 E2.81545
G1 X147.088 Y144.469 E2.8303
G1 X147.138 Y146.33 E2.89222
G1 X147.137 Y155.391 E3.19359
G1 X147.125 Y156.267 E3.22273
G1 X147.105 Y156.78 E3.2398
G1 X147.081 Y157.154 E3.25227
G1 X146.987 Y158.028 E3.2815
G1 X146.909 Y158.543 E3.29883
G1 X146.743 Y159.393 E3.32763
G1 X146.691 Y159.61 E3.33505
G1 X146.599 Y159.967 E3.34732
G1 X146.52 Y160.251 E3.35712
G1 X146.226 Y161.145 E3.38842
G1 X146.038 Y161.639 E3.406
G1 X145.594 Y162.64 E3.44242
G1 X145.348 Y163.123 E3.46045
G1 X144.835 Y164.016 E3.4947
G1 X144.553 Y164.454 E3.51203
G1 X143.903 Y165.353 E3.54893
G1 X143.583 Y165.748 E3.56584
G1 X142.888 Y166.521 E3.60041
G1 X142.501 Y166.91 E3.61866
G1 X141.647 Y167.677 E3.65684
G1 X141.25 Y167.995 E3.67376
G1 X140.442 Y168.58 E3.70694
G1 X139.997 Y168.87 E3.7246
G1 X139.039 Y169.422 E3.76138
G1 X138.595 Y169.647 E3.77793
G1 X137.686 Y170.054 E3.81106
G1 X137.193 Y170.246 E3.82865
G1 X136.181 Y170.58 E3.8641
G1 X135.669 Y170.72 E3.88175
G1 X134.559 Y170.958 E3.91951
G1 X134.055 Y171.037 E3.93648
G1 X132.95 Y171.149 E3.97342
G1 X132.178 Y171.185 E3.99912
G1 X131.814 Y171.195 E4.01124
G1 X131.334 Y171.2 E4.0272
G1 X102.506 Y171.199 E4.98602
G1 X101.697 Y171.188 E5.01293
G1 X101.19 Y171.169 E5.02981
G1 X100.78 Y171.143 E5.04347
G1 X99.886 Y171.046 E5.07338
G1 X99.382 Y170.969 E5.09034
G1 X98.545 Y170.805 E5.11871
G1 X98.328 Y170.753 E5.12613
G1 X97.971 Y170.661 E5.13839
G1 X97.687 Y170.582 E5.1482
G1 X96.785 Y170.285 E5.17978
G1 X96.287 Y170.095 E5.19751
G1 X95.286 Y169.65 E5.23394
G1 X94.806 Y169.405 E5.25187
G1 X93.926 Y168.899 E5.28563
G1 X93.489 Y168.618 E5.30291
G1 X92.585 Y167.965 E5.34
G1 X92.19 Y167.645 E5.35691
G1 X91.417 Y166.95 E5.39148
G1 X91.024 Y166.559 E5.40992
G1 X90.251 Y165.697 E5.44843
G1 X89.936 Y165.303 E5.46521
G1 X89.357 Y164.503 E5.49806
G1 X89.067 Y164.058 E5.51572
G1 X88.51 Y163.09 E5.55287
G1 X88.278 Y162.631 E5.56997
G1 X87.866 Y161.706 E5.60365
G1 X87.679 Y161.222 E5.62091
G1 X87.433 Y160.508 E5.64603
G1 X87.195 Y159.68 E5.67468
G1 X86.691 Y157.803 E5.73932
G1 X85.95 Y155.331 E5.82516
G1 X85.16 Y152.943 E5.90882
G1 X84.288 Y150.533 E5.99406
G1 X83.368 Y148.201 E6.07744
G1 X82.371 Y145.872 E6.1617
G1 X81.297 Y143.544 E6.24697
G1 X80.158 Y141.249 E6.33219
G1 X78.978 Y139.032 E6.41572
G1 X77.711 Y136.806 E6.50091
G1 X77.039 Y135.681 E6.54449
G1 X76.513 Y134.679 E6.58213
G1 X76.394 Y134.418 E6.59168
G1 X76.056 Y133.58 E6.62173
G1 X75.873 Y133.006 E6.64177
G1 X75.789 Y132.714 E6.65187
G1 X75.578 Y131.836 E6.68191
G1 X75.478 Y131.226 E6.70247
G1 X75.441 Y130.945 E6.71189
G1 X75.363 Y130.045 E6.74194
G1 X75.356 Y129.414 E6.76293
G1 X75.362 Y129.107 E6.77314
G1 X75.42 Y128.205 E6.8032
G1 X75.503 Y127.603 E6.82341
G1 X75.546 Y127.349 E6.83198
G1 X75.736 Y126.467 E6.86199
G1 X75.905 Y125.89 E6.88199
G1 X76.009 Y125.571 E6.89315
G1 X76.327 Y124.726 E6.92318
G1 X76.602 Y124.136 E6.94483
G1 X77.058 Y123.234 E6.97844
G1 X78.239 Y120.808 E7.06819
G1 X79.274 Y118.519 E7.15174
G1 X80.252 Y116.185 E7.23591
G1 X81.188 Y113.762 E7.3223
G1 X82.009 Y111.435 E7.40437
G1 X82.796 Y108.988 E7.48987
G1 X83.513 Y106.529 E7.57506
G1 X84.153 Y104.075 E7.65941
G1 X84.715 Y101.642 E7.74246
G1 X85.225 Y99.11 E7.82837
G1 X85.654 Y96.604 E7.91293
G1 X86.007 Y94.131 E7.99602
G1 X86.297 Y91.595 E8.08092
G1 X86.515 Y89.047 E8.16597
G1 X86.659 Y86.539 E8.24953
G1 X86.735 Y83.865 E8.3385
G1 X86.751 Y82.73 E8.37625
G1 X86.772 Y82.204 E8.39376
G1 X86.798 Y81.808 E8.40696
G1 X86.897 Y80.911 E8.43698
G1 X86.974 Y80.415 E8.45367
G1 X87.133 Y79.605 E8.48113
G1 X87.184 Y79.392 E8.48841
G1 X87.277 Y79.033 E8.50075
G1 X87.356 Y78.749 E8.51055
G1 X87.655 Y77.843 E8.54228
G1 X87.851 Y77.33 E8.56055
G1 X88.299 Y76.324 E8.59718
G1 X88.54 Y75.853 E8.61477
G1 X89.07 Y74.937 E8.64997
G1 X89.351 Y74.505 E8.66711
G1 X89.971 Y73.651 E8.70221
G1 X90.293 Y73.253 E8.71924
G1 X90.992 Y72.475 E8.75403
G1 X91.377 Y72.088 E8.77218
G1 X92.234 Y71.319 E8.81048
G1 X92.63 Y71.002 E8.82735
G1 X93.44 Y70.416 E8.8606
G1 X93.884 Y70.127 E8.87822
G1 X94.829 Y69.582 E8.91451
G1 X95.274 Y69.356 E8.93111
G1 X96.208 Y68.939 E8.96513
G1 X96.701 Y68.748 E8.98271
G1 X97.709 Y68.417 E9.018
G1 X98.22 Y68.278 E9.03561
G1 X99.298 Y68.046 E9.07229
G1 X99.802 Y67.966 E9.08926
G1 X100.846 Y67.855 E9.12418
G1 X101.47 Y67.821 E9.14496
G1 X101.903 Y67.807 E9.15937
G1 X102.525 Y67.8 E9.18006
G1 X131.344 Y67.801 E10.13859
G1 X132.192 Y67.813 E10.16679
G0 F6000 X132.198 Y67.413
G1 F1200 X132.724 Y67.434 E10.1843
G1 X133.131 Y67.46 E10.19787
G1 X134.051 Y67.559 E10.22864
G1 X134.55 Y67.635 E10.24543
G1 X135.636 Y67.859 E10.28231
G1 X136.137 Y67.99 E10.29954
G1 X137.225 Y68.338 E10.33753
G1 X137.719 Y68.526 E10.35511
G1 X138.752 Y68.984 E10.39269
G1 X139.236 Y69.23 E10.41075
G1 X140.203 Y69.787 E10.44787
G1 X140.633 Y70.066 E10.46492
G1 X141.502 Y70.695 E10.5006
G1 X141.904 Y71.018 E10.51775
G1 X142.741 Y71.766 E10.55508
G1 X143.129 Y72.152 E10.57329
G1 X143.916 Y73.027 E10.61243
G1 X144.231 Y73.419 E10.62915
G1 X144.848 Y74.27 E10.66412
G1 X145.142 Y74.721 E10.68202
G1 X145.713 Y75.71 E10.72
G1 X145.938 Y76.153 E10.73653
G1 X146.367 Y77.113 E10.7715
G1 X146.559 Y77.607 E10.78913
G1 X146.902 Y78.646 E10.82552
G1 X147.042 Y79.157 E10.84314
G1 X147.292 Y80.323 E10.88281
G1 X147.371 Y80.829 E10.89984
G1 X147.482 Y81.885 E10.93516
G1 X147.516 Y82.506 E10.95584
G1 X147.531 Y82.958 E10.97088
G1 X147.538 Y83.587 E10.99181
G1 X147.537 Y92.447 E11.28649
G1 X147.519 Y93.422 E11.31893
G1 X147.51 Y93.63 E11.32585
G1 X147.435 Y96.26 E11.41336
G1 X147.435 Y98.773 E11.49694
G1 X147.506 Y101.319 E11.58166
G1 X147.649 Y103.854 E11.6661
G1 X147.749 Y105.139 E11.70897
G1 X147.855 Y106.381 E11.75043
G1 X147.891 Y107.066 E11.77325
G1 X147.918 Y108.508 E11.82122
G1 X147.913 Y131.301 E12.57931
G1 X147.901 Y131.679 E12.59189
G1 X147.859 Y132.53 E12.62023
G1 X147.834 Y132.901 E12.6326
G1 X147.758 Y133.794 E12.66241
G1 X147.573 Y136.429 E12.75026
G1 X147.467 Y138.961 E12.83455
G1 X147.432 Y141.48 E12.91834
G1 X147.469 Y143.999 E13.00213
G1 X147.487 Y144.457 E13.01738
G1 X147.538 Y146.33 E13.0797
G1 X147.537 Y155.396 E13.38123
G1 X147.525 Y156.272 E13.41037
G1 X147.504 Y156.806 E13.42815
G1 X147.48 Y157.18 E13.44061
G1 X147.382 Y158.088 E13.47099
G1 X147.304 Y158.603 E13.48831
G1 X147.132 Y159.486 E13.51823
G1 X147.08 Y159.703 E13.52566
G1 X146.984 Y160.074 E13.5384
G1 X146.905 Y160.358 E13.54821
G1 X146.6 Y161.287 E13.58073
G1 X146.412 Y161.781 E13.59831
G1 X145.95 Y162.822 E13.63619
G1 X145.704 Y163.305 E13.65422
G1 X145.172 Y164.232 E13.68976
G1 X144.89 Y164.67 E13.70709
G1 X144.213 Y165.604 E13.74546
G1 X143.893 Y165.999 E13.76237
G1 X143.172 Y166.803 E13.79828
G1 X142.785 Y167.192 E13.81654
G1 X141.897 Y167.989 E13.85622
G1 X141.5 Y168.307 E13.87314
G1 X140.66 Y168.915 E13.90763
G1 X140.215 Y169.205 E13.9253
G1 X139.22 Y169.779 E13.9635
G1 X138.776 Y170.004 E13.98006
G1 X137.831 Y170.426 E14.01448
G1 X137.338 Y170.618 E14.03208
G1 X136.287 Y170.966 E14.0689
G1 X135.775 Y171.106 E14.08655
G1 X134.62 Y171.353 E14.12584
G1 X134.116 Y171.432 E14.1428
G1 X132.969 Y171.548 E14.18115
G1 X132.197 Y171.584 E14.20685
G1 X131.818 Y171.595 E14.21946
G1 X131.334 Y171.6 E14.23556
G1 X102.501 Y171.599 E15.19455
G1 X101.692 Y171.588 E15.22146
G1 X101.165 Y171.568 E15.239
G1 X100.755 Y171.542 E15.25267
G1 X99.825 Y171.441 E15.28378
G1 X99.321 Y171.364 E15.30074
G1 X98.452 Y171.194 E15.33019
G1 X98.235 Y171.142 E15.33761
G1 X97.864 Y171.046 E15.35036
G1 X97.58 Y170.967 E15.36016
G1 X96.642 Y170.659 E15.393
G1 X96.144 Y170.469 E15.41073
G1 X95.104 Y170.006 E15.44859
G1 X94.624 Y169.761 E15.46651
G1 X93.71 Y169.236 E15.50157
G1 X93.273 Y168.955 E15.51885
G1 X92.334 Y168.275 E15.55741
G1 X91.939 Y167.955 E15.57432
G1 X91.135 Y167.233 E15.61026
G1 X90.742 Y166.842 E15.6287
G1 X89.939 Y165.947 E15.66869
G1 X89.624 Y165.553 E15.68547
G1 X89.022 Y164.721 E15.71963
G1 X88.732 Y164.276 E15.73729
G1 X88.153 Y163.271 E15.77587
G1 X87.921 Y162.812 E15.79298
G1 X87.493 Y161.85 E15.828
G1 X87.306 Y161.366 E15.84525
G1 X87.051 Y160.624 E15.87135
G1 X86.91 Y160.151 E15.88777
G1 X86.809 Y159.784 E15.90043
G1 X86.305 Y157.907 E15.96507
G1 X85.573 Y155.465 E16.04986
G1 X84.78 Y153.068 E16.13383
G1 X83.915 Y150.679 E16.21834
G1 X82.999 Y148.357 E16.30136
G1 X81.998 Y146.018 E16.38598
G1 X80.933 Y143.71 E16.47052
G1 X79.812 Y141.45 E16.55443
G1 X78.627 Y139.224 E16.63831
G1 X77.359 Y136.995 E16.7236
G1 X76.696 Y135.886 E16.76657
G1 X76.149 Y134.844 E16.80572
G1 X76.03 Y134.583 E16.81526
G1 X75.685 Y133.73 E16.84586
G1 X75.488 Y133.116 E16.86731
G1 X75.404 Y132.824 E16.87741
G1 X75.188 Y131.929 E16.90804
G1 X75.082 Y131.278 E16.92997
G1 X75.045 Y130.997 E16.9394
G1 X74.964 Y130.08 E16.97002
G1 X74.956 Y129.406 E16.99244
G1 X74.962 Y129.099 E17.00265
G1 X75.02 Y128.18 E17.03328
G1 X75.109 Y127.537 E17.05487
G1 X75.152 Y127.283 E17.06343
G1 X75.345 Y126.382 E17.09408
G1 X75.525 Y125.766 E17.11543
G1 X75.629 Y125.447 E17.12659
G1 X75.952 Y124.585 E17.1572
G1 X76.245 Y123.956 E17.18028
G1 X76.713 Y123.029 E17.21482
G1 X77.874 Y120.647 E17.30296
G1 X78.904 Y118.366 E17.3862
G1 X79.881 Y116.035 E17.47026
G1 X80.81 Y113.632 E17.55595
G1 X81.642 Y111.274 E17.63912
G1 X82.405 Y108.902 E17.72199
G1 X83.124 Y106.435 E17.80746
G1 X83.764 Y103.98 E17.89184
G1 X84.326 Y101.544 E17.97499
G1 X84.834 Y99.029 E18.06033
G1 X85.257 Y96.557 E18.14374
G1 X85.608 Y94.096 E18.22643
G1 X85.903 Y91.517 E18.31276
G1 X86.113 Y89.061 E18.39475
G1 X86.259 Y86.505 E18.4799
G1 X86.335 Y83.847 E18.56834
G1 X86.351 Y82.724 E18.6057
G1 X86.373 Y82.178 E18.62387
G1 X86.399 Y81.782 E18.63707
G1 X86.501 Y80.85 E18.66825
G1 X86.578 Y80.354 E18.68495
G1 X86.744 Y79.512 E18.71349
G1 X86.795 Y79.299 E18.72078
G1 X86.971 Y78.642 E18.7434
G1 X87.281 Y77.7 E18.77638
G1 X87.477 Y77.187 E18.79465
G1 X87.943 Y76.142 E18.8327
G1 X88.184 Y75.671 E18.8503
G1 X88.734 Y74.719 E18.88687
G1 X89.015 Y74.287 E18.90401
G1 X89.66 Y73.4 E18.94049
G1 X89.982 Y73.002 E18.95751
G1 X90.708 Y72.193 E18.99367
G1 X91.093 Y71.806 E19.01182
G1 X91.984 Y71.007 E19.05163
G1 X92.38 Y70.69 E19.0685
G1 X93.221 Y70.081 E19.10304
G1 X93.665 Y69.792 E19.12066
G1 X94.648 Y69.225 E19.1584
G1 X95.093 Y68.999 E19.175
G1 X96.064 Y68.566 E19.21036
G1 X96.557 Y68.375 E19.22795
G1 X97.604 Y68.031 E19.2646
G1 X98.115 Y67.892 E19.28221
G1 X99.235 Y67.651 E19.32032
G1 X99.739 Y67.571 E19.33729
G1 X100.824 Y67.456 E19.37358
G1 X101.448 Y67.422 E19.39437
G1 X101.898 Y67.407 E19.40934
G1 X102.525 Y67.4 E19.4302
G1 X131.35 Y67.401 E20.38892
G1 X132.198 Y67.413 E20.41713
G0 F6000 X132.204 Y67.013
G1 F1200 X132.749 Y67.034 E20.43527
G1 X133.156 Y67.06 E20.44883
G1 X134.111 Y67.163 E20.48078
G1 X134.61 Y67.239 E20.49757
G1 X135.737 Y67.472 E20.53585
G1 X136.238 Y67.603 E20.55307
G1 X137.367 Y67.964 E20.59249
G1 X137.861 Y68.152 E20.61007
G1 X138.933 Y68.627 E20.64907
G1 X139.417 Y68.873 E20.66713
G1 X140.42 Y69.451 E20.70563
G1 X140.85 Y69.73 E20.72268
G1 X141.753 Y70.383 E20.75974
G1 X142.155 Y70.706 E20.7769
G1 X143.023 Y71.483 E20.81564
G1 X143.411 Y71.869 E20.83385
G1 X144.228 Y72.777 E20.87447
G1 X144.543 Y73.169 E20.8912
G1 X145.183 Y74.052 E20.92747
G1 X145.477 Y74.503 E20.94538
G1 X146.07 Y75.529 E20.98479
G1 X146.295 Y75.972 E21.00132
G1 X146.74 Y76.968 E21.0376
G1 X146.932 Y77.462 E21.05523
G1 X147.288 Y78.54 E21.09299
G1 X147.428 Y79.051 E21.11061
G1 X147.687 Y80.261 E21.15176
G1 X147.766 Y80.767 E21.1688
G1 X147.882 Y81.863 E21.20546
G1 X147.916 Y82.484 E21.22614
G1 X147.931 Y82.954 E21.24178
G1 X147.938 Y83.587 E21.26284
G1 X147.937 Y92.453 E21.55772
G1 X147.909 Y93.658 E21.59781
G1 X147.835 Y96.237 E21.68362
G1 X147.835 Y98.762 E21.7676
G1 X147.906 Y101.286 E21.85159
G1 X148.05 Y103.848 E21.93693
G1 X148.154 Y105.186 E21.98157
G1 X148.253 Y106.347 E22.02032
G1 X148.291 Y107.058 E22.04401
G1 X148.318 Y108.508 E22.09224
G1 X148.313 Y131.307 E22.85054
G1 X148.301 Y131.698 E22.86355
G1 X148.259 Y132.549 E22.89189
G1 X148.233 Y132.935 E22.90476
G1 X148.155 Y133.858 E22.93557
G1 X147.97 Y136.473 E23.02276
G1 X147.867 Y138.948 E23.10515
G1 X147.832 Y141.48 E23.18937
G1 X147.869 Y144.01 E23.27353
G1 X147.887 Y144.445 E23.28801
G1 X147.938 Y146.33 E23.35073
G1 X147.937 Y155.402 E23.65246
G1 X147.925 Y156.278 E23.6816
G1 X147.903 Y156.831 E23.70001
G1 X147.879 Y157.205 E23.71247
G1 X147.778 Y158.148 E23.74402
G1 X147.7 Y158.663 E23.76134
G1 X147.521 Y159.579 E23.79238
G1 X147.469 Y159.796 E23.79981
G1 X147.37 Y160.181 E23.81303
G1 X147.291 Y160.465 E23.82283
G1 X146.974 Y161.429 E23.85658
G1 X146.786 Y161.923 E23.87416
G1 X146.307 Y163.003 E23.91346
G1 X146.061 Y163.486 E23.93149
G1 X145.508 Y164.449 E23.96842
G1 X145.226 Y164.887 E23.98575
G1 X144.524 Y165.856 E24.02555
G1 X144.204 Y166.251 E24.04245
G1 X143.455 Y167.085 E24.07974
G1 X143.068 Y167.474 E24.09799
G1 X142.147 Y168.301 E24.13916
G1 X141.75 Y168.619 E24.15608
G1 X140.879 Y169.25 E24.19185
G1 X140.434 Y169.54 E24.20952
G1 X139.4 Y170.136 E24.24921
G1 X138.956 Y170.361 E24.26577
G1 X137.976 Y170.799 E24.30147
G1 X137.483 Y170.991 E24.31906
G1 X136.392 Y171.351 E24.35728
G1 X135.88 Y171.491 E24.37493
G1 X134.682 Y171.748 E24.41568
G1 X134.178 Y171.827 E24.43265
G1 X132.987 Y171.948 E24.47247
G1 X132.215 Y171.984 E24.49817
G1 X131.822 Y171.995 E24.51125
G1 X131.334 Y172 E24.52748
G1 X102.495 Y171.999 E25.48667
G1 X101.686 Y171.988 E25.51358
G1 X101.14 Y171.967 E25.53175
G1 X100.73 Y171.941 E25.54542
G1 X99.765 Y171.837 E25.5777
G1 X99.261 Y171.76 E25.59466
G1 X98.359 Y171.583 E25.62523
G1 X98.142 Y171.531 E25.63265
G1 X97.757 Y171.432 E25.64587
G1 X97.473 Y171.353 E25.65568
G1 X96.5 Y171.032 E25.68975
G1 X96.002 Y170.842 E25.70748
G1 X94.922 Y170.363 E25.74678
G1 X94.442 Y170.118 E25.7647
G1 X93.494 Y169.572 E25.80109
G1 X93.057 Y169.291 E25.81837
