;FLAVOR:Marlin
;TIME:10932
;Filament used: 7.85728m
;Layer height: 0.2
;MINX:85.14
;MINY:65
;MINZ:0.2
;MAXX:148.5
;MAXY:170
;MAXZ:24.4
;Generated with Cura_SteamEngine 4.6.1
M140 S60
M105
M190 S60
M104 S200
M105
M109 S200
M82 ;absolute extrusion mode
; Ender 3 Custom Start G-code
G92 E0 ; Reset Extruder
G28 ; Home all axes
G1 Z2.0 F3000 ; Move Z Axis up little to prevent scratching of Heat Bed
G1 X0.1 Y20 Z0.3 F5000.0 ; Move to start position
G1 X0.1 Y200.0 Z0.3 F1500.0 E15 ; Draw the first line
G1 X0.4 Y200.0 Z0.3 F5000.0 ; Move to side a little
G1 X0.4 Y20 Z0.3 F1500.0 E30 ; Draw the second line
G92 E0 ; Reset Extruder
G1 Z2.0 F3000 ; Move Z Axis up little to prevent scratching of Heat Bed
G1 X5 Y20 Z0.3 F5000.0 ; Move over to prevent blob squish
G92 E0
G92 E0
G1 F1500 E-6.5
;LAYER_COUNT:122
;LAYER:0
M107
G0 F6000 X132.779 Y65.813 Z0.2
;TYPE:SKIRT
G1 F1500 E0
G1 F1200 X133.384 Y65.839 E0.02014
G1 X133.724 Y65.864 E0.03148
G1 X134.4 Y65.937 E0.05409
G1 X134.868 Y66.003 E0.06981
G1 X135.959 Y66.218 E0.1068
G1 X136.521 Y66.361 E0.12609
G1 X137.276 Y66.584 E0.15227
G1 X137.471 Y66.65 E0.15912
G1 X138.098 Y66.886 E0.1814
G1 X138.502 Y67.053 E0.19594
G1 X139.468 Y67.513 E0.23153
G1 X139.988 Y67.795 E0.2512
G1 X140.712 Y68.227 E0.27924
G1 X140.964 Y68.392 E0.28926
G1 X141.509 Y68.775 E0.31142
G1 X141.719 Y68.933 E0.32016
G1 X142.179 Y69.301 E0.33975
G1 X142.46 Y69.539 E0.352
G1 X142.97 Y70.001 E0.37489
G1 X143.171 Y70.196 E0.3842
G1 X143.597 Y70.635 E0.40455
G1 X143.81 Y70.868 E0.41505
G1 X144.238 Y71.367 E0.43691
G1 X144.457 Y71.64 E0.44855
G1 X144.812 Y72.109 E0.46812
G1 X144.96 Y72.317 E0.47661
G1 X145.345 Y72.9 E0.49984
G1 X145.505 Y73.161 E0.51003
G1 X145.821 Y73.714 E0.53121
G1 X146.023 Y74.095 E0.54555
G1 X146.486 Y75.096 E0.58223
G1 X146.714 Y75.668 E0.60272
G1 X147.107 Y76.865 E0.64462
G1 X147.267 Y77.477 E0.66566
G1 X147.521 Y78.796 E0.71033
G1 X147.595 Y79.39 E0.73024
G1 X147.661 Y80.163 E0.75605
G1 X147.676 Y80.476 E0.76647
G1 X147.687 Y80.816 E0.77778
G1 X147.699 Y81.72 E0.80785
G1 X147.699 Y90.445 E1.09805
G1 X147.689 Y91.138 E1.1211
G1 X147.636 Y92.04 E1.15115
G1 X147.57 Y92.554 E1.16839
G1 X147.428 Y93.47 E1.19922
G1 X147.07 Y95.983 E1.28364
G1 X146.778 Y98.552 E1.36964
G1 X146.566 Y101.04 E1.45269
G1 X146.421 Y103.601 E1.53801
G1 X146.348 Y106.146 E1.62269
G1 X146.346 Y107.509 E1.66802
G1 X146.34 Y127.545 E2.33442
G1 X146.377 Y130.15 E2.42107
G1 X146.486 Y132.716 E2.5065
G1 X146.662 Y135.207 E2.58955
G1 X146.915 Y137.744 E2.67435
G1 X147.241 Y140.29 E2.75973
G1 X147.488 Y141.87 E2.81291
G1 X147.585 Y142.542 E2.8355
G1 X147.685 Y143.691 E2.87386
G1 X147.7 Y144.33 E2.89512
G1 X147.699 Y153.426 E3.19765
G1 X147.688 Y154.242 E3.22479
G1 X147.661 Y154.858 E3.2453
G1 X147.632 Y155.25 E3.25837
G1 X147.56 Y155.921 E3.28082
G1 X147.497 Y156.368 E3.29583
G1 X147.282 Y157.459 E3.33282
G1 X147.139 Y158.021 E3.35211
G1 X146.921 Y158.762 E3.3778
G1 X146.856 Y158.955 E3.38457
G1 X146.612 Y159.604 E3.40763
G1 X146.445 Y160.007 E3.42214
G1 X145.993 Y160.956 E3.4571
G1 X145.71 Y161.479 E3.47688
G1 X145.273 Y162.212 E3.50526
G1 X145.11 Y162.461 E3.51516
G1 X144.731 Y163 E3.53708
G1 X144.571 Y163.213 E3.54594
G1 X144.199 Y163.679 E3.56577
G1 X143.961 Y163.96 E3.57802
G1 X143.499 Y164.47 E3.60091
G1 X143.304 Y164.671 E3.61022
G1 X142.865 Y165.097 E3.63057
G1 X142.632 Y165.31 E3.64107
G1 X142.133 Y165.738 E3.66293
G1 X141.86 Y165.957 E3.67457
G1 X141.379 Y166.32 E3.69461
G1 X141.169 Y166.469 E3.70318
G1 X140.603 Y166.843 E3.72574
G1 X140.344 Y167.002 E3.73585
G1 X139.796 Y167.316 E3.75686
G1 X139.416 Y167.518 E3.77117
G1 X138.388 Y167.993 E3.80884
G1 X137.813 Y168.221 E3.82941
G1 X136.641 Y168.605 E3.87043
G1 X136.031 Y168.765 E3.8914
G1 X134.719 Y169.019 E3.93585
G1 X134.148 Y169.091 E3.95499
G1 X133.324 Y169.161 E3.9825
G1 X132.566 Y169.19 E4.00773
G1 X131.789 Y169.2 E4.03357
G1 X103.132 Y169.199 E4.98671
G1 X102.106 Y169.183 E5.02084
G1 X101.442 Y169.151 E5.04295
G1 X101.232 Y169.134 E5.04996
G1 X100.638 Y169.068 E5.06983
G1 X100.139 Y168.998 E5.08659
G1 X99.041 Y168.782 E5.12381
G1 X98.479 Y168.639 E5.1431
G1 X97.724 Y168.416 E5.16928
G1 X97.529 Y168.35 E5.17613
G1 X96.902 Y168.114 E5.19841
G1 X96.498 Y167.947 E5.21295
G1 X95.532 Y167.487 E5.24854
G1 X95.012 Y167.205 E5.26822
G1 X94.271 Y166.762 E5.29693
G1 X94.017 Y166.595 E5.30704
G1 X93.495 Y166.227 E5.32828
G1 X93.286 Y166.07 E5.33698
G1 X92.817 Y165.696 E5.35693
G1 X92.535 Y165.457 E5.36922
G1 X92.044 Y165.013 E5.39124
G1 X91.84 Y164.816 E5.40067
G1 X91.392 Y164.355 E5.42205
G1 X91.183 Y164.126 E5.43237
G1 X90.746 Y163.615 E5.45473
G1 X90.528 Y163.342 E5.46635
G1 X90.172 Y162.868 E5.48606
G1 X90.022 Y162.656 E5.4947
G1 X89.666 Y162.116 E5.51621
G1 X89.507 Y161.858 E5.52629
G1 X89.178 Y161.285 E5.54827
G1 X88.976 Y160.904 E5.56261
G1 X88.502 Y159.875 E5.60029
G1 X88.272 Y159.293 E5.62111
G1 X87.888 Y158.117 E5.66226
G1 X87.73 Y157.511 E5.68308
G1 X87.477 Y156.19 E5.72782
G1 X87.404 Y155.6 E5.74759
G1 X87.339 Y154.838 E5.77303
G1 X87.324 Y154.526 E5.78342
G1 X87.313 Y154.185 E5.79477
G1 X87.301 Y153.284 E5.82474
G1 X87.301 Y150.964 E5.9019
G1 X87.264 Y148.358 E5.98858
G1 X87.155 Y145.79 E6.07407
G1 X86.978 Y143.288 E6.1575
G1 X86.729 Y140.775 E6.24149
G1 X86.403 Y138.231 E6.3268
G1 X86.147 Y136.603 E6.38161
G1 X86.052 Y135.937 E6.40398
G1 X85.955 Y134.809 E6.44164
G1 X85.94 Y134.17 E6.4629
G1 X85.941 Y105.061 E7.43107
G1 X85.951 Y104.364 E7.45425
G1 X86.004 Y103.462 E7.48431
G1 X86.071 Y102.944 E7.50168
G1 X86.209 Y102.056 E7.53157
G1 X86.565 Y99.56 E7.61542
G1 X86.859 Y96.978 E7.70186
G1 X87.074 Y94.459 E7.78594
G1 X87.216 Y91.957 E7.8693
G1 X87.291 Y89.365 E7.95554
G1 X87.3 Y88.03 E7.99994
G1 X87.301 Y81.575 E8.21464
G1 X87.312 Y80.749 E8.24211
G1 X87.341 Y80.107 E8.26349
G1 X87.371 Y79.715 E8.27657
G1 X87.442 Y79.06 E8.29848
G1 X87.504 Y78.623 E8.31316
G1 X87.718 Y77.541 E8.34984
G1 X87.861 Y76.979 E8.36913
G1 X88.079 Y76.239 E8.39479
G1 X88.146 Y76.04 E8.40177
G1 X88.392 Y75.385 E8.42504
G1 X88.558 Y74.985 E8.43945
G1 X89.013 Y74.032 E8.47457
G1 X89.295 Y73.512 E8.49425
G1 X89.722 Y72.796 E8.52197
G1 X89.886 Y72.545 E8.53195
G1 X90.279 Y71.985 E8.5547
G1 X90.438 Y71.774 E8.56349
G1 X90.801 Y71.321 E8.5828
G1 X91.039 Y71.04 E8.59504
G1 X91.501 Y70.53 E8.61793
G1 X91.696 Y70.329 E8.62725
G1 X92.135 Y69.903 E8.64759
G1 X92.368 Y69.69 E8.65809
G1 X92.867 Y69.262 E8.67996
G1 X93.14 Y69.043 E8.6916
G1 X93.621 Y68.68 E8.71164
G1 X93.831 Y68.531 E8.72021
G1 X94.397 Y68.157 E8.74277
G1 X94.656 Y67.998 E8.75288
G1 X95.205 Y67.684 E8.77391
G1 X95.587 Y67.481 E8.7883
G1 X96.617 Y67.005 E8.82604
G1 X97.19 Y66.778 E8.84654
G1 X98.359 Y66.395 E8.88745
G1 X98.969 Y66.235 E8.90843
G1 X100.285 Y65.981 E8.95301
G1 X100.858 Y65.909 E8.97221
G1 X101.657 Y65.84 E8.99889
G1 X102.088 Y65.82 E9.01324
G1 X102.423 Y65.81 E9.02439
G1 X103.225 Y65.8 E9.05106
G1 X131.921 Y65.801 E10.0055
G1 X132.779 Y65.813 E10.03404
G0 F6000 X132.784 Y65.413
G1 F1200 X133.413 Y65.441 E10.05498
G1 X133.753 Y65.466 E10.06632
G1 X134.456 Y65.541 E10.08983
G1 X134.924 Y65.607 E10.10555
G1 X136.058 Y65.83 E10.14399
G1 X136.62 Y65.973 E10.16328
G1 X137.404 Y66.206 E10.19048
G1 X137.599 Y66.272 E10.19733
G1 X138.25 Y66.516 E10.22045
G1 X138.654 Y66.683 E10.23499
G1 X139.658 Y67.161 E10.27198
G1 X140.178 Y67.443 E10.29165
G1 X140.932 Y67.893 E10.32086
G1 X141.184 Y68.058 E10.33087
G1 X141.75 Y68.456 E10.35389
G1 X141.96 Y68.614 E10.36263
G1 X142.438 Y68.995 E10.38296
G1 X142.719 Y69.233 E10.39521
G1 X143.249 Y69.714 E10.41901
G1 X143.45 Y69.909 E10.42833
G1 X143.893 Y70.365 E10.44947
G1 X144.106 Y70.598 E10.45997
G1 X144.55 Y71.117 E10.48269
G1 X144.769 Y71.39 E10.49433
G1 X145.138 Y71.878 E10.51468
G1 X145.286 Y72.086 E10.52317
G1 X145.686 Y72.691 E10.54729
G1 X145.846 Y72.952 E10.55747
G1 X146.174 Y73.527 E10.57949
G1 X146.376 Y73.908 E10.59383
G1 X146.858 Y74.948 E10.63196
G1 X147.086 Y75.52 E10.65244
G1 X147.494 Y76.764 E10.69598
G1 X147.654 Y77.376 E10.71702
G1 X147.848 Y78.276 E10.74764
G1 X147.918 Y78.747 E10.76348
G1 X147.992 Y79.341 E10.78339
G1 X148.061 Y80.144 E10.8102
G1 X148.076 Y80.457 E10.82062
G1 X148.087 Y80.81 E10.83237
G1 X148.099 Y81.72 E10.86263
G1 X148.099 Y90.451 E11.15303
G1 X148.089 Y91.144 E11.17608
G1 X148.036 Y92.063 E11.2067
G1 X147.965 Y92.615 E11.22521
G1 X147.831 Y93.481 E11.25435
G1 X147.464 Y96.053 E11.34077
G1 X147.179 Y98.56 E11.42469
G1 X146.963 Y101.098 E11.50941
G1 X146.821 Y103.598 E11.59269
G1 X146.748 Y106.159 E11.6779
G1 X146.746 Y107.509 E11.72281
G1 X146.74 Y127.539 E12.38901
G1 X146.777 Y130.163 E12.47629
G1 X146.884 Y132.672 E12.55981
G1 X147.061 Y135.172 E12.64317
G1 X147.315 Y137.724 E12.72847
G1 X147.633 Y140.214 E12.81196
G1 X147.884 Y141.813 E12.8658
G1 X147.981 Y142.485 E12.88838
G1 X148.085 Y143.679 E12.92824
G1 X148.1 Y144.33 E12.9499
G1 X148.099 Y153.432 E13.25263
G1 X148.088 Y154.248 E13.27978
G1 X148.06 Y154.887 E13.30105
G1 X148.031 Y155.279 E13.31412
G1 X147.956 Y155.976 E13.33744
G1 X147.893 Y156.423 E13.35245
G1 X147.67 Y157.558 E13.39093
G1 X147.527 Y158.12 E13.41021
G1 X147.3 Y158.889 E13.43688
G1 X147.235 Y159.082 E13.44366
G1 X146.982 Y159.757 E13.46763
G1 X146.815 Y160.16 E13.48214
G1 X146.345 Y161.147 E13.5185
G1 X146.062 Y161.67 E13.53828
G1 X145.608 Y162.431 E13.56775
G1 X145.445 Y162.68 E13.57765
G1 X145.051 Y163.24 E13.60042
G1 X144.891 Y163.453 E13.60928
G1 X144.505 Y163.938 E13.6299
G1 X144.267 Y164.219 E13.64215
G1 X143.786 Y164.749 E13.66595
G1 X143.591 Y164.95 E13.67527
G1 X143.135 Y165.393 E13.69641
G1 X142.902 Y165.606 E13.70691
G1 X142.383 Y166.05 E13.72963
G1 X142.11 Y166.269 E13.74127
G1 X141.611 Y166.646 E13.76207
G1 X141.401 Y166.795 E13.77064
G1 X140.813 Y167.184 E13.79409
G1 X140.554 Y167.343 E13.80419
G1 X139.983 Y167.669 E13.82606
G1 X139.603 Y167.871 E13.84038
G1 X138.535 Y168.365 E13.87951
G1 X137.96 Y168.593 E13.90009
G1 X136.742 Y168.992 E13.94272
G1 X136.132 Y169.152 E13.96369
G1 X135.233 Y169.347 E13.99429
G1 X134.769 Y169.416 E14.00989
G1 X134.198 Y169.488 E14.02903
G1 X133.342 Y169.561 E14.05761
G1 X132.891 Y169.581 E14.07262
G1 X132.572 Y169.59 E14.08323
G1 X131.789 Y169.6 E14.10928
G1 X103.126 Y169.599 E15.06261
G1 X102.1 Y169.583 E15.09674
G1 X101.41 Y169.549 E15.11972
G1 X101.2 Y169.532 E15.12673
G1 X100.582 Y169.464 E15.14741
G1 X100.083 Y169.394 E15.16417
G1 X98.942 Y169.17 E15.20284
G1 X98.38 Y169.027 E15.22213
G1 X97.596 Y168.794 E15.24933
G1 X97.401 Y168.728 E15.25618
G1 X96.75 Y168.484 E15.2793
G1 X96.346 Y168.317 E15.29384
G1 X95.342 Y167.839 E15.33083
G1 X94.822 Y167.557 E15.3505
G1 X94.052 Y167.096 E15.38035
G1 X93.798 Y166.929 E15.39046
G1 X93.255 Y166.547 E15.41254
G1 X93.046 Y166.39 E15.42124
G1 X92.559 Y166.001 E15.44197
G1 X92.277 Y165.762 E15.45426
G1 X91.767 Y165.301 E15.47713
G1 X91.563 Y165.104 E15.48656
G1 X91.097 Y164.625 E15.50879
G1 X90.888 Y164.396 E15.5191
G1 X90.434 Y163.864 E15.54236
G1 X90.216 Y163.591 E15.55398
G1 X89.846 Y163.099 E15.57446
G1 X89.696 Y162.887 E15.58309
G1 X89.325 Y162.326 E15.60546
G1 X89.166 Y162.068 E15.61554
G1 X88.825 Y161.472 E15.63838
G1 X88.623 Y161.091 E15.65272
G1 X88.13 Y160.022 E15.69188
G1 X87.9 Y159.44 E15.71269
G1 X87.501 Y158.218 E15.75545
G1 X87.343 Y157.612 E15.77628
G1 X87.15 Y156.712 E15.80689
G1 X87.08 Y156.24 E15.82276
G1 X87.007 Y155.65 E15.84254
G1 X86.939 Y154.857 E15.86901
G1 X86.924 Y154.545 E15.8794
G1 X86.913 Y154.191 E15.89118
G1 X86.901 Y153.284 E15.92135
G1 X86.901 Y150.97 E15.99831
G1 X86.864 Y148.345 E16.08563
G1 X86.757 Y145.837 E16.16912
G1 X86.579 Y143.316 E16.25318
G1 X86.329 Y140.798 E16.33734
G1 X86.01 Y138.306 E16.4209
G1 X85.751 Y136.66 E16.47632
G1 X85.656 Y135.994 E16.49869
G1 X85.555 Y134.821 E16.53785
G1 X85.54 Y134.17 E16.55951
G1 X85.541 Y105.055 E17.52788
G1 X85.551 Y104.358 E17.55106
G1 X85.604 Y103.439 E17.58168
G1 X85.676 Y102.882 E17.60036
G1 X85.807 Y102.04 E17.6287
G1 X86.171 Y99.49 E17.71438
G1 X86.458 Y96.97 E17.79873
G1 X86.674 Y94.438 E17.88325
G1 X86.818 Y91.907 E17.96757
G1 X86.891 Y89.35 E18.05265
G1 X86.9 Y88.027 E18.09666
G1 X86.901 Y81.57 E18.31142
G1 X86.912 Y80.744 E18.33889
G1 X86.942 Y80.076 E18.36113
G1 X86.972 Y79.684 E18.37421
G1 X87.046 Y79.004 E18.39696
G1 X87.108 Y78.567 E18.41164
G1 X87.33 Y77.442 E18.44978
G1 X87.473 Y76.88 E18.46907
G1 X87.7 Y76.112 E18.4957
G1 X87.767 Y75.913 E18.50269
G1 X88.023 Y75.232 E18.52688
G1 X88.189 Y74.832 E18.54129
G1 X88.661 Y73.842 E18.57777
G1 X88.943 Y73.322 E18.59744
G1 X89.387 Y72.577 E18.62629
G1 X89.551 Y72.326 E18.63626
G1 X89.959 Y71.745 E18.65987
G1 X90.118 Y71.534 E18.66866
G1 X90.495 Y71.062 E18.68875
G1 X90.733 Y70.781 E18.701
G1 X91.214 Y70.251 E18.7248
G1 X91.409 Y70.05 E18.73412
G1 X91.865 Y69.607 E18.75526
G1 X92.098 Y69.394 E18.76576
G1 X92.617 Y68.95 E18.78848
G1 X92.89 Y68.731 E18.80012
G1 X93.389 Y68.354 E18.82092
G1 X93.599 Y68.205 E18.82949
G1 X94.187 Y67.816 E18.85294
G1 X94.446 Y67.657 E18.86304
G1 X95.018 Y67.331 E18.88494
G1 X95.4 Y67.128 E18.89933
G1 X96.47 Y66.633 E18.93854
G1 X97.043 Y66.406 E18.95904
G1 X98.258 Y66.008 E19.00156
G1 X98.868 Y65.848 E19.02254
G1 X99.767 Y65.653 E19.05314
G1 X100.235 Y65.584 E19.06887
G1 X100.808 Y65.512 E19.08808
G1 X101.639 Y65.44 E19.11582
G1 X102.07 Y65.42 E19.13017
G1 X102.417 Y65.41 E19.14172
G1 X103.225 Y65.4 E19.16859
G1 X131.926 Y65.401 E20.12319
G1 X132.784 Y65.413 E20.15173
G0 F6000 X132.79 Y65.013
G1 F1200 X133.443 Y65.042 E20.17347
G1 X133.783 Y65.067 E20.18481
G1 X134.512 Y65.145 E20.2092
G1 X134.98 Y65.211 E20.22492
G1 X136.157 Y65.443 E20.26482
G1 X136.719 Y65.586 E20.2841
G1 X137.533 Y65.827 E20.31234
G1 X137.728 Y65.893 E20.31919
G1 X138.403 Y66.146 E20.34316
G1 X138.807 Y66.313 E20.3577
G1 X139.849 Y66.809 E20.39609
G1 X140.369 Y67.091 E20.41576
G1 X141.151 Y67.558 E20.44606
G1 X141.403 Y67.723 E20.45607
G1 X141.99 Y68.136 E20.47995
G1 X142.2 Y68.294 E20.48869
G1 X142.696 Y68.69 E20.5098
G1 X142.977 Y68.928 E20.52204
G1 X143.527 Y69.427 E20.54674
G1 X143.728 Y69.622 E20.55606
G1 X144.188 Y70.095 E20.578
G1 X144.401 Y70.328 E20.5885
G1 X144.862 Y70.867 E20.61209
G1 X145.081 Y71.14 E20.62373
G1 X145.464 Y71.646 E20.64484
G1 X145.612 Y71.854 E20.65333
G1 X146.027 Y72.482 E20.67837
G1 X146.187 Y72.743 E20.68855
G1 X146.528 Y73.339 E20.71139
G1 X146.73 Y73.72 E20.72573
G1 X147.229 Y74.8 E20.7653
G1 X147.457 Y75.372 E20.78578
G1 X147.881 Y76.663 E20.83098
G1 X148.041 Y77.275 E20.85202
G1 X148.24 Y78.191 E20.88319
G1 X148.315 Y78.697 E20.90021
G1 X148.389 Y79.291 E20.92012
G1 X148.46 Y80.124 E20.94792
G1 X148.475 Y80.437 E20.95834
G1 X148.487 Y80.804 E20.97056
G1 X148.499 Y81.72 E21.00103
G1 X148.499 Y90.457 E21.29162
G1 X148.489 Y91.15 E21.31467
G1 X148.435 Y92.086 E21.34585
G1 X148.36 Y92.676 E21.36564
G1 X148.229 Y93.519 E21.39401
G1 X147.859 Y96.117 E21.48129
G1 X147.576 Y98.603 E21.56451
G1 X147.362 Y101.118 E21.64846
G1 X147.22 Y103.622 E21.73188
G1 X147.148 Y106.134 E21.81546
G1 X147.146 Y107.51 E21.86123
G1 X147.14 Y127.534 E22.52723
G1 X147.177 Y130.141 E22.61395
G1 X147.284 Y132.663 E22.69791
G1 X147.46 Y135.141 E22.78053
G1 X147.711 Y137.667 E22.86496
G1 X148.032 Y140.172 E22.94896
G1 X148.28 Y141.755 E23.00225
G1 X148.377 Y142.427 E23.02483
G1 X148.485 Y143.667 E23.06623
G1 X148.495 Y143.998 E23.07725
G1 X148.5 Y144.33 E23.08829
G1 X148.499 Y153.437 E23.39119
G1 X148.488 Y154.253 E23.41833
G1 X148.459 Y154.917 E23.44044
G1 X148.43 Y155.309 E23.45351
G1 X148.352 Y156.032 E23.4777
G1 X148.289 Y156.479 E23.49271
G1 X148.057 Y157.657 E23.53265
G1 X147.914 Y158.219 E23.55193
G1 X147.679 Y159.017 E23.5796
G1 X147.614 Y159.21 E23.58638
G1 X147.351 Y159.91 E23.61125
G1 X147.184 Y160.313 E23.62576
G1 X146.696 Y161.337 E23.66349
G1 X146.413 Y161.86 E23.68326
G1 X145.942 Y162.65 E23.71385
G1 X145.779 Y162.899 E23.72375
G1 X145.371 Y163.481 E23.74739
G1 X145.211 Y163.694 E23.75625
G1 X144.81 Y164.196 E23.77762
G1 X144.572 Y164.477 E23.78987
G1 X144.073 Y165.027 E23.81457
G1 X143.878 Y165.228 E23.82389
G1 X143.405 Y165.688 E23.84583
G1 X143.172 Y165.901 E23.85633
G1 X142.633 Y166.362 E23.87992
G1 X142.36 Y166.581 E23.89156
G1 X141.842 Y166.972 E23.91315
